(Generated with: DXF2GCODE, Version: PyQt5 Beta, Date: $Date: Sun Oct 4 21:49:52 2015 +0200 $)
(Created from file: C:/Users/jpflueger/Downloads/Result/apple.dxf)
(Time: Sat Feb 20 11:48:37 2016)
G20 (Units in inches)  G90 (Absolute programming) G64 (Default cutting) G17 (XY plane) G40 (Cancel radius comp.) G49 (Cancel length comp.)
G0 Z   0.591 

(*** LAYER: 0 ***)
T1 M6
S6000

(* SHAPE Nr: 0 *)
G0 X 127.000 Y 183.726
M3 M8
G0 Z   0.118 
F5
G1 Z  -0.059
F15
G1 X 127.000 Y 188.258
G2 X 127.136 Y 190.441 I  17.550 J   0.000
G2 X 127.577 Y 193.325 I  53.850 J  -6.752
G2 X 128.212 Y 196.380 I  57.984 J -10.461
G2 X 128.964 Y 199.145 I  40.851 J  -9.627
G2 X 133.667 Y 209.649 I  45.476 J -14.055
G2 X 140.741 Y 218.681 I  40.277 J -24.260
G2 X 149.840 Y 225.781 I  33.622 J -33.713
G2 X 160.500 Y 230.596 I  25.854 J -43.028
G2 X 162.233 Y 231.087 I   8.731 J -27.492
G2 X 164.133 Y 231.513 I   9.548 J -38.176
G2 X 165.916 Y 231.820 I   7.002 J -35.345
G2 X 167.250 Y 231.933 I   1.603 J -10.950
G2 X 168.836 Y 231.841 I   0.234 J  -9.627
G2 X 169.580 Y 231.387 I  -0.155 J  -1.090
G2 X 169.925 Y 230.411 I  -1.548 J  -1.096
G2 X 170.000 Y 228.049 I -37.242 J  -2.361
G2 X 168.960 Y 219.156 I -38.527 J   0.000
G2 X 165.870 Y 210.076 I -49.188 J  11.669
G2 X 161.070 Y 201.630 I -47.253 J  21.268
G2 X 154.951 Y 194.616 I -35.835 J  25.083
G2 X 149.565 Y 190.169 I -41.813 J  45.163
G2 X 144.482 Y 187.113 I -19.092 J  26.001
G2 X 139.251 Y 185.208 I -12.098 J  25.094
G2 X 133.436 Y 184.243 I  -8.610 J  33.853
G1 X 127.000 Y 183.726
F5
G1 Z  -0.118
F15
G1 X 127.000 Y 188.258
G2 X 127.136 Y 190.441 I  17.550 J   0.000
G2 X 127.577 Y 193.325 I  53.850 J  -6.752
G2 X 128.212 Y 196.380 I  57.984 J -10.461
G2 X 128.964 Y 199.145 I  40.851 J  -9.627
G2 X 133.667 Y 209.649 I  45.476 J -14.055
G2 X 140.741 Y 218.681 I  40.277 J -24.260
G2 X 149.840 Y 225.781 I  33.622 J -33.713
G2 X 160.500 Y 230.596 I  25.854 J -43.028
G2 X 162.233 Y 231.087 I   8.731 J -27.492
G2 X 164.133 Y 231.513 I   9.548 J -38.176
G2 X 165.916 Y 231.820 I   7.002 J -35.345
G2 X 167.250 Y 231.933 I   1.603 J -10.950
G2 X 168.836 Y 231.841 I   0.234 J  -9.627
G2 X 169.580 Y 231.387 I  -0.155 J  -1.090
G2 X 169.925 Y 230.411 I  -1.548 J  -1.096
G2 X 170.000 Y 228.049 I -37.242 J  -2.361
G2 X 168.960 Y 219.156 I -38.527 J   0.000
G2 X 165.870 Y 210.076 I -49.188 J  11.669
G2 X 161.070 Y 201.630 I -47.253 J  21.268
G2 X 154.951 Y 194.616 I -35.835 J  25.083
G2 X 149.565 Y 190.169 I -41.813 J  45.163
G2 X 144.482 Y 187.113 I -19.092 J  26.001
G2 X 139.251 Y 185.208 I -12.098 J  25.094
G2 X 133.436 Y 184.243 I  -8.610 J  33.853
G1 X 127.000 Y 183.726
F5
G1 Z   0.118
G0 Z   0.591 
M9 M5

(* SHAPE Nr: 1 *)
G0 X  64.614 Y  50.194
M3 M8
G0 Z   0.118 
G1 Z  -0.059
F15
G2 X  53.185 Y  71.934 I 109.997 J  71.700
G2 X  45.792 Y  95.758 I 129.141 J  53.135
G2 X  43.034 Y 119.135 I 122.555 J  26.310
G2 X  45.442 Y 139.500 I  72.899 J   1.706
G2 X  51.330 Y 154.172 I  62.341 J -16.501
G2 X  60.534 Y 166.695 I  52.771 J -29.141
G2 X  72.149 Y 175.930 I  39.562 J -37.833
G2 X  85.108 Y 180.979 I  21.700 J -36.546
G2 X  91.166 Y 181.634 I   6.315 J -30.055
G2 X  97.944 Y 181.202 I   0.395 J -47.174
G2 X 105.570 Y 179.673 I  -8.478 J -62.093
G2 X 114.203 Y 177.006 I -29.205 J-109.831
G3 X 118.790 Y 175.478 I  44.921 J 127.219
G3 X 123.231 Y 174.186 I  33.772 J 107.803
G3 X 127.031 Y 173.241 I  26.846 J  99.847
G3 X 129.071 Y 173.009 I   2.062 J   9.017
G3 X 131.095 Y 173.245 I   0.021 J   8.588
G3 X 134.803 Y 174.218 I -21.322 J  88.894
G3 X 139.125 Y 175.554 I -27.573 J  96.853
G3 X 143.571 Y 177.137 I -37.792 J 113.181
G2 X 149.631 Y 179.299 I  59.668 J-157.649
G2 X 154.140 Y 180.574 I  15.508 J -46.230
G2 X 158.398 Y 181.318 I   8.927 J -38.556
G2 X 163.550 Y 181.762 I   9.498 J -79.950
G2 X 170.979 Y 181.825 I   4.402 J -81.421
G2 X 177.296 Y 181.130 I  -1.631 J -43.894
G2 X 183.245 Y 179.563 I  -7.366 J -40.035
G2 X 189.541 Y 176.980 I -19.876 J -57.422
G2 X 194.637 Y 173.934 I -13.697 J -28.700
G2 X 200.615 Y 169.135 I -51.259 J -69.974
G2 X 205.968 Y 164.130 I -77.626 J -88.391
G2 X 207.000 Y 161.648 I  -2.470 J  -2.482
G2 X 206.821 Y 161.048 I  -1.094 J   0.000
G2 X 206.235 Y 160.313 I  -4.218 J   2.764
G2 X 205.391 Y 159.574 I  -4.811 J   4.636
G2 X 204.394 Y 158.943 I  -4.853 J   6.573
G3 X 200.916 Y 156.391 I   7.209 J -13.470
G3 X 196.497 Y 151.662 I  50.845 J -51.945
G3 X 192.350 Y 146.332 I  55.997 J -47.841
G3 X 189.608 Y 141.636 I  25.641 J -18.124
G3 X 186.022 Y 130.956 I  43.265 J -20.468
G3 X 185.096 Y 119.873 I  44.524 J  -9.301
G3 X 186.885 Y 108.958 I  44.920 J   1.761
G3 X 191.288 Y  98.772 I  43.698 J  12.842
G3 X 194.327 Y  94.547 I  24.051 J  14.095
G3 X 199.004 Y  89.626 I  59.566 J  51.933
G3 X 204.161 Y  85.059 I  55.624 J  57.615
G3 X 208.749 Y  81.914 I  21.701 J  26.738
G2 X 211.551 Y  79.819 I  -7.137 J -12.463
G2 X 212.246 Y  77.839 I  -1.608 J  -1.677
G2 X 211.341 Y  74.738 I -10.459 J   1.373
G2 X 206.463 Y  64.500 I-768.080 J 359.671
G2 X 199.036 Y  50.622 I-176.837 J  85.710
G2 X 191.694 Y  39.952 I -78.400 J  46.087
G2 X 184.224 Y  32.111 I -48.595 J  38.815
G2 X 176.417 Y  26.885 I -23.510 J  26.672
G2 X 170.716 Y  24.759 I -13.393 J  27.205
G2 X 165.508 Y  24.235 I  -4.267 J  16.271
G2 X 159.102 Y  25.290 I   1.696 J  30.273
G2 X 148.819 Y  28.431 I  55.312 J 199.470
G3 X 139.080 Y  31.182 I -33.974 J-101.684
G3 X 131.794 Y  31.971 I  -6.911 J -29.781
G3 X 124.275 Y  31.023 I   0.411 J -33.581
G3 X 113.620 Y  28.000 I  34.366 J-141.407
G2 X 108.626 Y  26.469 I -47.166 J 144.977
G2 X 103.787 Y  25.178 I -35.637 J 123.803
G2 X  99.645 Y  24.237 I -28.150 J 114.341
G2 X  97.412 Y  24.010 I  -2.206 J  10.590
G2 X  89.771 Y  25.772 I   0.044 J  17.641
G2 X  81.309 Y  31.104 I  19.583 J  40.461
G2 X  72.702 Y  39.409 I  39.800 J  49.854
G2 X  64.614 Y  50.194 I  77.764 J  66.747
F5
G1 Z  -0.118
F15
G2 X  53.185 Y  71.934 I 109.997 J  71.700
G2 X  45.792 Y  95.758 I 129.141 J  53.135
G2 X  43.034 Y 119.135 I 122.555 J  26.310
G2 X  45.442 Y 139.500 I  72.899 J   1.706
G2 X  51.330 Y 154.172 I  62.341 J -16.501
G2 X  60.534 Y 166.695 I  52.771 J -29.141
G2 X  72.149 Y 175.930 I  39.562 J -37.833
G2 X  85.108 Y 180.979 I  21.700 J -36.546
G2 X  91.166 Y 181.634 I   6.315 J -30.055
G2 X  97.944 Y 181.202 I   0.395 J -47.174
G2 X 105.570 Y 179.673 I  -8.478 J -62.093
G2 X 114.203 Y 177.006 I -29.205 J-109.831
G3 X 118.790 Y 175.478 I  44.921 J 127.219
G3 X 123.231 Y 174.186 I  33.772 J 107.803
G3 X 127.031 Y 173.241 I  26.846 J  99.847
G3 X 129.071 Y 173.009 I   2.062 J   9.017
G3 X 131.095 Y 173.245 I   0.021 J   8.588
G3 X 134.803 Y 174.218 I -21.322 J  88.894
G3 X 139.125 Y 175.554 I -27.573 J  96.853
G3 X 143.571 Y 177.137 I -37.792 J 113.181
G2 X 149.631 Y 179.299 I  59.668 J-157.649
G2 X 154.140 Y 180.574 I  15.508 J -46.230
G2 X 158.398 Y 181.318 I   8.927 J -38.556
G2 X 163.550 Y 181.762 I   9.498 J -79.950
G2 X 170.979 Y 181.825 I   4.402 J -81.421
G2 X 177.296 Y 181.130 I  -1.631 J -43.894
G2 X 183.245 Y 179.563 I  -7.366 J -40.035
G2 X 189.541 Y 176.980 I -19.876 J -57.422
G2 X 194.637 Y 173.934 I -13.697 J -28.700
G2 X 200.615 Y 169.135 I -51.259 J -69.974
G2 X 205.968 Y 164.130 I -77.626 J -88.391
G2 X 207.000 Y 161.648 I  -2.470 J  -2.482
G2 X 206.821 Y 161.048 I  -1.094 J   0.000
G2 X 206.235 Y 160.313 I  -4.218 J   2.764
G2 X 205.391 Y 159.574 I  -4.811 J   4.636
G2 X 204.394 Y 158.943 I  -4.853 J   6.573
G3 X 200.916 Y 156.391 I   7.209 J -13.470
G3 X 196.497 Y 151.662 I  50.845 J -51.945
G3 X 192.350 Y 146.332 I  55.997 J -47.841
G3 X 189.608 Y 141.636 I  25.641 J -18.124
G3 X 186.022 Y 130.956 I  43.265 J -20.468
G3 X 185.096 Y 119.873 I  44.524 J  -9.301
G3 X 186.885 Y 108.958 I  44.920 J   1.761
G3 X 191.288 Y  98.772 I  43.698 J  12.842
G3 X 194.327 Y  94.547 I  24.051 J  14.095
G3 X 199.004 Y  89.626 I  59.566 J  51.933
G3 X 204.161 Y  85.059 I  55.624 J  57.615
G3 X 208.749 Y  81.914 I  21.701 J  26.738
G2 X 211.551 Y  79.819 I  -7.137 J -12.463
G2 X 212.246 Y  77.839 I  -1.608 J  -1.677
G2 X 211.341 Y  74.738 I -10.459 J   1.373
G2 X 206.463 Y  64.500 I-768.080 J 359.671
G2 X 199.036 Y  50.622 I-176.837 J  85.710
G2 X 191.694 Y  39.952 I -78.400 J  46.087
G2 X 184.224 Y  32.111 I -48.595 J  38.815
G2 X 176.417 Y  26.885 I -23.510 J  26.672
G2 X 170.716 Y  24.759 I -13.393 J  27.205
G2 X 165.508 Y  24.235 I  -4.267 J  16.271
G2 X 159.102 Y  25.290 I   1.696 J  30.273
G2 X 148.819 Y  28.431 I  55.312 J 199.470
G3 X 139.080 Y  31.182 I -33.974 J-101.684
G3 X 131.794 Y  31.971 I  -6.911 J -29.781
G3 X 124.275 Y  31.023 I   0.411 J -33.581
G3 X 113.620 Y  28.000 I  34.366 J-141.407
G2 X 108.626 Y  26.469 I -47.166 J 144.977
G2 X 103.787 Y  25.178 I -35.637 J 123.803
G2 X  99.645 Y  24.237 I -28.150 J 114.341
G2 X  97.412 Y  24.010 I  -2.206 J  10.590
G2 X  89.771 Y  25.772 I   0.044 J  17.641
G2 X  81.309 Y  31.104 I  19.583 J  40.461
G2 X  72.702 Y  39.409 I  39.800 J  49.854
G2 X  64.614 Y  50.194 I  77.764 J  66.747
F5
G1 Z   0.118
G0 Z   0.591 
M9 M5
G0 X   0.000 Y   0.000
M2 (Program end)