(Generated with: DXF2GCODE, Version: PyQt5 Beta, Date: $Date: Sun Oct 4 21:49:52 2015 +0200 $)
(Created from file: C:/Users/jpflueger/Downloads/Result/Batman.dxf)
(Time: Sat Feb 20 11:49:13 2016)
G20 (Units in inches)  G90 (Absolute programming) G64 (Default cutting) G17 (XY plane) G40 (Cancel radius comp.) G49 (Cancel length comp.)
G0 Z   0.591 

(*** LAYER: 0 ***)
T1 M6
S6000

(* SHAPE Nr: 0 *)
G0 X  26.831 Y  27.982
M3 M8
G0 Z   0.118 
F5
G1 Z  -0.059
F15
G2 X  19.015 Y  34.147 I 215.269 J 280.943
G2 X  15.196 Y  37.794 I  20.724 J  25.526
G2 X   3.780 Y  55.511 I  50.716 J  45.213
G2 X   0.136 Y  73.839 I  39.095 J  17.301
G2 X   4.662 Y  91.890 I  42.313 J  -1.017
G2 X  16.903 Y 108.808 I  58.862 J -29.703
G2 X  21.275 Y 112.760 I  41.334 J -41.334
G2 X  27.509 Y 117.630 I 117.148 J-143.532
G2 X  33.707 Y 122.097 I 131.982 J-176.589
G2 X  36.956 Y 123.795 I   8.353 J -12.023
G3 X  37.823 Y 124.181 I  -2.640 J   7.097
G3 X  39.401 Y 125.028 I -37.938 J  72.599
G3 X  41.232 Y 126.065 I -42.900 J  77.896
G3 X  43.111 Y 127.185 I -52.146 J  89.599
G2 X  44.958 Y 128.263 I  28.091 J -46.007
G2 X  46.694 Y 129.173 I  18.546 J -33.273
G2 X  48.169 Y 129.860 I  16.956 J -34.481
G2 X  48.836 Y 130.000 I   0.667 J  -1.515
G3 X  49.554 Y 130.127 I  -0.000 J   2.092
G3 X  51.547 Y 130.881 I -32.247 J  88.232
G3 X  53.910 Y 131.851 I -28.611 J  73.095
G3 X  56.500 Y 133.000 I -46.856 J 109.109
G2 X  59.134 Y 134.150 I  33.250 J -72.596
G2 X  61.633 Y 135.123 I  23.189 J -55.857
G2 X  63.753 Y 135.849 I  19.988 J -54.900
G2 X  64.775 Y 136.013 I   1.047 J  -3.259
G3 X  65.845 Y 136.143 I  -0.035 J   4.737
G3 X  68.343 Y 136.773 I -26.211 J 109.249
G3 X  71.310 Y 137.603 I -27.575 J 104.326
G3 X  74.500 Y 138.583 I -42.008 J 142.350
G2 X  78.178 Y 139.638 I  19.315 J -60.416
G2 X  82.647 Y 140.692 I  32.252 J-126.777
G2 X  87.166 Y 141.591 I  27.899 J-128.368
G2 X  91.000 Y 142.169 I  11.793 J -65.201
G3 X  94.657 Y 142.623 I -70.572 J 583.306
G3 X  98.619 Y 143.138 I-102.415 J 804.167
G3 X 102.300 Y 143.634 I -97.882 J 739.482
G3 X 105.000 Y 144.022 I -30.282 J 220.337
G2 X 113.452 Y 144.658 I   8.521 J -56.824
G2 X 131.501 Y 144.505 I   1.129 J-934.848
G2 X 149.566 Y 143.978 I -14.802 J-817.697
G2 X 160.000 Y 143.027 I  -4.149 J-103.155
G2 X 170.806 Y 141.095 I -22.061 J-154.617
G2 X 183.172 Y 138.138 I -58.937 J-273.789
G2 X 194.593 Y 134.864 I -69.562 J-264.222
G2 X 201.702 Y 132.048 I -14.867 J -47.904
G3 X 203.397 Y 131.264 I  20.062 J  41.163
G3 X 205.018 Y 130.602 I  14.164 J  32.350
G3 X 206.399 Y 130.111 I  11.825 J  31.121
G3 X 207.091 Y 130.000 I   0.692 J   2.096
G2 X 207.801 Y 129.850 I  -0.000 J  -1.754
G2 X 209.362 Y 129.119 I -16.263 J -36.756
G2 X 211.200 Y 128.149 I -17.725 J -35.823
G2 X 213.154 Y 127.000 I -27.648 J -49.258
G3 X 215.084 Y 125.851 I  40.438 J  65.720
G3 X 216.850 Y 124.881 I  24.910 J  43.256
G3 X 218.344 Y 124.125 I  27.866 J  53.247
G3 X 218.887 Y 124.000 I   0.543 J   1.112
G2 X 220.769 Y 123.375 I   0.000 J  -3.144
G2 X 229.169 Y 117.018 I-520.968 J-697.223
G2 X 236.985 Y 110.853 I-215.269 J-280.943
G2 X 240.804 Y 107.206 I -20.724 J -25.526
G2 X 252.225 Y  89.437 I -50.479 J -45.001
G2 X 255.840 Y  71.024 I -39.245 J -17.265
G2 X 251.239 Y  52.933 I -42.326 J   1.134
G2 X 238.900 Y  36.090 I -58.027 J  29.571
G2 X 232.933 Y  30.875 I -46.997 J  47.744
G2 X 224.924 Y  25.054 I -98.799 J 127.523
G2 X 216.566 Y  19.731 I -90.875 J 133.467
G2 X 209.500 Y  16.073 I -34.685 J  58.339
G2 X 199.254 Y  11.998 I -55.248 J 124.018
G2 X 186.867 Y   7.988 I -87.044 J 247.756
G2 X 174.678 Y   4.701 I -72.383 J 244.097
G2 X 165.200 Y   2.936 I -20.872 J  85.779
G3 X 161.743 Y   2.484 I 435.922 J-3349.563
G3 X 157.705 Y   1.953 I 817.472 J-6231.055
G3 X 153.734 Y   1.428 I 803.113 J-6090.969
G3 X 150.500 Y   0.998 I 358.395 J-2704.527
G2 X 141.913 Y   0.301 I -10.987 J  82.156
G2 X 128.169 Y   0.093 I -14.400 J 497.111
G2 X 114.443 Y   0.263 I  -0.660 J 500.267
G2 X 106.000 Y   0.939 I   2.059 J  78.810
G3 X 102.886 Y   1.354 I-171.817 J-1278.233
G3 X  98.815 Y   1.889 I-484.733 J-3673.931
G3 X  94.524 Y   2.448 I-510.217 J-3900.396
G3 X  90.667 Y   2.945 I-330.796 J-2550.597
G2 X  86.728 Y   3.556 I   9.615 J  75.028
G2 X  82.177 Y   4.464 I  24.799 J 136.149
G2 X  77.738 Y   5.505 I  28.705 J 132.272
G2 X  74.167 Y   6.526 I  14.728 J  58.315
G3 X  71.105 Y   7.464 I -41.623 J-130.320
G3 X  68.246 Y   8.259 I -28.443 J -96.817
G3 X  65.836 Y   8.860 I -26.143 J -99.748
G3 X  64.775 Y   8.987 I  -1.096 J  -4.634
G2 X  63.753 Y   9.151 I   0.025 J   3.423
G2 X  61.633 Y   9.877 I  17.867 J  55.626
G2 X  59.134 Y  10.850 I  20.691 J  56.830
G2 X  56.500 Y  12.000 I  30.615 J  73.745
G3 X  53.910 Y  13.149 I -49.447 J-107.960
G3 X  51.547 Y  14.119 I -30.974 J -72.125
G3 X  49.554 Y  14.873 I -34.240 J -87.478
G3 X  48.836 Y  15.000 I  -0.718 J  -1.965
G2 X  48.162 Y  15.145 I   0.000 J   1.636
G2 X  46.616 Y  15.881 I  17.780 J  39.322
G2 X  44.794 Y  16.851 I  18.645 J  37.227
G2 X  42.846 Y  18.000 I  29.499 J  52.258
G3 X  40.916 Y  19.149 I -40.438 J -65.720
G3 X  39.150 Y  20.119 I -24.910 J -43.256
G3 X  37.656 Y  20.875 I -27.866 J -53.247
G3 X  37.113 Y  21.000 I  -0.543 J  -1.112
G2 X  35.231 Y  21.625 I  -0.000 J   3.144
G2 X  26.831 Y  27.982 I 520.968 J 697.223
F5
G1 Z  -0.118
F15
G2 X  19.015 Y  34.147 I 215.269 J 280.943
G2 X  15.196 Y  37.794 I  20.724 J  25.526
G2 X   3.780 Y  55.511 I  50.716 J  45.213
G2 X   0.136 Y  73.839 I  39.095 J  17.301
G2 X   4.662 Y  91.890 I  42.313 J  -1.017
G2 X  16.903 Y 108.808 I  58.862 J -29.703
G2 X  21.275 Y 112.760 I  41.334 J -41.334
G2 X  27.509 Y 117.630 I 117.148 J-143.532
G2 X  33.707 Y 122.097 I 131.982 J-176.589
G2 X  36.956 Y 123.795 I   8.353 J -12.023
G3 X  37.823 Y 124.181 I  -2.640 J   7.097
G3 X  39.401 Y 125.028 I -37.938 J  72.599
G3 X  41.232 Y 126.065 I -42.900 J  77.896
G3 X  43.111 Y 127.185 I -52.146 J  89.599
G2 X  44.958 Y 128.263 I  28.091 J -46.007
G2 X  46.694 Y 129.173 I  18.546 J -33.273
G2 X  48.169 Y 129.860 I  16.956 J -34.481
G2 X  48.836 Y 130.000 I   0.667 J  -1.515
G3 X  49.554 Y 130.127 I  -0.000 J   2.092
G3 X  51.547 Y 130.881 I -32.247 J  88.232
G3 X  53.910 Y 131.851 I -28.611 J  73.095
G3 X  56.500 Y 133.000 I -46.856 J 109.109
G2 X  59.134 Y 134.150 I  33.250 J -72.596
G2 X  61.633 Y 135.123 I  23.189 J -55.857
G2 X  63.753 Y 135.849 I  19.988 J -54.900
G2 X  64.775 Y 136.013 I   1.047 J  -3.259
G3 X  65.845 Y 136.143 I  -0.035 J   4.737
G3 X  68.343 Y 136.773 I -26.211 J 109.249
G3 X  71.310 Y 137.603 I -27.575 J 104.326
G3 X  74.500 Y 138.583 I -42.008 J 142.350
G2 X  78.178 Y 139.638 I  19.315 J -60.416
G2 X  82.647 Y 140.692 I  32.252 J-126.777
G2 X  87.166 Y 141.591 I  27.899 J-128.368
G2 X  91.000 Y 142.169 I  11.793 J -65.201
G3 X  94.657 Y 142.623 I -70.572 J 583.306
G3 X  98.619 Y 143.138 I-102.415 J 804.167
G3 X 102.300 Y 143.634 I -97.882 J 739.482
G3 X 105.000 Y 144.022 I -30.282 J 220.337
G2 X 113.452 Y 144.658 I   8.521 J -56.824
G2 X 131.501 Y 144.505 I   1.129 J-934.848
G2 X 149.566 Y 143.978 I -14.802 J-817.697
G2 X 160.000 Y 143.027 I  -4.149 J-103.155
G2 X 170.806 Y 141.095 I -22.061 J-154.617
G2 X 183.172 Y 138.138 I -58.937 J-273.789
G2 X 194.593 Y 134.864 I -69.562 J-264.222
G2 X 201.702 Y 132.048 I -14.867 J -47.904
G3 X 203.397 Y 131.264 I  20.062 J  41.163
G3 X 205.018 Y 130.602 I  14.164 J  32.350
G3 X 206.399 Y 130.111 I  11.825 J  31.121
G3 X 207.091 Y 130.000 I   0.692 J   2.096
G2 X 207.801 Y 129.850 I  -0.000 J  -1.754
G2 X 209.362 Y 129.119 I -16.263 J -36.756
G2 X 211.200 Y 128.149 I -17.725 J -35.823
G2 X 213.154 Y 127.000 I -27.648 J -49.258
G3 X 215.084 Y 125.851 I  40.438 J  65.720
G3 X 216.850 Y 124.881 I  24.910 J  43.256
G3 X 218.344 Y 124.125 I  27.866 J  53.247
G3 X 218.887 Y 124.000 I   0.543 J   1.112
G2 X 220.769 Y 123.375 I   0.000 J  -3.144
G2 X 229.169 Y 117.018 I-520.968 J-697.223
G2 X 236.985 Y 110.853 I-215.269 J-280.943
G2 X 240.804 Y 107.206 I -20.724 J -25.526
G2 X 252.225 Y  89.437 I -50.479 J -45.001
G2 X 255.840 Y  71.024 I -39.245 J -17.265
G2 X 251.239 Y  52.933 I -42.326 J   1.134
G2 X 238.900 Y  36.090 I -58.027 J  29.571
G2 X 232.933 Y  30.875 I -46.997 J  47.744
G2 X 224.924 Y  25.054 I -98.799 J 127.523
G2 X 216.566 Y  19.731 I -90.875 J 133.467
G2 X 209.500 Y  16.073 I -34.685 J  58.339
G2 X 199.254 Y  11.998 I -55.248 J 124.018
G2 X 186.867 Y   7.988 I -87.044 J 247.756
G2 X 174.678 Y   4.701 I -72.383 J 244.097
G2 X 165.200 Y   2.936 I -20.872 J  85.779
G3 X 161.743 Y   2.484 I 435.922 J-3349.563
G3 X 157.705 Y   1.953 I 817.472 J-6231.055
G3 X 153.734 Y   1.428 I 803.113 J-6090.969
G3 X 150.500 Y   0.998 I 358.395 J-2704.527
G2 X 141.913 Y   0.301 I -10.987 J  82.156
G2 X 128.169 Y   0.093 I -14.400 J 497.111
G2 X 114.443 Y   0.263 I  -0.660 J 500.267
G2 X 106.000 Y   0.939 I   2.059 J  78.810
G3 X 102.886 Y   1.354 I-171.817 J-1278.233
G3 X  98.815 Y   1.889 I-484.733 J-3673.931
G3 X  94.524 Y   2.448 I-510.217 J-3900.396
G3 X  90.667 Y   2.945 I-330.796 J-2550.597
G2 X  86.728 Y   3.556 I   9.615 J  75.028
G2 X  82.177 Y   4.464 I  24.799 J 136.149
G2 X  77.738 Y   5.505 I  28.705 J 132.272
G2 X  74.167 Y   6.526 I  14.728 J  58.315
G3 X  71.105 Y   7.464 I -41.623 J-130.320
G3 X  68.246 Y   8.259 I -28.443 J -96.817
G3 X  65.836 Y   8.860 I -26.143 J -99.748
G3 X  64.775 Y   8.987 I  -1.096 J  -4.634
G2 X  63.753 Y   9.151 I   0.025 J   3.423
G2 X  61.633 Y   9.877 I  17.867 J  55.626
G2 X  59.134 Y  10.850 I  20.691 J  56.830
G2 X  56.500 Y  12.000 I  30.615 J  73.745
G3 X  53.910 Y  13.149 I -49.447 J-107.960
G3 X  51.547 Y  14.119 I -30.974 J -72.125
G3 X  49.554 Y  14.873 I -34.240 J -87.478
G3 X  48.836 Y  15.000 I  -0.718 J  -1.965
G2 X  48.162 Y  15.145 I   0.000 J   1.636
G2 X  46.616 Y  15.881 I  17.780 J  39.322
G2 X  44.794 Y  16.851 I  18.645 J  37.227
G2 X  42.846 Y  18.000 I  29.499 J  52.258
G3 X  40.916 Y  19.149 I -40.438 J -65.720
G3 X  39.150 Y  20.119 I -24.910 J -43.256
G3 X  37.656 Y  20.875 I -27.866 J -53.247
G3 X  37.113 Y  21.000 I  -0.543 J  -1.112
G2 X  35.231 Y  21.625 I  -0.000 J   3.144
G2 X  26.831 Y  27.982 I 520.968 J 697.223
F5
G1 Z   0.118
G0 Z   0.591 
M9 M5

(* SHAPE Nr: 3 *)
G0 X  35.251 Y  33.535
M3 M8
G0 Z   0.118 
G1 Z  -0.059
F15
G2 X  28.374 Y  39.848 I 674.860 J 742.010
G2 X  21.521 Y  46.254 I 741.390 J 800.073
G2 X  21.000 Y  47.460 I   1.137 J   1.206
G3 X  20.903 Y  47.838 I  -0.787 J   0.000
G3 X  20.236 Y  49.027 I -53.802 J -29.433
G3 X  19.395 Y  50.426 I -38.872 J -22.403
G3 X  18.398 Y  51.975 I -61.503 J -38.492
G2 X  15.819 Y  56.991 I  21.480 J  14.215
G2 X  13.756 Y  63.561 I  52.769 J  20.176
G2 X  12.521 Y  70.268 I  54.223 J  13.455
G2 X  12.513 Y  75.691 I  22.552 J   2.744
G2 X  13.411 Y  80.575 I  38.768 J  -4.603
G2 X  15.004 Y  85.888 I  58.790 J -14.728
G2 X  16.970 Y  90.762 I  53.475 J -18.737
G2 X  19.002 Y  94.210 I  17.717 J  -8.121
G3 X  19.767 Y  95.291 I -27.114 J  19.998
G3 X  20.413 Y  96.300 I -18.636 J  12.645
G3 X  20.907 Y  97.158 I -20.611 J  12.438
G3 X  21.000 Y  97.521 I  -0.662 J   0.363
G2 X  21.526 Y  98.742 I   1.679 J  -0.000
G2 X  28.369 Y 105.147 I 730.659 J-773.673
G2 X  35.237 Y 111.460 I 666.525 J-718.334
G2 X  36.595 Y 111.991 I   1.374 J  -1.509
G3 X  37.126 Y 112.115 I  -0.010 J   1.243
G3 X  37.847 Y 112.526 I  -2.662 J   5.506
G3 X  38.615 Y 113.110 I  -4.158 J   6.263
G3 X  39.319 Y 113.800 I  -5.357 J   6.174
G2 X  40.409 Y 114.731 I   4.153 J  -3.759
G2 X  42.901 Y 116.294 I  43.761 J -66.990
G2 X  45.936 Y 118.037 I  43.745 J -72.666
G2 X  49.224 Y 119.763 I  51.558 J -94.238
G2 X  71.144 Y 128.781 I  70.377 J-139.914
G2 X  94.126 Y 134.364 I  48.039 J-147.645
G2 X 119.462 Y 136.710 I  29.447 J-180.076
G2 X 148.500 Y 135.997 I   6.953 J-308.576
G2 X 154.364 Y 135.454 I -10.217 J-142.423
G2 X 160.390 Y 134.657 I -18.248 J-161.000
G2 X 165.986 Y 133.697 I -21.803 J-143.894
G2 X 170.500 Y 132.663 I -12.230 J -63.803
G3 X 174.173 Y 131.702 I 104.463 J 391.597
G3 X 177.767 Y 130.799 I  91.499 J 356.371
G3 X 180.860 Y 130.053 I  79.846 J 324.522
G3 X 182.600 Y 129.686 I   8.522 J  36.115
G2 X 184.166 Y 129.295 I  -2.409 J -12.960
G2 X 186.431 Y 128.529 I -18.173 J -57.459
G2 X 188.920 Y 127.575 I -22.959 J -63.686
G2 X 191.286 Y 126.555 I -22.207 J -54.743
G3 X 193.504 Y 125.576 I  37.507 J  81.998
G3 X 195.546 Y 124.751 I  24.109 J  56.689
G3 X 197.269 Y 124.116 I  24.594 J  64.103
G3 X 197.945 Y 124.000 I   0.677 J   1.916
G2 X 199.939 Y 123.502 I   0.000 J  -4.235
G2 X 207.585 Y 119.351 I-281.337 J-527.376
G2 X 215.024 Y 115.153 I-225.285 J-407.893
G2 X 217.037 Y 113.456 I  -3.722 J  -6.456
G3 X 217.582 Y 112.898 I   3.675 J   3.050
G3 X 218.221 Y 112.425 I   3.373 J   3.888
G3 X 218.854 Y 112.097 I   2.306 J   3.677
G3 X 219.372 Y 111.991 I   0.529 J   1.266
G2 X 220.754 Y 111.451 I  -0.016 J  -2.080
G2 X 227.623 Y 105.154 I-634.470 J-698.930
G2 X 234.465 Y  98.761 I-697.613 J-753.408
G2 X 235.000 Y  97.521 I  -1.169 J  -1.240
G3 X 235.093 Y  97.158 I   0.755 J  -0.000
G3 X 235.587 Y  96.300 I  21.105 J  11.580
G3 X 236.233 Y  95.291 I  19.282 J  11.636
G3 X 236.998 Y  94.210 I  27.879 J  18.916
G2 X 239.030 Y  90.762 I -15.685 J -11.568
G2 X 240.996 Y  85.888 I -51.509 J -23.611
G2 X 242.589 Y  80.575 I -57.197 J -20.041
G2 X 243.487 Y  75.691 I -37.870 J  -9.487
G2 X 243.479 Y  70.268 I -22.560 J  -2.678
G2 X 242.244 Y  63.561 I -55.458 J   6.748
G2 X 240.181 Y  56.991 I -54.832 J  13.606
G2 X 237.602 Y  51.975 I -24.059 J   9.199
G3 X 236.605 Y  50.426 I  60.506 J -40.041
G3 X 235.764 Y  49.027 I  38.031 J -23.802
G3 X 235.097 Y  47.838 I  53.134 J -30.622
G3 X 235.000 Y  47.460 I   0.690 J  -0.378
G2 X 234.471 Y  46.235 I  -1.683 J  -0.000
G2 X 227.618 Y  39.841 I-721.452 J 766.375
G2 X 220.741 Y  33.543 I-655.712 J 709.088
G2 X 219.372 Y  33.009 I  -1.384 J   1.526
G3 X 218.854 Y  32.903 I   0.011 J  -1.372
G3 X 218.221 Y  32.575 I   1.672 J  -4.005
G3 X 217.582 Y  32.102 I   2.734 J  -4.361
G3 X 217.037 Y  31.544 I   3.130 J  -3.608
G2 X 215.024 Y  29.847 I  -5.735 J   4.759
G2 X 207.585 Y  25.649 I-232.724 J 403.695
G2 X 199.939 Y  21.498 I-288.983 J 523.225
G2 X 197.945 Y  21.000 I  -1.993 J   3.736
G3 X 197.269 Y  20.884 I   0.000 J  -2.032
G3 X 195.546 Y  20.249 I  22.872 J -64.737
G3 X 193.504 Y  19.424 I  22.067 J -57.515
G3 X 191.286 Y  18.445 I  35.289 J -82.976
G2 X 188.920 Y  17.425 I -24.573 J  53.723
G2 X 186.431 Y  16.471 I -25.448 J  62.732
G2 X 184.166 Y  15.705 I -20.438 J  56.693
G2 X 182.600 Y  15.314 I  -3.975 J  12.569
G3 X 180.860 Y  14.946 I   6.677 J -35.921
G3 X 177.767 Y  14.198 I  75.834 J-320.299
G3 X 174.173 Y  13.291 I  86.901 J-351.834
G3 X 170.500 Y  12.325 I  99.742 J-386.787
G2 X 152.453 Y   9.215 I -26.028 J  97.107
G2 X 128.317 Y   8.276 I -23.609 J 296.431
G2 X 103.834 Y   9.318 I   0.534 J 300.870
G2 X  84.500 Y  12.478 I  10.353 J 124.074
G2 X  70.918 Y  16.415 I  40.752 J 165.988
G2 X  56.867 Y  21.674 I  68.798 J 205.190
G2 X  44.716 Y  27.146 I  84.345 J 203.541
G2 X  39.319 Y  31.200 I   7.789 J  15.987
G3 X  38.615 Y  31.890 I  -6.061 J  -5.485
G3 X  37.847 Y  32.474 I  -4.926 J  -5.678
G3 X  37.126 Y  32.885 I  -3.383 J  -5.095
G3 X  36.595 Y  33.009 I  -0.541 J  -1.119
G2 X  35.251 Y  33.535 I   0.016 J   2.021
F5
G1 Z  -0.118
F15
G2 X  28.374 Y  39.848 I 674.860 J 742.010
G2 X  21.521 Y  46.254 I 741.390 J 800.073
G2 X  21.000 Y  47.460 I   1.137 J   1.206
G3 X  20.903 Y  47.838 I  -0.787 J   0.000
G3 X  20.236 Y  49.027 I -53.802 J -29.433
G3 X  19.395 Y  50.426 I -38.872 J -22.403
G3 X  18.398 Y  51.975 I -61.503 J -38.492
G2 X  15.819 Y  56.991 I  21.480 J  14.215
G2 X  13.756 Y  63.561 I  52.769 J  20.176
G2 X  12.521 Y  70.268 I  54.223 J  13.455
G2 X  12.513 Y  75.691 I  22.552 J   2.744
G2 X  13.411 Y  80.575 I  38.768 J  -4.603
G2 X  15.004 Y  85.888 I  58.790 J -14.728
G2 X  16.970 Y  90.762 I  53.475 J -18.737
G2 X  19.002 Y  94.210 I  17.717 J  -8.121
G3 X  19.767 Y  95.291 I -27.114 J  19.998
G3 X  20.413 Y  96.300 I -18.636 J  12.645
G3 X  20.907 Y  97.158 I -20.611 J  12.438
G3 X  21.000 Y  97.521 I  -0.662 J   0.363
G2 X  21.526 Y  98.742 I   1.679 J  -0.000
G2 X  28.369 Y 105.147 I 730.659 J-773.673
G2 X  35.237 Y 111.460 I 666.525 J-718.334
G2 X  36.595 Y 111.991 I   1.374 J  -1.509
G3 X  37.126 Y 112.115 I  -0.010 J   1.243
G3 X  37.847 Y 112.526 I  -2.662 J   5.506
G3 X  38.615 Y 113.110 I  -4.158 J   6.263
G3 X  39.319 Y 113.800 I  -5.357 J   6.174
G2 X  40.409 Y 114.731 I   4.153 J  -3.759
G2 X  42.901 Y 116.294 I  43.761 J -66.990
G2 X  45.936 Y 118.037 I  43.745 J -72.666
G2 X  49.224 Y 119.763 I  51.558 J -94.238
G2 X  71.144 Y 128.781 I  70.377 J-139.914
G2 X  94.126 Y 134.364 I  48.039 J-147.645
G2 X 119.462 Y 136.710 I  29.447 J-180.076
G2 X 148.500 Y 135.997 I   6.953 J-308.576
G2 X 154.364 Y 135.454 I -10.217 J-142.423
G2 X 160.390 Y 134.657 I -18.248 J-161.000
G2 X 165.986 Y 133.697 I -21.803 J-143.894
G2 X 170.500 Y 132.663 I -12.230 J -63.803
G3 X 174.173 Y 131.702 I 104.463 J 391.597
G3 X 177.767 Y 130.799 I  91.499 J 356.371
G3 X 180.860 Y 130.053 I  79.846 J 324.522
G3 X 182.600 Y 129.686 I   8.522 J  36.115
G2 X 184.166 Y 129.295 I  -2.409 J -12.960
G2 X 186.431 Y 128.529 I -18.173 J -57.459
G2 X 188.920 Y 127.575 I -22.959 J -63.686
G2 X 191.286 Y 126.555 I -22.207 J -54.743
G3 X 193.504 Y 125.576 I  37.507 J  81.998
G3 X 195.546 Y 124.751 I  24.109 J  56.689
G3 X 197.269 Y 124.116 I  24.594 J  64.103
G3 X 197.945 Y 124.000 I   0.677 J   1.916
G2 X 199.939 Y 123.502 I   0.000 J  -4.235
G2 X 207.585 Y 119.351 I-281.337 J-527.376
G2 X 215.024 Y 115.153 I-225.285 J-407.893
G2 X 217.037 Y 113.456 I  -3.722 J  -6.456
G3 X 217.582 Y 112.898 I   3.675 J   3.050
G3 X 218.221 Y 112.425 I   3.373 J   3.888
G3 X 218.854 Y 112.097 I   2.306 J   3.677
G3 X 219.372 Y 111.991 I   0.529 J   1.266
G2 X 220.754 Y 111.451 I  -0.016 J  -2.080
G2 X 227.623 Y 105.154 I-634.470 J-698.930
G2 X 234.465 Y  98.761 I-697.613 J-753.408
G2 X 235.000 Y  97.521 I  -1.169 J  -1.240
G3 X 235.093 Y  97.158 I   0.755 J  -0.000
G3 X 235.587 Y  96.300 I  21.105 J  11.580
G3 X 236.233 Y  95.291 I  19.282 J  11.636
G3 X 236.998 Y  94.210 I  27.879 J  18.916
G2 X 239.030 Y  90.762 I -15.685 J -11.568
G2 X 240.996 Y  85.888 I -51.509 J -23.611
G2 X 242.589 Y  80.575 I -57.197 J -20.041
G2 X 243.487 Y  75.691 I -37.870 J  -9.487
G2 X 243.479 Y  70.268 I -22.560 J  -2.678
G2 X 242.244 Y  63.561 I -55.458 J   6.748
G2 X 240.181 Y  56.991 I -54.832 J  13.606
G2 X 237.602 Y  51.975 I -24.059 J   9.199
G3 X 236.605 Y  50.426 I  60.506 J -40.041
G3 X 235.764 Y  49.027 I  38.031 J -23.802
G3 X 235.097 Y  47.838 I  53.134 J -30.622
G3 X 235.000 Y  47.460 I   0.690 J  -0.378
G2 X 234.471 Y  46.235 I  -1.683 J  -0.000
G2 X 227.618 Y  39.841 I-721.452 J 766.375
G2 X 220.741 Y  33.543 I-655.712 J 709.088
G2 X 219.372 Y  33.009 I  -1.384 J   1.526
G3 X 218.854 Y  32.903 I   0.011 J  -1.372
G3 X 218.221 Y  32.575 I   1.672 J  -4.005
G3 X 217.582 Y  32.102 I   2.734 J  -4.361
G3 X 217.037 Y  31.544 I   3.130 J  -3.608
G2 X 215.024 Y  29.847 I  -5.735 J   4.759
G2 X 207.585 Y  25.649 I-232.724 J 403.695
G2 X 199.939 Y  21.498 I-288.983 J 523.225
G2 X 197.945 Y  21.000 I  -1.993 J   3.736
G3 X 197.269 Y  20.884 I   0.000 J  -2.032
G3 X 195.546 Y  20.249 I  22.872 J -64.737
G3 X 193.504 Y  19.424 I  22.067 J -57.515
G3 X 191.286 Y  18.445 I  35.289 J -82.976
G2 X 188.920 Y  17.425 I -24.573 J  53.723
G2 X 186.431 Y  16.471 I -25.448 J  62.732
G2 X 184.166 Y  15.705 I -20.438 J  56.693
G2 X 182.600 Y  15.314 I  -3.975 J  12.569
G3 X 180.860 Y  14.946 I   6.677 J -35.921
G3 X 177.767 Y  14.198 I  75.834 J-320.299
G3 X 174.173 Y  13.291 I  86.901 J-351.834
G3 X 170.500 Y  12.325 I  99.742 J-386.787
G2 X 152.453 Y   9.215 I -26.028 J  97.107
G2 X 128.317 Y   8.276 I -23.609 J 296.431
G2 X 103.834 Y   9.318 I   0.534 J 300.870
G2 X  84.500 Y  12.478 I  10.353 J 124.074
G2 X  70.918 Y  16.415 I  40.752 J 165.988
G2 X  56.867 Y  21.674 I  68.798 J 205.190
G2 X  44.716 Y  27.146 I  84.345 J 203.541
G2 X  39.319 Y  31.200 I   7.789 J  15.987
G3 X  38.615 Y  31.890 I  -6.061 J  -5.485
G3 X  37.847 Y  32.474 I  -4.926 J  -5.678
G3 X  37.126 Y  32.885 I  -3.383 J  -5.095
G3 X  36.595 Y  33.009 I  -0.541 J  -1.119
G2 X  35.251 Y  33.535 I   0.016 J   2.021
F5
G1 Z   0.118
G0 Z   0.591 
M9 M5

(* SHAPE Nr: 5 *)
G0 X  44.945 Y  45.609
M3 M8
G0 Z   0.118 
G1 Z  -0.059
F15
G2 X  41.447 Y  49.316 I  48.897 J  49.648
G2 X  38.699 Y  52.750 I  36.892 J  32.348
G2 X  36.204 Y  56.490 I  43.225 J  31.528
G2 X  34.059 Y  60.302 I  55.831 J  33.934
G2 X  33.081 Y  62.909 I  10.293 J   5.347
G2 X  32.665 Y  65.904 I  14.652 J   3.562
G2 X  32.558 Y  71.490 I 151.014 J   5.684
G2 X  32.815 Y  77.601 I  71.621 J   0.046
G2 X  33.603 Y  82.981 I  44.674 J  -3.797
G2 X  34.710 Y  87.064 I  35.378 J  -7.397
G2 X  36.010 Y  88.000 I   1.300 J  -0.436
G3 X  36.381 Y  88.134 I   0.000 J   0.582
G3 X  36.792 Y  88.561 I  -1.677 J   2.025
G3 X  37.176 Y  89.178 I  -2.990 J   2.289
G3 X  37.471 Y  89.908 I  -4.631 J   2.294
G2 X  37.896 Y  90.862 I   4.458 J  -1.415
G2 X  38.764 Y  92.238 I  22.041 J -12.948
G2 X  39.850 Y  93.739 I  24.271 J -16.418
G2 X  41.022 Y  95.158 I  22.581 J -17.453
G3 X  42.152 Y  96.493 I -32.524 J  28.670
G3 X  43.107 Y  97.739 I -21.908 J  17.795
G3 X  43.844 Y  98.803 I -25.001 J  18.097
G3 X  43.984 Y  99.250 I  -0.703 J   0.465
G2 X  44.090 Y  99.536 I   0.465 J  -0.010
G2 X  44.381 Y  99.780 I   0.801 J  -0.661
G2 X  44.810 Y  99.944 I   0.771 J  -1.366
G2 X  45.313 Y 100.000 I   0.503 J  -2.251
G3 X  45.997 Y 100.182 I  -0.000 J   1.375
G3 X  47.084 Y 100.881 I  -6.376 J  11.116
G3 X  48.303 Y 101.851 I  -8.970 J  12.519
G3 X  49.500 Y 103.000 I -13.081 J  14.828
G2 X  50.657 Y 104.149 I  23.908 J -22.905
G2 X  51.754 Y 105.119 I  14.834 J -15.684
G2 X  52.699 Y 105.856 I  13.989 J -16.959
G2 X  53.137 Y 106.000 I   0.438 J  -0.594
G3 X  53.620 Y 106.122 I   0.000 J   1.017
G3 X  54.981 Y 106.881 I -26.557 J  49.226
G3 X  56.587 Y 107.851 I -22.558 J  39.161
G3 X  58.345 Y 109.000 I -37.998 J  60.056
G2 X  60.130 Y 110.149 I  27.206 J -40.312
G2 X  61.817 Y 111.119 I  17.968 J -29.306
G2 X  63.254 Y 111.848 I  16.123 J -29.981
G2 X  63.924 Y 112.000 I   0.669 J  -1.400
G3 X  64.637 Y 112.135 I  -0.000 J   1.959
G3 X  66.470 Y 112.881 I -25.590 J  65.432
G3 X  68.641 Y 113.851 I -24.355 J  57.450
G3 X  71.000 Y 115.000 I -39.284 J  83.643
G2 X  74.626 Y 116.702 I  31.423 J -62.248
G2 X  77.486 Y 117.731 I   9.410 J -21.649
G2 X  79.442 Y 118.106 I   3.004 J -10.403
G2 X  80.000 Y 117.599 I   0.049 J  -0.506
G2 X  79.941 Y 117.312 I  -0.734 J   0.000
G2 X  79.268 Y 115.745 I-254.043 J 108.163
G2 X  78.464 Y 113.928 I-111.901 J  48.462
G2 X  77.510 Y 111.849 I-194.783 J  88.153
G3 X  75.241 Y 104.716 I  26.641 J -12.402
G3 X  75.542 Y  98.621 I  13.188 J  -2.403
G3 X  78.464 Y  93.582 I  11.474 J   3.287
G3 X  83.897 Y  89.553 I  15.138 J  14.738
G3 X  88.355 Y  88.202 I   5.878 J  11.366
G3 X  94.928 Y  87.919 I   5.366 J  48.055
G3 X 101.441 Y  88.524 I  -1.206 J  48.300
G3 X 105.656 Y  90.097 I  -1.840 J  11.369
G3 X 108.629 Y  92.544 I  -7.512 J  12.154
G3 X 110.517 Y  95.496 I  -7.267 J   6.728
G3 X 111.677 Y  99.724 I -16.474 J   6.794
G3 X 112.421 Y 106.500 I -95.775 J  13.938
G2 X 112.717 Y 110.151 I 269.961 J -20.030
G2 X 113.053 Y 113.679 I 236.392 J -20.759
G2 X 113.384 Y 116.688 I 216.583 J -22.284
G2 X 113.635 Y 118.302 I  21.307 J  -2.492
G1 X 114.182 Y 121.105
G1 X 117.069 Y 116.552
G1 X 119.956 Y 112.000
G1 X 126.978 Y 112.000
G3 X 130.377 Y 112.064 I   0.000 J  90.644
G3 X 132.439 Y 112.298 I  -0.516 J  13.754
G3 X 133.615 Y 112.705 I  -0.806 J   4.224
G3 X 134.000 Y 113.339 I  -0.329 J   0.634
G2 X 134.162 Y 114.067 I   1.722 J   0.000
G2 X 134.808 Y 115.324 I  16.660 J  -7.776
G2 X 135.697 Y 116.763 I  18.395 J -10.375
G2 X 136.750 Y 118.215 I  22.122 J -14.929
G1 X 139.500 Y 121.752
G1 X 140.063 Y 109.486
G3 X 140.422 Y 103.371 I 238.210 J  10.929
G3 X 140.881 Y  99.303 I  50.017 J   3.584
G3 X 141.496 Y  96.476 I  23.538 J   3.634
G3 X 142.367 Y  94.562 I   6.655 J   1.876
G3 X 145.224 Y  91.247 I  13.996 J   9.171
G3 X 148.538 Y  89.260 I   6.869 J   7.699
G3 X 153.019 Y  88.312 I   5.523 J  15.051
G3 X 159.696 Y  88.203 I   4.462 J  68.469
G3 X 165.542 Y  88.471 I  -6.969 J 215.697
G3 X 168.140 Y  88.925 I  -0.690 J  11.601
G3 X 170.060 Y  89.898 I  -1.685 J   5.712
G3 X 172.472 Y  91.972 I -16.098 J  21.163
G3 X 175.667 Y  95.784 I -16.766 J  17.290
G3 X 177.279 Y  99.515 I  -9.108 J   6.150
G3 X 177.444 Y 103.636 I -11.128 J   2.511
G3 X 176.235 Y 108.646 I -26.823 J  -3.824
G3 X 175.409 Y 111.015 I-385.598 J-132.992
G3 X 174.599 Y 113.294 I-332.234 J-116.879
G3 X 173.895 Y 115.232 I-306.725 J-110.279
G3 X 173.501 Y 116.250 I -28.203 J -10.342
G2 X 173.272 Y 117.002 I   3.952 J   1.614
G2 X 173.301 Y 117.547 I   1.052 J   0.217
G2 X 173.575 Y 117.877 I   0.546 J  -0.175
G2 X 174.063 Y 118.000 I   0.488 J  -0.905
G2 X 175.594 Y 117.702 I  -0.000 J  -4.082
G2 X 181.801 Y 115.152 I-229.757 J-568.019
G2 X 187.708 Y 112.609 I-109.799 J-263.123
G2 X 191.000 Y 110.932 I -14.153 J -31.874
G2 X 197.301 Y 107.162 I-119.768 J-207.317
G2 X 201.714 Y 104.184 I -35.842 J -57.869
G2 X 205.407 Y 101.201 I -30.115 J -41.066
G2 X 209.313 Y  97.503 I -55.549 J -62.571
G2 X 216.187 Y  88.762 I -34.717 J -34.377
G2 X 220.091 Y  79.500 I -27.983 J -17.248
G2 X 220.872 Y  69.969 I -28.462 J  -7.128
G2 X 218.597 Y  60.434 I -32.217 J   2.647
G2 X 217.498 Y  57.988 I -34.587 J  14.072
G2 X 216.184 Y  55.524 I -39.412 J  19.439
G2 X 214.858 Y  53.380 I -33.809 J  19.437
G2 X 213.756 Y  52.014 I  -7.972 J   5.296
G3 X 212.777 Y  50.922 I  13.588 J -13.177
G3 X 211.849 Y  49.720 I  16.717 J -13.869
G3 X 211.093 Y  48.584 I  15.558 J -11.168
G3 X 210.685 Y  47.735 I   3.890 J  -2.392
G2 X 210.261 Y  46.989 I  -2.355 J   0.845
G2 X 209.495 Y  46.206 I  -4.983 J   4.107
G2 X 208.539 Y  45.508 I  -4.790 J   5.553
G2 X 207.526 Y  45.010 I  -3.165 J   5.162
G3 X 206.559 Y  44.575 I   3.193 J  -8.397
G3 X 205.742 Y  44.063 I   2.849 J  -5.455
G3 X 205.165 Y  43.552 I   2.626 J  -3.541
G3 X 205.000 Y  43.136 I   0.439 J  -0.415
G2 X 204.759 Y  42.623 I  -0.668 J  -0.000
G2 X 203.141 Y  41.326 I -35.632 J  42.803
G2 X 201.097 Y  39.842 I -26.486 J  34.341
G2 X 198.672 Y  38.256 I -42.221 J  61.883
G1 X 192.343 Y  34.288
G1 X 193.307 Y  38.499
G3 X 193.626 Y  40.430 I -15.567 J   3.562
G3 X 193.781 Y  42.764 I -32.225 J   3.309
G3 X 193.767 Y  45.116 I -32.615 J   0.982
G3 X 193.566 Y  47.105 I -17.086 J  -0.718
G3 X 193.009 Y  49.485 I -16.993 J  -2.724
G3 X 192.177 Y  51.294 I  -7.336 J  -2.278
G3 X 190.847 Y  52.944 I  -7.654 J  -4.809
G3 X 188.698 Y  54.853 I -20.770 J -21.212
G3 X 186.115 Y  56.765 I -24.725 J -30.701
G3 X 184.300 Y  57.627 I  -3.701 J  -5.451
G3 X 182.266 Y  57.922 I  -2.019 J  -6.759
G3 X 178.848 Y  57.795 I   0.100 J -48.768
G3 X 175.928 Y  57.439 I   2.155 J -29.788
G3 X 173.465 Y  56.818 I   2.837 J -16.452
G3 X 171.186 Y  55.850 I   4.990 J -14.907
G3 X 168.831 Y  54.442 I  10.943 J -20.984
G3 X 167.149 Y  53.264 I  40.177 J -59.143
G3 X 165.679 Y  52.157 I  27.012 J -37.405
G3 X 164.487 Y  51.195 I  34.541 J -44.020
G3 X 164.181 Y  50.794 I   0.716 J  -0.863
G2 X 163.890 Y  50.708 I  -0.182 J   0.082
G2 X 163.065 Y  51.310 I   4.907 J   7.593
G2 X 162.015 Y  52.268 I   8.537 J  10.411
G2 X 160.828 Y  53.544 I  21.461 J  21.160
G3 X 159.051 Y  55.364 I -18.160 J -15.944
G3 X 157.585 Y  56.359 I  -4.063 J  -4.405
G3 X 155.948 Y  56.848 I  -2.349 J  -4.885
G3 X 153.638 Y  57.000 I  -2.310 J -17.443
G3 X 146.317 Y  55.331 I  -0.000 J -16.895
G3 X 138.451 Y  50.310 I  16.901 J -35.150
G3 X 131.654 Y  43.258 I  26.917 J -32.744
G3 X 127.485 Y  35.500 I  22.255 J -16.960
G2 X 127.024 Y  34.300 I -19.477 J   6.782
G2 X 126.726 Y  34.154 I  -0.232 J   0.097
G2 X 126.398 Y  34.427 I   0.136 J   0.498
G2 X 125.662 Y  36.000 I  54.606 J  26.509
G3 X 125.138 Y  37.054 I -14.080 J  -6.344
G3 X 124.494 Y  38.154 I -18.609 J -10.156
G3 X 123.833 Y  39.140 I -16.457 J -10.311
G3 X 123.268 Y  39.821 I  -5.011 J  -3.584
G2 X 122.783 Y  40.396 I   4.301 J   4.127
G2 X 122.372 Y  41.027 I   4.828 J   3.583
G2 X 122.086 Y  41.624 I   4.373 J   2.464
G2 X 122.000 Y  42.071 I   1.116 J   0.447
G3 X 121.498 Y  43.345 I  -1.864 J   0.000
G3 X 117.783 Y  47.211 I-144.554 J-135.154
G3 X 114.027 Y  50.832 I -74.890 J -73.922
G3 X 111.519 Y  52.690 I -10.086 J -10.995
G3 X 107.995 Y  54.580 I -25.156 J -42.669
G3 X 104.755 Y  55.920 I -12.819 J -26.404
G3 X 101.798 Y  56.719 I  -7.283 J -21.092
G3 X  99.128 Y  56.968 I  -2.554 J -12.929
G3 X  96.641 Y  56.675 I   0.101 J -11.568
G3 X  94.287 Y  55.855 I   2.547 J -11.096
G3 X  92.548 Y  54.739 I   3.558 J  -7.459
G3 X  92.000 Y  53.568 I   0.978 J  -1.171
G2 X  91.913 Y  53.206 I  -0.797 J   0.000
G2 X  91.597 Y  52.663 I  -5.051 J   2.576
G2 X  91.153 Y  52.063 I  -5.765 J   3.797
G2 X  90.628 Y  51.485 I  -6.352 J   5.249
G2 X  89.816 Y  50.847 I  -3.069 J   3.069
G2 X  89.132 Y  50.711 I  -0.526 J   0.864
G2 X  88.368 Y  51.040 I   0.263 J   1.665
G2 X  87.203 Y  52.026 I   9.765 J  12.718
G3 X  79.950 Y  56.721 I -16.864 J -18.101
G3 X  72.247 Y  57.999 I  -6.526 J -15.479
G3 X  65.321 Y  55.646 I   1.007 J -14.332
G3 X  60.192 Y  50.129 I   8.860 J -13.379
G3 X  58.688 Y  46.847 I  19.188 J -10.784
G3 X  58.111 Y  43.968 I   9.226 J  -3.345
G3 X  58.406 Y  41.001 I  10.191 J  -0.485
G3 X  59.589 Y  37.441 I  24.282 J   6.091
G1 X  61.178 Y  33.638
G1 X  58.839 Y  35.334
G3 X  57.762 Y  36.070 I -13.733 J -18.937
G3 X  56.453 Y  36.882 I -24.521 J -38.113
G3 X  55.126 Y  37.642 I -22.991 J -38.555
G3 X  54.000 Y  38.220 I -10.245 J -18.593
G2 X  52.921 Y  38.788 I   6.499 J  13.662
G2 X  51.743 Y  39.514 I  12.516 J  21.626
G2 X  50.646 Y  40.277 I  13.100 J  19.994
G2 X  49.826 Y  40.954 I   5.764 J   7.808
G2 X  44.945 Y  45.609 I 142.062 J 153.854
F5
G1 Z  -0.118
F15
G2 X  41.447 Y  49.316 I  48.897 J  49.648
G2 X  38.699 Y  52.750 I  36.892 J  32.348
G2 X  36.204 Y  56.490 I  43.225 J  31.528
G2 X  34.059 Y  60.302 I  55.831 J  33.934
G2 X  33.081 Y  62.909 I  10.293 J   5.347
G2 X  32.665 Y  65.904 I  14.652 J   3.562
G2 X  32.558 Y  71.490 I 151.014 J   5.684
G2 X  32.815 Y  77.601 I  71.621 J   0.046
G2 X  33.603 Y  82.981 I  44.674 J  -3.797
G2 X  34.710 Y  87.064 I  35.378 J  -7.397
G2 X  36.010 Y  88.000 I   1.300 J  -0.436
G3 X  36.381 Y  88.134 I   0.000 J   0.582
G3 X  36.792 Y  88.561 I  -1.677 J   2.025
G3 X  37.176 Y  89.178 I  -2.990 J   2.289
G3 X  37.471 Y  89.908 I  -4.631 J   2.294
G2 X  37.896 Y  90.862 I   4.458 J  -1.415
G2 X  38.764 Y  92.238 I  22.041 J -12.948
G2 X  39.850 Y  93.739 I  24.271 J -16.418
G2 X  41.022 Y  95.158 I  22.581 J -17.453
G3 X  42.152 Y  96.493 I -32.524 J  28.670
G3 X  43.107 Y  97.739 I -21.908 J  17.795
G3 X  43.844 Y  98.803 I -25.001 J  18.097
G3 X  43.984 Y  99.250 I  -0.703 J   0.465
G2 X  44.090 Y  99.536 I   0.465 J  -0.010
G2 X  44.381 Y  99.780 I   0.801 J  -0.661
G2 X  44.810 Y  99.944 I   0.771 J  -1.366
G2 X  45.313 Y 100.000 I   0.503 J  -2.251
G3 X  45.997 Y 100.182 I  -0.000 J   1.375
G3 X  47.084 Y 100.881 I  -6.376 J  11.116
G3 X  48.303 Y 101.851 I  -8.970 J  12.519
G3 X  49.500 Y 103.000 I -13.081 J  14.828
G2 X  50.657 Y 104.149 I  23.908 J -22.905
G2 X  51.754 Y 105.119 I  14.834 J -15.684
G2 X  52.699 Y 105.856 I  13.989 J -16.959
G2 X  53.137 Y 106.000 I   0.438 J  -0.594
G3 X  53.620 Y 106.122 I   0.000 J   1.017
G3 X  54.981 Y 106.881 I -26.557 J  49.226
G3 X  56.587 Y 107.851 I -22.558 J  39.161
G3 X  58.345 Y 109.000 I -37.998 J  60.056
G2 X  60.130 Y 110.149 I  27.206 J -40.312
G2 X  61.817 Y 111.119 I  17.968 J -29.306
G2 X  63.254 Y 111.848 I  16.123 J -29.981
G2 X  63.924 Y 112.000 I   0.669 J  -1.400
G3 X  64.637 Y 112.135 I  -0.000 J   1.959
G3 X  66.470 Y 112.881 I -25.590 J  65.432
G3 X  68.641 Y 113.851 I -24.355 J  57.450
G3 X  71.000 Y 115.000 I -39.284 J  83.643
G2 X  74.626 Y 116.702 I  31.423 J -62.248
G2 X  77.486 Y 117.731 I   9.410 J -21.649
G2 X  79.442 Y 118.106 I   3.004 J -10.403
G2 X  80.000 Y 117.599 I   0.049 J  -0.506
G2 X  79.941 Y 117.312 I  -0.734 J   0.000
G2 X  79.268 Y 115.745 I-254.043 J 108.163
G2 X  78.464 Y 113.928 I-111.901 J  48.462
G2 X  77.510 Y 111.849 I-194.783 J  88.153
G3 X  75.241 Y 104.716 I  26.641 J -12.402
G3 X  75.542 Y  98.621 I  13.188 J  -2.403
G3 X  78.464 Y  93.582 I  11.474 J   3.287
G3 X  83.897 Y  89.553 I  15.138 J  14.738
G3 X  88.355 Y  88.202 I   5.878 J  11.366
G3 X  94.928 Y  87.919 I   5.366 J  48.055
G3 X 101.441 Y  88.524 I  -1.206 J  48.300
G3 X 105.656 Y  90.097 I  -1.840 J  11.369
G3 X 108.629 Y  92.544 I  -7.512 J  12.154
G3 X 110.517 Y  95.496 I  -7.267 J   6.728
G3 X 111.677 Y  99.724 I -16.474 J   6.794
G3 X 112.421 Y 106.500 I -95.775 J  13.938
G2 X 112.717 Y 110.151 I 269.961 J -20.030
G2 X 113.053 Y 113.679 I 236.392 J -20.759
G2 X 113.384 Y 116.688 I 216.583 J -22.284
G2 X 113.635 Y 118.302 I  21.307 J  -2.492
G1 X 114.182 Y 121.105
G1 X 117.069 Y 116.552
G1 X 119.956 Y 112.000
G1 X 126.978 Y 112.000
G3 X 130.377 Y 112.064 I   0.000 J  90.644
G3 X 132.439 Y 112.298 I  -0.516 J  13.754
G3 X 133.615 Y 112.705 I  -0.806 J   4.224
G3 X 134.000 Y 113.339 I  -0.329 J   0.634
G2 X 134.162 Y 114.067 I   1.722 J   0.000
G2 X 134.808 Y 115.324 I  16.660 J  -7.776
G2 X 135.697 Y 116.763 I  18.395 J -10.375
G2 X 136.750 Y 118.215 I  22.122 J -14.929
G1 X 139.500 Y 121.752
G1 X 140.063 Y 109.486
G3 X 140.422 Y 103.371 I 238.210 J  10.929
G3 X 140.881 Y  99.303 I  50.017 J   3.584
G3 X 141.496 Y  96.476 I  23.538 J   3.634
G3 X 142.367 Y  94.562 I   6.655 J   1.876
G3 X 145.224 Y  91.247 I  13.996 J   9.171
G3 X 148.538 Y  89.260 I   6.869 J   7.699
G3 X 153.019 Y  88.312 I   5.523 J  15.051
G3 X 159.696 Y  88.203 I   4.462 J  68.469
G3 X 165.542 Y  88.471 I  -6.969 J 215.697
G3 X 168.140 Y  88.925 I  -0.690 J  11.601
G3 X 170.060 Y  89.898 I  -1.685 J   5.712
G3 X 172.472 Y  91.972 I -16.098 J  21.163
G3 X 175.667 Y  95.784 I -16.766 J  17.290
G3 X 177.279 Y  99.515 I  -9.108 J   6.150
G3 X 177.444 Y 103.636 I -11.128 J   2.511
G3 X 176.235 Y 108.646 I -26.823 J  -3.824
G3 X 175.409 Y 111.015 I-385.598 J-132.992
G3 X 174.599 Y 113.294 I-332.234 J-116.879
G3 X 173.895 Y 115.232 I-306.725 J-110.279
G3 X 173.501 Y 116.250 I -28.203 J -10.342
G2 X 173.272 Y 117.002 I   3.952 J   1.614
G2 X 173.301 Y 117.547 I   1.052 J   0.217
G2 X 173.575 Y 117.877 I   0.546 J  -0.175
G2 X 174.063 Y 118.000 I   0.488 J  -0.905
G2 X 175.594 Y 117.702 I  -0.000 J  -4.082
G2 X 181.801 Y 115.152 I-229.757 J-568.019
G2 X 187.708 Y 112.609 I-109.799 J-263.123
G2 X 191.000 Y 110.932 I -14.153 J -31.874
G2 X 197.301 Y 107.162 I-119.768 J-207.317
G2 X 201.714 Y 104.184 I -35.842 J -57.869
G2 X 205.407 Y 101.201 I -30.115 J -41.066
G2 X 209.313 Y  97.503 I -55.549 J -62.571
G2 X 216.187 Y  88.762 I -34.717 J -34.377
G2 X 220.091 Y  79.500 I -27.983 J -17.248
G2 X 220.872 Y  69.969 I -28.462 J  -7.128
G2 X 218.597 Y  60.434 I -32.217 J   2.647
G2 X 217.498 Y  57.988 I -34.587 J  14.072
G2 X 216.184 Y  55.524 I -39.412 J  19.439
G2 X 214.858 Y  53.380 I -33.809 J  19.437
G2 X 213.756 Y  52.014 I  -7.972 J   5.296
G3 X 212.777 Y  50.922 I  13.588 J -13.177
G3 X 211.849 Y  49.720 I  16.717 J -13.869
G3 X 211.093 Y  48.584 I  15.558 J -11.168
G3 X 210.685 Y  47.735 I   3.890 J  -2.392
G2 X 210.261 Y  46.989 I  -2.355 J   0.845
G2 X 209.495 Y  46.206 I  -4.983 J   4.107
G2 X 208.539 Y  45.508 I  -4.790 J   5.553
G2 X 207.526 Y  45.010 I  -3.165 J   5.162
G3 X 206.559 Y  44.575 I   3.193 J  -8.397
G3 X 205.742 Y  44.063 I   2.849 J  -5.455
G3 X 205.165 Y  43.552 I   2.626 J  -3.541
G3 X 205.000 Y  43.136 I   0.439 J  -0.415
G2 X 204.759 Y  42.623 I  -0.668 J  -0.000
G2 X 203.141 Y  41.326 I -35.632 J  42.803
G2 X 201.097 Y  39.842 I -26.486 J  34.341
G2 X 198.672 Y  38.256 I -42.221 J  61.883
G1 X 192.343 Y  34.288
G1 X 193.307 Y  38.499
G3 X 193.626 Y  40.430 I -15.567 J   3.562
G3 X 193.781 Y  42.764 I -32.225 J   3.309
G3 X 193.767 Y  45.116 I -32.615 J   0.982
G3 X 193.566 Y  47.105 I -17.086 J  -0.718
G3 X 193.009 Y  49.485 I -16.993 J  -2.724
G3 X 192.177 Y  51.294 I  -7.336 J  -2.278
G3 X 190.847 Y  52.944 I  -7.654 J  -4.809
G3 X 188.698 Y  54.853 I -20.770 J -21.212
G3 X 186.115 Y  56.765 I -24.725 J -30.701
G3 X 184.300 Y  57.627 I  -3.701 J  -5.451
G3 X 182.266 Y  57.922 I  -2.019 J  -6.759
G3 X 178.848 Y  57.795 I   0.100 J -48.768
G3 X 175.928 Y  57.439 I   2.155 J -29.788
G3 X 173.465 Y  56.818 I   2.837 J -16.452
G3 X 171.186 Y  55.850 I   4.990 J -14.907
G3 X 168.831 Y  54.442 I  10.943 J -20.984
G3 X 167.149 Y  53.264 I  40.177 J -59.143
G3 X 165.679 Y  52.157 I  27.012 J -37.405
G3 X 164.487 Y  51.195 I  34.541 J -44.020
G3 X 164.181 Y  50.794 I   0.716 J  -0.863
G2 X 163.890 Y  50.708 I  -0.182 J   0.082
G2 X 163.065 Y  51.310 I   4.907 J   7.593
G2 X 162.015 Y  52.268 I   8.537 J  10.411
G2 X 160.828 Y  53.544 I  21.461 J  21.160
G3 X 159.051 Y  55.364 I -18.160 J -15.944
G3 X 157.585 Y  56.359 I  -4.063 J  -4.405
G3 X 155.948 Y  56.848 I  -2.349 J  -4.885
G3 X 153.638 Y  57.000 I  -2.310 J -17.443
G3 X 146.317 Y  55.331 I  -0.000 J -16.895
G3 X 138.451 Y  50.310 I  16.901 J -35.150
G3 X 131.654 Y  43.258 I  26.917 J -32.744
G3 X 127.485 Y  35.500 I  22.255 J -16.960
G2 X 127.024 Y  34.300 I -19.477 J   6.782
G2 X 126.726 Y  34.154 I  -0.232 J   0.097
G2 X 126.398 Y  34.427 I   0.136 J   0.498
G2 X 125.662 Y  36.000 I  54.606 J  26.509
G3 X 125.138 Y  37.054 I -14.080 J  -6.344
G3 X 124.494 Y  38.154 I -18.609 J -10.156
G3 X 123.833 Y  39.140 I -16.457 J -10.311
G3 X 123.268 Y  39.821 I  -5.011 J  -3.584
G2 X 122.783 Y  40.396 I   4.301 J   4.127
G2 X 122.372 Y  41.027 I   4.828 J   3.583
G2 X 122.086 Y  41.624 I   4.373 J   2.464
G2 X 122.000 Y  42.071 I   1.116 J   0.447
G3 X 121.498 Y  43.345 I  -1.864 J   0.000
G3 X 117.783 Y  47.211 I-144.554 J-135.154
G3 X 114.027 Y  50.832 I -74.890 J -73.922
G3 X 111.519 Y  52.690 I -10.086 J -10.995
G3 X 107.995 Y  54.580 I -25.156 J -42.669
G3 X 104.755 Y  55.920 I -12.819 J -26.404
G3 X 101.798 Y  56.719 I  -7.283 J -21.092
G3 X  99.128 Y  56.968 I  -2.554 J -12.929
G3 X  96.641 Y  56.675 I   0.101 J -11.568
G3 X  94.287 Y  55.855 I   2.547 J -11.096
G3 X  92.548 Y  54.739 I   3.558 J  -7.459
G3 X  92.000 Y  53.568 I   0.978 J  -1.171
G2 X  91.913 Y  53.206 I  -0.797 J   0.000
G2 X  91.597 Y  52.663 I  -5.051 J   2.576
G2 X  91.153 Y  52.063 I  -5.765 J   3.797
G2 X  90.628 Y  51.485 I  -6.352 J   5.249
G2 X  89.816 Y  50.847 I  -3.069 J   3.069
G2 X  89.132 Y  50.711 I  -0.526 J   0.864
G2 X  88.368 Y  51.040 I   0.263 J   1.665
G2 X  87.203 Y  52.026 I   9.765 J  12.718
G3 X  79.950 Y  56.721 I -16.864 J -18.101
G3 X  72.247 Y  57.999 I  -6.526 J -15.479
G3 X  65.321 Y  55.646 I   1.007 J -14.332
G3 X  60.192 Y  50.129 I   8.860 J -13.379
G3 X  58.688 Y  46.847 I  19.188 J -10.784
G3 X  58.111 Y  43.968 I   9.226 J  -3.345
G3 X  58.406 Y  41.001 I  10.191 J  -0.485
G3 X  59.589 Y  37.441 I  24.282 J   6.091
G1 X  61.178 Y  33.638
G1 X  58.839 Y  35.334
G3 X  57.762 Y  36.070 I -13.733 J -18.937
G3 X  56.453 Y  36.882 I -24.521 J -38.113
G3 X  55.126 Y  37.642 I -22.991 J -38.555
G3 X  54.000 Y  38.220 I -10.245 J -18.593
G2 X  52.921 Y  38.788 I   6.499 J  13.662
G2 X  51.743 Y  39.514 I  12.516 J  21.626
G2 X  50.646 Y  40.277 I  13.100 J  19.994
G2 X  49.826 Y  40.954 I   5.764 J   7.808
G2 X  44.945 Y  45.609 I 142.062 J 153.854
F5
G1 Z   0.118
G0 Z   0.591 
M9 M5
G0 X   0.000 Y   0.000
M2 (Program end)