(Generated with: DXF2GCODE, Version: PyQt5 Beta, Date: $Date: Sun Oct 4 21:49:52 2015 +0200 $)
(Created from file: C:/Users/jpflueger/Downloads/Result/cup.dxf)
(Time: Sat Feb 20 11:50:02 2016)
G20 (Units in inches)  G90 (Absolute programming) G64 (Default cutting) G17 (XY plane) G40 (Cancel radius comp.) G49 (Cancel length comp.)
G0 Z   0.591 

(*** LAYER: 0 ***)
T1 M6
S6000

(* SHAPE Nr: 0 *)
G0 X  32.800 Y  61.129
M3 M8
G0 Z   0.118 
F5
G1 Z  -0.059
F15
G2 X  26.898 Y  65.175 I  26.757 J  45.364
G2 X  21.275 Y  70.317 I  32.906 J  41.629
G2 X  15.666 Y  76.863 I  62.916 J  59.584
G2 X  10.528 Y  84.208 I  73.414 J  56.822
G2 X   6.316 Y  91.766 I  68.245 J  42.984
G2 X   3.649 Y  97.483 I 155.878 J  76.212
G2 X   2.436 Y 100.954 I  20.466 J   9.100
G2 X   1.874 Y 104.392 I  18.326 J   4.758
G2 X   1.643 Y 109.766 I 100.441 J   7.021
G2 X   1.667 Y 114.907 I 121.827 J   1.992
G2 X   2.011 Y 118.056 I  19.130 J  -0.495
G2 X   2.839 Y 120.837 I  14.555 J  -2.823
G2 X   4.500 Y 124.500 I  48.961 J -19.986
G2 X   8.050 Y 130.355 I  37.669 J -18.834
G2 X  12.359 Y 135.269 I  28.366 J -20.526
G2 X  17.371 Y 139.166 I  22.617 J -23.918
G2 X  23.007 Y 142.000 I  17.174 J -27.133
G2 X  26.920 Y 143.331 I  18.688 J -48.538
G2 X  30.140 Y 144.019 I   6.040 J -20.386
G2 X  33.860 Y 144.282 I   3.977 J -29.726
G2 X  39.679 Y 144.230 I   1.423 J-166.019
G3 X  43.617 Y 144.187 I   3.349 J 126.448
G3 X  47.019 Y 144.285 I  -0.329 J  70.733
G3 X  49.841 Y 144.471 I  -5.813 J 110.046
G3 X  50.373 Y 144.795 I  -0.054 J   0.687
G3 X  50.586 Y 145.485 I  -1.216 J   0.751
G3 X  50.790 Y 150.563 I-948.546 J  40.779
G3 X  50.962 Y 156.440 I-351.696 J  13.234
G3 X  51.068 Y 163.257 I-633.675 J  13.249
G2 X  51.229 Y 174.141 I1172.408 J -11.901
G2 X  51.533 Y 178.572 I  45.283 J  -0.880
G2 X  52.165 Y 181.055 I   9.699 J  -1.145
G2 X  53.374 Y 182.778 I   4.263 J  -1.706
G2 X  60.273 Y 187.640 I  24.699 J -27.725
G2 X  71.214 Y 193.068 I  74.354 J-136.129
G2 X  83.509 Y 198.003 I  68.735 J-153.435
G2 X  95.083 Y 201.463 I  39.075 J-109.644
G2 X 101.928 Y 202.903 I  26.520 J-109.071
G2 X 109.997 Y 204.176 I  36.454 J-204.755
G2 X 119.557 Y 205.332 I  39.673 J-287.951
G2 X 131.000 Y 206.411 I  60.790 J-583.637
G2 X 140.492 Y 206.730 I   7.898 J -93.585
G2 X 160.302 Y 206.257 I -24.255 J-1428.655
G2 X 180.343 Y 205.472 I -37.235 J-1206.793
G2 X 193.500 Y 204.483 I -11.360 J-239.201
G2 X 205.360 Y 202.977 I -25.773 J-250.417
G2 X 215.066 Y 201.093 I -17.735 J-117.305
G2 X 224.014 Y 198.533 I -23.800 J-100.106
G2 X 233.500 Y 194.973 I -45.933 J-136.818
G2 X 246.409 Y 188.644 I -44.766 J-107.643
G2 X 252.102 Y 182.742 I  -7.193 J -12.635
G2 X 254.460 Y 173.893 I -18.496 J  -9.666
G2 X 254.638 Y 154.523 I-323.806 J -12.676
G2 X 253.629 Y 132.922 I-415.058 J   8.577
G2 X 251.522 Y 114.271 I-235.827 J  17.188
G2 X 248.093 Y  96.890 I-205.277 J  31.478
G2 X 243.085 Y  79.181 I-234.983 J  56.879
G2 X 238.006 Y  65.256 I-194.984 J  63.240
G2 X 231.670 Y  50.941 I-236.133 J  95.949
G2 X 224.494 Y  37.095 I-228.234 J 109.513
G2 X 216.887 Y  24.581 I-171.994 J  95.980
G3 X 214.425 Y  20.669 I  88.566 J -58.453
G3 X 212.568 Y  17.290 I  44.358 J -26.578
G3 X 211.328 Y  14.545 I  32.925 J -16.528
G3 X 211.000 Y  12.854 I   4.192 J  -1.691
G2 X 209.651 Y   9.686 I  -4.395 J  -0.000
G2 X 205.943 Y   7.403 I  -7.106 J   7.391
G2 X 198.634 Y   5.547 I -14.045 J  39.989
G2 X 184.193 Y   3.439 I -79.257 J 492.336
G2 X 171.330 Y   2.312 I -19.548 J 149.123
G2 X 153.912 Y   1.849 I -21.630 J 486.152
G2 X 136.946 Y   1.988 I  -4.353 J 502.938
G2 X 126.500 Y   2.939 I   2.003 J  79.826
G2 X 118.783 Y   4.463 I  15.969 J 101.181
G2 X 111.032 Y   6.603 I  25.850 J 108.760
G2 X 104.407 Y   8.912 I  34.989 J 111.027
G2 X 101.740 Y  10.742 I   2.474 J   6.463
G2 X 101.079 Y  11.629 I   4.397 J   3.963
G2 X 100.404 Y  12.865 I  13.064 J   7.945
G2 X  99.815 Y  14.223 I  14.699 J   7.178
G2 X  99.417 Y  15.500 I  10.244 J   3.900
G3 X  98.731 Y  17.109 I  -5.287 J  -1.303
G3 X  96.888 Y  19.847 I -49.152 J -31.101
G3 X  94.516 Y  22.960 I -52.872 J -37.819
G3 X  91.846 Y  26.084 I -61.282 J -49.672
G3 X  87.717 Y  30.500 I-121.011 J-109.000
G3 X  85.118 Y  32.737 I -13.707 J -13.300
G3 X  82.540 Y  34.141 I  -7.027 J  -9.829
G3 X  78.835 Y  35.386 I -13.596 J -34.329
G2 X  75.286 Y  36.571 I   9.822 J  35.326
G2 X  72.673 Y  37.920 I   5.200 J  13.279
G2 X  70.107 Y  39.936 I  10.398 J  15.876
G2 X  66.577 Y  43.414 I  64.900 J  69.388
G3 X  63.063 Y  46.891 I -73.574 J -70.864
G3 X  60.602 Y  48.830 I -12.187 J -12.932
G3 X  58.185 Y  50.043 I  -6.489 J  -9.921
G3 X  55.000 Y  50.986 I  -9.135 J -24.981
G2 X  48.996 Y  52.939 I   7.962 J  34.687
G2 X  40.858 Y  56.725 I  54.787 J 128.416
G2 X  32.800 Y  61.129 I  63.338 J 125.447
F5
G1 Z  -0.118
F15
G2 X  26.898 Y  65.175 I  26.757 J  45.364
G2 X  21.275 Y  70.317 I  32.906 J  41.629
G2 X  15.666 Y  76.863 I  62.916 J  59.584
G2 X  10.528 Y  84.208 I  73.414 J  56.822
G2 X   6.316 Y  91.766 I  68.245 J  42.984
G2 X   3.649 Y  97.483 I 155.878 J  76.212
G2 X   2.436 Y 100.954 I  20.466 J   9.100
G2 X   1.874 Y 104.392 I  18.326 J   4.758
G2 X   1.643 Y 109.766 I 100.441 J   7.021
G2 X   1.667 Y 114.907 I 121.827 J   1.992
G2 X   2.011 Y 118.056 I  19.130 J  -0.495
G2 X   2.839 Y 120.837 I  14.555 J  -2.823
G2 X   4.500 Y 124.500 I  48.961 J -19.986
G2 X   8.050 Y 130.355 I  37.669 J -18.834
G2 X  12.359 Y 135.269 I  28.366 J -20.526
G2 X  17.371 Y 139.166 I  22.617 J -23.918
G2 X  23.007 Y 142.000 I  17.174 J -27.133
G2 X  26.920 Y 143.331 I  18.688 J -48.538
G2 X  30.140 Y 144.019 I   6.040 J -20.386
G2 X  33.860 Y 144.282 I   3.977 J -29.726
G2 X  39.679 Y 144.230 I   1.423 J-166.019
G3 X  43.617 Y 144.187 I   3.349 J 126.448
G3 X  47.019 Y 144.285 I  -0.329 J  70.733
G3 X  49.841 Y 144.471 I  -5.813 J 110.046
G3 X  50.373 Y 144.795 I  -0.054 J   0.687
G3 X  50.586 Y 145.485 I  -1.216 J   0.751
G3 X  50.790 Y 150.563 I-948.546 J  40.779
G3 X  50.962 Y 156.440 I-351.696 J  13.234
G3 X  51.068 Y 163.257 I-633.675 J  13.249
G2 X  51.229 Y 174.141 I1172.408 J -11.901
G2 X  51.533 Y 178.572 I  45.283 J  -0.880
G2 X  52.165 Y 181.055 I   9.699 J  -1.145
G2 X  53.374 Y 182.778 I   4.263 J  -1.706
G2 X  60.273 Y 187.640 I  24.699 J -27.725
G2 X  71.214 Y 193.068 I  74.354 J-136.129
G2 X  83.509 Y 198.003 I  68.735 J-153.435
G2 X  95.083 Y 201.463 I  39.075 J-109.644
G2 X 101.928 Y 202.903 I  26.520 J-109.071
G2 X 109.997 Y 204.176 I  36.454 J-204.755
G2 X 119.557 Y 205.332 I  39.673 J-287.951
G2 X 131.000 Y 206.411 I  60.790 J-583.637
G2 X 140.492 Y 206.730 I   7.898 J -93.585
G2 X 160.302 Y 206.257 I -24.255 J-1428.655
G2 X 180.343 Y 205.472 I -37.235 J-1206.793
G2 X 193.500 Y 204.483 I -11.360 J-239.201
G2 X 205.360 Y 202.977 I -25.773 J-250.417
G2 X 215.066 Y 201.093 I -17.735 J-117.305
G2 X 224.014 Y 198.533 I -23.800 J-100.106
G2 X 233.500 Y 194.973 I -45.933 J-136.818
G2 X 246.409 Y 188.644 I -44.766 J-107.643
G2 X 252.102 Y 182.742 I  -7.193 J -12.635
G2 X 254.460 Y 173.893 I -18.496 J  -9.666
G2 X 254.638 Y 154.523 I-323.806 J -12.676
G2 X 253.629 Y 132.922 I-415.058 J   8.577
G2 X 251.522 Y 114.271 I-235.827 J  17.188
G2 X 248.093 Y  96.890 I-205.277 J  31.478
G2 X 243.085 Y  79.181 I-234.983 J  56.879
G2 X 238.006 Y  65.256 I-194.984 J  63.240
G2 X 231.670 Y  50.941 I-236.133 J  95.949
G2 X 224.494 Y  37.095 I-228.234 J 109.513
G2 X 216.887 Y  24.581 I-171.994 J  95.980
G3 X 214.425 Y  20.669 I  88.566 J -58.453
G3 X 212.568 Y  17.290 I  44.358 J -26.578
G3 X 211.328 Y  14.545 I  32.925 J -16.528
G3 X 211.000 Y  12.854 I   4.192 J  -1.691
G2 X 209.651 Y   9.686 I  -4.395 J  -0.000
G2 X 205.943 Y   7.403 I  -7.106 J   7.391
G2 X 198.634 Y   5.547 I -14.045 J  39.989
G2 X 184.193 Y   3.439 I -79.257 J 492.336
G2 X 171.330 Y   2.312 I -19.548 J 149.123
G2 X 153.912 Y   1.849 I -21.630 J 486.152
G2 X 136.946 Y   1.988 I  -4.353 J 502.938
G2 X 126.500 Y   2.939 I   2.003 J  79.826
G2 X 118.783 Y   4.463 I  15.969 J 101.181
G2 X 111.032 Y   6.603 I  25.850 J 108.760
G2 X 104.407 Y   8.912 I  34.989 J 111.027
G2 X 101.740 Y  10.742 I   2.474 J   6.463
G2 X 101.079 Y  11.629 I   4.397 J   3.963
G2 X 100.404 Y  12.865 I  13.064 J   7.945
G2 X  99.815 Y  14.223 I  14.699 J   7.178
G2 X  99.417 Y  15.500 I  10.244 J   3.900
G3 X  98.731 Y  17.109 I  -5.287 J  -1.303
G3 X  96.888 Y  19.847 I -49.152 J -31.101
G3 X  94.516 Y  22.960 I -52.872 J -37.819
G3 X  91.846 Y  26.084 I -61.282 J -49.672
G3 X  87.717 Y  30.500 I-121.011 J-109.000
G3 X  85.118 Y  32.737 I -13.707 J -13.300
G3 X  82.540 Y  34.141 I  -7.027 J  -9.829
G3 X  78.835 Y  35.386 I -13.596 J -34.329
G2 X  75.286 Y  36.571 I   9.822 J  35.326
G2 X  72.673 Y  37.920 I   5.200 J  13.279
G2 X  70.107 Y  39.936 I  10.398 J  15.876
G2 X  66.577 Y  43.414 I  64.900 J  69.388
G3 X  63.063 Y  46.891 I -73.574 J -70.864
G3 X  60.602 Y  48.830 I -12.187 J -12.932
G3 X  58.185 Y  50.043 I  -6.489 J  -9.921
G3 X  55.000 Y  50.986 I  -9.135 J -24.981
G2 X  48.996 Y  52.939 I   7.962 J  34.687
G2 X  40.858 Y  56.725 I  54.787 J 128.416
G2 X  32.800 Y  61.129 I  63.338 J 125.447
F5
G1 Z   0.118
G0 Z   0.591 
M9 M5

(* SHAPE Nr: 1 *)
G0 X  75.124 Y 132.588
M3 M8
G0 Z   0.118 
G1 Z  -0.059
F15
G2 X  67.367 Y 136.879 I  63.493 J 123.932
G2 X  61.827 Y 140.733 I  24.438 J  41.036
G2 X  59.215 Y 143.005 I  29.115 J  36.111
G2 X  57.832 Y 144.708 I   5.548 J   5.917
G2 X  57.040 Y 146.613 I   5.806 J   3.530
G2 X  56.497 Y 149.500 I  25.797 J   6.353
G2 X  56.065 Y 156.132 I  50.050 J   6.586
G2 X  56.290 Y 165.804 I 216.682 J  -0.196
G2 X  56.870 Y 175.399 I 324.840 J -14.810
G2 X  57.827 Y 178.682 I   8.234 J  -0.620
G2 X  60.378 Y 181.232 I   5.499 J  -2.950
G2 X  70.136 Y 186.243 I 146.046 J-272.383
G2 X  80.679 Y 191.053 I  88.946 J-181.037
G2 X  89.844 Y 194.413 I  39.698 J -94.100
G2 X 105.919 Y 198.244 I  35.516 J-113.367
G2 X 124.856 Y 200.507 I  34.324 J-206.920
G2 X 147.027 Y 201.273 I  20.938 J-284.631
G2 X 173.000 Y 200.530 I  -2.310 J-534.763
G2 X 185.059 Y 199.757 I -28.898 J-545.640
G2 X 196.079 Y 198.769 I -28.807 J-383.215
G2 X 205.594 Y 197.624 I -31.060 J-298.090
G2 X 212.948 Y 196.367 I -15.122 J-110.670
G2 X 220.387 Y 194.361 I -12.749 J -62.060
G2 X 231.030 Y 190.543 I -89.282 J-265.592
G2 X 242.088 Y 186.239 I-327.216 J-857.215
G2 X 243.000 Y 184.896 I  -0.533 J  -1.344
G2 X 242.931 Y 184.554 I  -0.876 J   0.000
G2 X 242.733 Y 184.263 I  -0.831 J   0.353
G2 X 242.438 Y 184.068 I  -0.642 J   0.652
G2 X 242.090 Y 184.000 I  -0.347 J   0.848
G3 X 241.739 Y 183.742 I  -0.000 J  -0.367
G3 X 241.469 Y 182.635 I   8.864 J  -2.757
G3 X 241.290 Y 181.135 I  12.382 J  -2.237
G3 X 241.251 Y 179.354 I  24.130 J  -1.416
G2 X 241.187 Y 177.047 I -26.945 J  -0.407
G2 X 240.886 Y 175.421 I  -7.346 J   0.519
G2 X 240.311 Y 174.233 I  -4.084 J   1.243
G2 X 239.411 Y 173.309 I  -3.203 J   2.220
G2 X 236.812 Y 171.923 I  -6.130 J   8.368
G2 X 231.295 Y 170.065 I -44.316 J 122.428
G2 X 224.634 Y 168.163 I -42.254 J 135.357
G2 X 217.500 Y 166.469 I -44.659 J 172.220
G2 X 205.870 Y 164.714 I -19.780 J  91.670
G2 X 185.084 Y 163.168 I -70.889 J 812.671
G2 X 161.464 Y 162.041 I -52.717 J 856.695
G2 X 138.500 Y 161.607 I -25.895 J 763.461
G2 X 121.854 Y 161.619 I  -7.067 J1841.365
G2 X 112.952 Y 161.891 I   0.914 J 175.716
G2 X 106.045 Y 162.559 I   4.780 J  85.436
G2 X  98.049 Y 163.871 I  21.646 J 157.011
G2 X  89.294 Y 165.772 I  32.510 J 170.757
G2 X  81.281 Y 168.006 I  30.700 J 125.625
G2 X  74.612 Y 170.356 I  30.398 J  96.888
G2 X  70.250 Y 172.592 I   8.961 J  22.855
G2 X  69.174 Y 173.503 I   2.987 J   4.622
G2 X  68.486 Y 174.579 I   2.757 J   2.519
G2 X  68.115 Y 175.992 I   4.832 J   2.024
G2 X  68.000 Y 177.964 I  16.804 J   1.972
G3 X  67.801 Y 180.851 I -20.994 J  -0.000
G3 X  67.064 Y 182.267 I  -2.358 J  -0.327
G3 X  65.781 Y 182.622 I  -0.984 J  -1.058
G3 X  63.771 Y 181.897 I   1.605 J  -7.589
G3 X  61.059 Y 180.010 I   6.261 J -11.887
G3 X  60.114 Y 178.062 I   1.914 J  -2.133
G3 X  60.715 Y 175.724 I   3.870 J  -0.251
G3 X  63.160 Y 172.471 I  22.564 J  14.412
G3 X  67.801 Y 168.458 I  16.837 J  14.783
G3 X  74.300 Y 164.940 I  25.321 J  39.021
G3 X  82.486 Y 161.961 I  26.140 J  59.079
G3 X  92.274 Y 159.589 I  31.909 J 110.295
G3 X 107.141 Y 157.084 I  53.845 J 274.235
G3 X 120.076 Y 155.813 I  21.613 J 153.445
G3 X 134.697 Y 155.501 I  11.786 J 210.118
G3 X 155.500 Y 156.042 I -11.202 J 831.146
G3 X 188.552 Y 157.721 I -52.070 J1351.402
G3 X 211.445 Y 159.972 I -20.679 J 327.890
G3 X 227.910 Y 163.017 I -22.277 J 166.497
G3 X 239.589 Y 167.293 I -12.154 J  51.276
G3 X 244.280 Y 169.973 I -24.568 J  48.449
G3 X 246.672 Y 172.265 I  -4.599 J   7.194
G3 X 247.662 Y 174.939 I  -4.595 J   3.222
G3 X 247.595 Y 178.711 I -16.242 J   1.597
G2 X 247.283 Y 181.228 I 118.382 J  15.923
G2 X 247.309 Y 182.162 I   3.331 J   0.376
G2 X 247.577 Y 182.255 I   0.160 J  -0.027
G2 X 248.089 Y 181.636 I  -1.904 J  -2.094
G2 X 249.294 Y 177.863 I  -7.142 J  -4.361
G2 X 249.767 Y 168.024 I-220.035 J -15.498
G2 X 249.715 Y 157.159 I-178.556 J  -4.583
G2 X 248.971 Y 147.251 I-124.944 J   4.398
G1 X 247.644 Y 135.726
G1 X 242.572 Y 133.407
G2 X 235.478 Y 130.732 I -23.090 J  50.494
G2 X 222.639 Y 127.067 I-136.128 J 452.480
G2 X 209.130 Y 123.643 I-115.280 J 426.517
G2 X 198.525 Y 121.502 I -37.530 J 158.547
G2 X 187.294 Y 119.921 I -35.787 J 213.575
G2 X 172.876 Y 118.461 I -64.556 J 565.630
G2 X 158.599 Y 117.381 I -49.825 J 563.558
G2 X 147.936 Y 117.029 I -11.209 J 178.043
G2 X 134.664 Y 117.637 I  -0.416 J 136.037
G2 X 118.770 Y 119.598 I  26.942 J 283.819
G2 X 103.262 Y 122.403 I  42.127 J 277.190
G2 X  91.290 Y 125.638 I  22.415 J 106.712
G2 X  83.549 Y 128.602 I  29.207 J  87.888
G2 X  75.124 Y 132.588 I  58.944 J 135.484
F5
G1 Z  -0.118
F15
G2 X  67.367 Y 136.879 I  63.493 J 123.932
G2 X  61.827 Y 140.733 I  24.438 J  41.036
G2 X  59.215 Y 143.005 I  29.115 J  36.111
G2 X  57.832 Y 144.708 I   5.548 J   5.917
G2 X  57.040 Y 146.613 I   5.806 J   3.530
G2 X  56.497 Y 149.500 I  25.797 J   6.353
G2 X  56.065 Y 156.132 I  50.050 J   6.586
G2 X  56.290 Y 165.804 I 216.682 J  -0.196
G2 X  56.870 Y 175.399 I 324.840 J -14.810
G2 X  57.827 Y 178.682 I   8.234 J  -0.620
G2 X  60.378 Y 181.232 I   5.499 J  -2.950
G2 X  70.136 Y 186.243 I 146.046 J-272.383
G2 X  80.679 Y 191.053 I  88.946 J-181.037
G2 X  89.844 Y 194.413 I  39.698 J -94.100
G2 X 105.919 Y 198.244 I  35.516 J-113.367
G2 X 124.856 Y 200.507 I  34.324 J-206.920
G2 X 147.027 Y 201.273 I  20.938 J-284.631
G2 X 173.000 Y 200.530 I  -2.310 J-534.763
G2 X 185.059 Y 199.757 I -28.898 J-545.640
G2 X 196.079 Y 198.769 I -28.807 J-383.215
G2 X 205.594 Y 197.624 I -31.060 J-298.090
G2 X 212.948 Y 196.367 I -15.122 J-110.670
G2 X 220.387 Y 194.361 I -12.749 J -62.060
G2 X 231.030 Y 190.543 I -89.282 J-265.592
G2 X 242.088 Y 186.239 I-327.216 J-857.215
G2 X 243.000 Y 184.896 I  -0.533 J  -1.344
G2 X 242.931 Y 184.554 I  -0.876 J   0.000
G2 X 242.733 Y 184.263 I  -0.831 J   0.353
G2 X 242.438 Y 184.068 I  -0.642 J   0.652
G2 X 242.090 Y 184.000 I  -0.347 J   0.848
G3 X 241.739 Y 183.742 I  -0.000 J  -0.367
G3 X 241.469 Y 182.635 I   8.864 J  -2.757
G3 X 241.290 Y 181.135 I  12.382 J  -2.237
G3 X 241.251 Y 179.354 I  24.130 J  -1.416
G2 X 241.187 Y 177.047 I -26.945 J  -0.407
G2 X 240.886 Y 175.421 I  -7.346 J   0.519
G2 X 240.311 Y 174.233 I  -4.084 J   1.243
G2 X 239.411 Y 173.309 I  -3.203 J   2.220
G2 X 236.812 Y 171.923 I  -6.130 J   8.368
G2 X 231.295 Y 170.065 I -44.316 J 122.428
G2 X 224.634 Y 168.163 I -42.254 J 135.357
G2 X 217.500 Y 166.469 I -44.659 J 172.220
G2 X 205.870 Y 164.714 I -19.780 J  91.670
G2 X 185.084 Y 163.168 I -70.889 J 812.671
G2 X 161.464 Y 162.041 I -52.717 J 856.695
G2 X 138.500 Y 161.607 I -25.895 J 763.461
G2 X 121.854 Y 161.619 I  -7.067 J1841.365
G2 X 112.952 Y 161.891 I   0.914 J 175.716
G2 X 106.045 Y 162.559 I   4.780 J  85.436
G2 X  98.049 Y 163.871 I  21.646 J 157.011
G2 X  89.294 Y 165.772 I  32.510 J 170.757
G2 X  81.281 Y 168.006 I  30.700 J 125.625
G2 X  74.612 Y 170.356 I  30.398 J  96.888
G2 X  70.250 Y 172.592 I   8.961 J  22.855
G2 X  69.174 Y 173.503 I   2.987 J   4.622
G2 X  68.486 Y 174.579 I   2.757 J   2.519
G2 X  68.115 Y 175.992 I   4.832 J   2.024
G2 X  68.000 Y 177.964 I  16.804 J   1.972
G3 X  67.801 Y 180.851 I -20.994 J  -0.000
G3 X  67.064 Y 182.267 I  -2.358 J  -0.327
G3 X  65.781 Y 182.622 I  -0.984 J  -1.058
G3 X  63.771 Y 181.897 I   1.605 J  -7.589
G3 X  61.059 Y 180.010 I   6.261 J -11.887
G3 X  60.114 Y 178.062 I   1.914 J  -2.133
G3 X  60.715 Y 175.724 I   3.870 J  -0.251
G3 X  63.160 Y 172.471 I  22.564 J  14.412
G3 X  67.801 Y 168.458 I  16.837 J  14.783
G3 X  74.300 Y 164.940 I  25.321 J  39.021
G3 X  82.486 Y 161.961 I  26.140 J  59.079
G3 X  92.274 Y 159.589 I  31.909 J 110.295
G3 X 107.141 Y 157.084 I  53.845 J 274.235
G3 X 120.076 Y 155.813 I  21.613 J 153.445
G3 X 134.697 Y 155.501 I  11.786 J 210.118
G3 X 155.500 Y 156.042 I -11.202 J 831.146
G3 X 188.552 Y 157.721 I -52.070 J1351.402
G3 X 211.445 Y 159.972 I -20.679 J 327.890
G3 X 227.910 Y 163.017 I -22.277 J 166.497
G3 X 239.589 Y 167.293 I -12.154 J  51.276
G3 X 244.280 Y 169.973 I -24.568 J  48.449
G3 X 246.672 Y 172.265 I  -4.599 J   7.194
G3 X 247.662 Y 174.939 I  -4.595 J   3.222
G3 X 247.595 Y 178.711 I -16.242 J   1.597
G2 X 247.283 Y 181.228 I 118.382 J  15.923
G2 X 247.309 Y 182.162 I   3.331 J   0.376
G2 X 247.577 Y 182.255 I   0.160 J  -0.027
G2 X 248.089 Y 181.636 I  -1.904 J  -2.094
G2 X 249.294 Y 177.863 I  -7.142 J  -4.361
G2 X 249.767 Y 168.024 I-220.035 J -15.498
G2 X 249.715 Y 157.159 I-178.556 J  -4.583
G2 X 248.971 Y 147.251 I-124.944 J   4.398
G1 X 247.644 Y 135.726
G1 X 242.572 Y 133.407
G2 X 235.478 Y 130.732 I -23.090 J  50.494
G2 X 222.639 Y 127.067 I-136.128 J 452.480
G2 X 209.130 Y 123.643 I-115.280 J 426.517
G2 X 198.525 Y 121.502 I -37.530 J 158.547
G2 X 187.294 Y 119.921 I -35.787 J 213.575
G2 X 172.876 Y 118.461 I -64.556 J 565.630
G2 X 158.599 Y 117.381 I -49.825 J 563.558
G2 X 147.936 Y 117.029 I -11.209 J 178.043
G2 X 134.664 Y 117.637 I  -0.416 J 136.037
G2 X 118.770 Y 119.598 I  26.942 J 283.819
G2 X 103.262 Y 122.403 I  42.127 J 277.190
G2 X  91.290 Y 125.638 I  22.415 J 106.712
G2 X  83.549 Y 128.602 I  29.207 J  87.888
G2 X  75.124 Y 132.588 I  58.944 J 135.484
F5
G1 Z   0.118
G0 Z   0.591 
M9 M5

(* SHAPE Nr: 2 *)
G0 X  84.078 Y  47.982
M3 M8
G0 Z   0.118 
G1 Z  -0.059
F15
G2 X  75.483 Y  66.081 I 719.057 J 352.569
G2 X  69.005 Y  81.070 I 323.610 J 148.749
G2 X  64.448 Y  93.278 I 217.717 J  88.225
G2 X  61.986 Y 102.500 I  65.853 J  22.522
G3 X  61.442 Y 104.980 I -53.239 J -10.364
G3 X  60.776 Y 107.472 I -56.067 J -13.667
G3 X  60.089 Y 109.645 I -48.910 J -14.265
G3 X  59.507 Y 111.000 I  -9.048 J  -3.084
G2 X  58.950 Y 112.643 I   4.939 J   2.590
G2 X  58.378 Y 116.391 I  96.396 J  16.609
G2 X  57.875 Y 120.960 I 102.929 J  13.652
G2 X  57.517 Y 126.000 I 150.855 J  13.247
G3 X  57.217 Y 130.929 I-379.411 J -20.594
G3 X  56.878 Y 135.397 I-257.239 J -17.318
G3 X  56.538 Y 139.134 I-305.563 J -25.913
G3 X  56.293 Y 140.436 I  -7.424 J  -0.721
G2 X  56.370 Y 141.024 I   0.723 J   0.204
G2 X  56.796 Y 141.156 I   0.286 J  -0.170
G2 X  57.900 Y 140.471 I  -2.255 J  -4.873
G2 X  60.029 Y 138.707 I -54.222 J -67.597
G3 X  62.261 Y 136.996 I  17.010 J  19.872
G3 X  65.578 Y 134.820 I  56.510 J  82.532
G3 X  69.301 Y 132.582 I  58.960 J  93.892
G3 X  72.906 Y 130.621 I  43.994 J  76.563
G3 X  85.463 Y 125.022 I  56.562 J 109.966
G3 X  98.645 Y 120.810 I  45.156 J 118.590
G3 X 113.927 Y 117.585 I  42.108 J 161.726
G3 X 133.000 Y 114.974 I  61.333 J 377.129
G3 X 143.504 Y 114.448 I   9.581 J  86.096
G3 X 160.134 Y 114.900 I  -5.366 J 503.710
G3 X 177.428 Y 115.959 I -21.646 J 495.230
G3 X 191.038 Y 117.511 I -15.401 J 195.450
G3 X 204.165 Y 119.793 I -41.796 J 279.343
G3 X 217.785 Y 122.786 I -65.871 J 332.288
G3 X 230.414 Y 126.120 I -71.993 J 298.233
G3 X 240.407 Y 129.429 I -36.054 J 125.644
G1 X 247.017 Y 131.917
G1 X 246.516 Y 129.708
G3 X 246.224 Y 128.307 I  39.360 J  -8.933
G3 X 245.586 Y 124.917 I 972.593 J-184.728
G3 X 244.842 Y 120.874 I 917.796 J-171.009
G3 X 244.055 Y 116.500 I1253.579 J-227.867
G2 X 241.503 Y 103.277 I-462.812 J  82.460
G2 X 238.756 Y  91.178 I-331.821 J  68.982
G2 X 235.733 Y  79.862 I-291.965 J  71.938
G2 X 232.351 Y  69.000 I-257.116 J  74.084
G2 X 228.162 Y  57.866 I-153.228 J  51.298
G2 X 222.721 Y  45.794 I-228.308 J  95.638
G2 X 217.152 Y  34.988 I-212.995 J 102.938
G2 X 212.833 Y  28.614 I -36.002 J  19.742
G2 X 209.021 Y  25.065 I -15.289 J  12.603
G2 X 203.960 Y  22.141 I -18.063 J  25.420
G2 X 197.016 Y  19.518 I -22.480 J  49.004
G2 X 187.217 Y  16.863 I -52.800 J 175.465
G2 X 179.749 Y  15.224 I -42.828 J 177.405
G2 X 173.533 Y  14.236 I -16.353 J  82.800
G2 X 166.594 Y  13.618 I -13.287 J 109.817
G2 X 156.500 Y  13.146 I -26.942 J 468.736
G2 X 133.836 Y  12.977 I -14.304 J 398.400
G2 X 119.428 Y  14.741 I   1.512 J  72.095
G2 X 108.603 Y  18.911 I   8.854 J  39.116
G2 X  98.422 Y  26.293 I  27.020 J  47.981
G2 X  94.371 Y  30.328 I  46.242 J  50.465
G2 X  91.550 Y  33.927 I  20.871 J  19.268
G2 X  88.709 Y  38.774 I  43.317 J  28.647
G2 X  84.078 Y  47.982 I 453.368 J 233.775
F5
G1 Z  -0.118
F15
G2 X  75.483 Y  66.081 I 719.057 J 352.569
G2 X  69.005 Y  81.070 I 323.610 J 148.749
G2 X  64.448 Y  93.278 I 217.717 J  88.225
G2 X  61.986 Y 102.500 I  65.853 J  22.522
G3 X  61.442 Y 104.980 I -53.239 J -10.364
G3 X  60.776 Y 107.472 I -56.067 J -13.667
G3 X  60.089 Y 109.645 I -48.910 J -14.265
G3 X  59.507 Y 111.000 I  -9.048 J  -3.084
G2 X  58.950 Y 112.643 I   4.939 J   2.590
G2 X  58.378 Y 116.391 I  96.396 J  16.609
G2 X  57.875 Y 120.960 I 102.929 J  13.652
G2 X  57.517 Y 126.000 I 150.855 J  13.247
G3 X  57.217 Y 130.929 I-379.411 J -20.594
G3 X  56.878 Y 135.397 I-257.239 J -17.318
G3 X  56.538 Y 139.134 I-305.563 J -25.913
G3 X  56.293 Y 140.436 I  -7.424 J  -0.721
G2 X  56.370 Y 141.024 I   0.723 J   0.204
G2 X  56.796 Y 141.156 I   0.286 J  -0.170
G2 X  57.900 Y 140.471 I  -2.255 J  -4.873
G2 X  60.029 Y 138.707 I -54.222 J -67.597
G3 X  62.261 Y 136.996 I  17.010 J  19.872
G3 X  65.578 Y 134.820 I  56.510 J  82.532
G3 X  69.301 Y 132.582 I  58.960 J  93.892
G3 X  72.906 Y 130.621 I  43.994 J  76.563
G3 X  85.463 Y 125.022 I  56.562 J 109.966
G3 X  98.645 Y 120.810 I  45.156 J 118.590
G3 X 113.927 Y 117.585 I  42.108 J 161.726
G3 X 133.000 Y 114.974 I  61.333 J 377.129
G3 X 143.504 Y 114.448 I   9.581 J  86.096
G3 X 160.134 Y 114.900 I  -5.366 J 503.710
G3 X 177.428 Y 115.959 I -21.646 J 495.230
G3 X 191.038 Y 117.511 I -15.401 J 195.450
G3 X 204.165 Y 119.793 I -41.796 J 279.343
G3 X 217.785 Y 122.786 I -65.871 J 332.288
G3 X 230.414 Y 126.120 I -71.993 J 298.233
G3 X 240.407 Y 129.429 I -36.054 J 125.644
G1 X 247.017 Y 131.917
G1 X 246.516 Y 129.708
G3 X 246.224 Y 128.307 I  39.360 J  -8.933
G3 X 245.586 Y 124.917 I 972.593 J-184.728
G3 X 244.842 Y 120.874 I 917.796 J-171.009
G3 X 244.055 Y 116.500 I1253.579 J-227.867
G2 X 241.503 Y 103.277 I-462.812 J  82.460
G2 X 238.756 Y  91.178 I-331.821 J  68.982
G2 X 235.733 Y  79.862 I-291.965 J  71.938
G2 X 232.351 Y  69.000 I-257.116 J  74.084
G2 X 228.162 Y  57.866 I-153.228 J  51.298
G2 X 222.721 Y  45.794 I-228.308 J  95.638
G2 X 217.152 Y  34.988 I-212.995 J 102.938
G2 X 212.833 Y  28.614 I -36.002 J  19.742
G2 X 209.021 Y  25.065 I -15.289 J  12.603
G2 X 203.960 Y  22.141 I -18.063 J  25.420
G2 X 197.016 Y  19.518 I -22.480 J  49.004
G2 X 187.217 Y  16.863 I -52.800 J 175.465
G2 X 179.749 Y  15.224 I -42.828 J 177.405
G2 X 173.533 Y  14.236 I -16.353 J  82.800
G2 X 166.594 Y  13.618 I -13.287 J 109.817
G2 X 156.500 Y  13.146 I -26.942 J 468.736
G2 X 133.836 Y  12.977 I -14.304 J 398.400
G2 X 119.428 Y  14.741 I   1.512 J  72.095
G2 X 108.603 Y  18.911 I   8.854 J  39.116
G2 X  98.422 Y  26.293 I  27.020 J  47.981
G2 X  94.371 Y  30.328 I  46.242 J  50.465
G2 X  91.550 Y  33.927 I  20.871 J  19.268
G2 X  88.709 Y  38.774 I  43.317 J  28.647
G2 X  84.078 Y  47.982 I 453.368 J 233.775
F5
G1 Z   0.118
G0 Z   0.591 
M9 M5

(* SHAPE Nr: 3 *)
G0 X  40.345 Y  61.255
M3 M8
G0 Z   0.118 
G1 Z  -0.059
F15
G2 X  33.241 Y  65.443 I  35.208 J  67.856
G2 X  27.621 Y  69.882 I  24.183 J  36.388
G2 X  22.794 Y  75.025 I  36.258 J  38.870
G2 X  17.408 Y  82.060 I 101.008 J  82.919
G2 X  12.637 Y  89.244 I 105.066 J  74.937
G2 X   9.899 Y  94.729 I  29.109 J  17.955
G2 X   8.791 Y  98.049 I  32.068 J  12.558
G2 X   8.097 Y 101.282 I  26.483 J   7.374
G2 X   7.716 Y 105.031 I  37.278 J   5.679
G2 X   7.570 Y 110.021 I 113.600 J   5.824
G2 X   7.616 Y 115.914 I 195.296 J   1.433
G2 X   7.969 Y 118.896 I  15.819 J  -0.361
G2 X   8.840 Y 121.315 I   9.478 J  -2.049
G2 X  10.709 Y 124.544 I  36.218 J -18.802
G2 X  13.903 Y 129.038 I  48.790 J -31.294
G2 X  16.992 Y 132.350 I  20.965 J -16.456
G2 X  20.384 Y 134.886 I  15.248 J -16.861
G2 X  24.482 Y 136.999 I  16.607 J -27.170
G2 X  29.435 Y 138.873 I  24.694 J -57.806
G2 X  33.570 Y 139.882 I   8.346 J -25.231
G2 X  37.581 Y 140.171 I   3.666 J -22.845
G2 X  42.118 Y 139.830 I  -0.563 J -37.768
G3 X  44.499 Y 139.602 I   4.006 J  29.395
G3 X  47.006 Y 139.553 I   1.964 J  35.797
G3 X  49.280 Y 139.668 I  -0.484 J  31.908
G3 X  50.868 Y 139.962 I  -0.725 J   8.359
G2 X  52.807 Y 140.453 I   8.739 J -30.472
G2 X  53.549 Y 140.331 I   0.218 J  -0.993
G2 X  53.918 Y 139.748 I  -0.396 J  -0.659
G2 X  54.000 Y 138.077 I -16.958 J  -1.671
G1 X  54.000 Y 135.293
G1 X  48.782 Y 136.646
G3 X  40.756 Y 137.920 I -10.597 J -40.853
G3 X  33.018 Y 137.532 I  -2.129 J -34.885
G3 X  25.962 Y 135.510 I   5.007 J -30.794
G3 X  19.947 Y 131.958 I   9.929 J -23.683
G3 X  16.439 Y 128.697 I  18.814 J -23.755
G3 X  13.464 Y 124.904 I  22.907 J -21.031
G3 X  11.531 Y 121.453 I  21.432 J -14.274
G3 X  11.830 Y 119.770 I   1.355 J  -0.627
G3 X  12.433 Y 119.609 I   0.441 J   0.441
G3 X  13.209 Y 120.016 I  -0.521 J   1.935
G3 X  14.174 Y 121.046 I  -4.017 J   4.731
G3 X  15.345 Y 122.755 I -21.929 J  16.291
G2 X  18.143 Y 126.435 I  22.531 J -14.223
G2 X  21.702 Y 129.830 I  25.249 J -22.907
G2 X  25.500 Y 132.512 I  19.791 J -23.999
G2 X  29.000 Y 134.015 I   7.313 J -12.200
G2 X  33.387 Y 134.753 I   5.700 J -20.486
G2 X  39.675 Y 134.899 I   5.037 J -81.421
G2 X  45.896 Y 134.567 I  -1.259 J -82.112
G2 X  49.960 Y 133.694 I  -1.575 J -17.217
G2 X  52.303 Y 132.351 I  -2.354 J  -6.824
G2 X  53.706 Y 130.350 I  -3.206 J  -3.741
G2 X  54.547 Y 126.876 I -13.557 J  -5.120
G2 X  55.226 Y 119.750 I-189.298 J -21.631
G2 X  55.327 Y 115.498 I -40.480 J  -3.091
G2 X  54.455 Y 113.977 I  -1.856 J   0.053
G2 X  53.105 Y 114.229 I  -0.538 J   0.861
G2 X  51.203 Y 117.235 I  17.967 J  13.467
G3 X  48.458 Y 121.492 I -25.448 J -13.399
G3 X  45.152 Y 124.926 I -17.867 J -13.895
G3 X  41.514 Y 127.324 I -12.113 J -14.416
G3 X  37.785 Y 128.509 I  -5.560 J -11.032
G3 X  27.786 Y 126.851 I  -2.439 J -16.267
G3 X  21.358 Y 119.704 I   6.258 J -12.092
G3 X  20.111 Y 108.026 I  20.869 J  -8.135
G3 X  24.473 Y  94.357 I  47.376 J   7.589
G3 X  26.735 Y  90.187 I  56.050 J  27.702
G3 X  28.879 Y  87.128 I  21.004 J  12.445
G3 X  31.585 Y  84.272 I  21.643 J  17.792
G3 X  35.704 Y  80.696 I  67.771 J  73.895
G3 X  42.456 Y  75.515 I  81.043 J  98.637
G3 X  49.029 Y  71.222 I  53.856 J  75.261
G3 X  55.765 Y  67.607 I  44.640 J  75.107
G3 X  63.007 Y  64.469 I  43.039 J  89.388
G2 X  68.505 Y  62.205 I -50.051 J-129.369
G2 X  72.913 Y  60.075 I -25.708 J -58.825
G2 X  75.354 Y  58.550 I  -9.646 J -18.159
G2 X  75.177 Y  58.004 I  -0.178 J  -0.244
G2 X  70.845 Y  58.554 I  -0.048 J  16.942
G2 X  62.838 Y  60.837 I  47.631 J 182.228
G2 X  54.609 Y  63.615 I  49.904 J 161.404
G2 X  48.500 Y  66.252 I  20.395 J  55.650
G2 X  41.075 Y  70.211 I  71.774 J 143.563
G2 X  33.742 Y  74.616 I  84.592 J 149.110
G2 X  27.396 Y  78.880 I  79.934 J 125.828
G2 X  23.265 Y  82.283 I  21.578 J  30.402
G3 X  21.059 Y  84.105 I -13.982 J -14.684
G3 X  19.493 Y  84.587 I  -1.508 J  -2.114
G3 X  18.946 Y  83.905 I   0.013 J  -0.571
G3 X  19.610 Y  82.202 I   5.114 J   1.013
G3 X  22.035 Y  79.594 I   7.618 J   4.651
G3 X  29.865 Y  74.178 I 174.575 J 244.032
G3 X  38.432 Y  68.738 I 119.906 J 179.378
G3 X  46.000 Y  64.561 I  58.886 J  97.747
G3 X  52.747 Y  61.361 I  71.500 J 142.011
G3 X  58.562 Y  59.039 I  32.210 J  72.232
G3 X  64.342 Y  57.259 I  24.306 J  68.655
G3 X  70.959 Y  55.725 I  29.393 J 111.750
G1 X  77.417 Y  54.427
G1 X  80.628 Y  48.488
G2 X  81.824 Y  46.156 I -52.771 J -28.533
G2 X  82.755 Y  44.066 I -31.455 J -15.272
G2 X  83.419 Y  42.324 I -38.199 J -15.548
G2 X  83.361 Y  41.775 I  -0.601 J  -0.214
G2 X  82.968 Y  41.473 I  -0.594 J   0.367
G2 X  81.967 Y  41.228 I  -2.836 J   9.399
G2 X  80.700 Y  41.057 I  -2.217 J  11.655
G2 X  79.290 Y  41.000 I  -1.411 J  17.556
G2 X  77.180 Y  41.253 I  -0.000 J   8.938
G2 X  75.378 Y  41.997 I   1.505 J   6.194
G2 X  73.368 Y  43.510 I   6.543 J  10.784
G2 X  70.372 Y  46.411 I  58.608 J  63.528
G3 X  67.338 Y  49.273 I -40.077 J -39.442
G3 X  64.764 Y  51.185 I -13.194 J -15.068
G3 X  61.974 Y  52.624 I -10.051 J -16.071
G3 X  58.274 Y  53.977 I -17.779 J -42.872
G2 X  48.741 Y  57.403 I  41.775 J 131.231
G2 X  40.345 Y  61.255 I  35.540 J  88.528
F5
G1 Z  -0.118
F15
G2 X  33.241 Y  65.443 I  35.208 J  67.856
G2 X  27.621 Y  69.882 I  24.183 J  36.388
G2 X  22.794 Y  75.025 I  36.258 J  38.870
G2 X  17.408 Y  82.060 I 101.008 J  82.919
G2 X  12.637 Y  89.244 I 105.066 J  74.937
G2 X   9.899 Y  94.729 I  29.109 J  17.955
G2 X   8.791 Y  98.049 I  32.068 J  12.558
G2 X   8.097 Y 101.282 I  26.483 J   7.374
G2 X   7.716 Y 105.031 I  37.278 J   5.679
G2 X   7.570 Y 110.021 I 113.600 J   5.824
G2 X   7.616 Y 115.914 I 195.296 J   1.433
G2 X   7.969 Y 118.896 I  15.819 J  -0.361
G2 X   8.840 Y 121.315 I   9.478 J  -2.049
G2 X  10.709 Y 124.544 I  36.218 J -18.802
G2 X  13.903 Y 129.038 I  48.790 J -31.294
G2 X  16.992 Y 132.350 I  20.965 J -16.456
G2 X  20.384 Y 134.886 I  15.248 J -16.861
G2 X  24.482 Y 136.999 I  16.607 J -27.170
G2 X  29.435 Y 138.873 I  24.694 J -57.806
G2 X  33.570 Y 139.882 I   8.346 J -25.231
G2 X  37.581 Y 140.171 I   3.666 J -22.845
G2 X  42.118 Y 139.830 I  -0.563 J -37.768
G3 X  44.499 Y 139.602 I   4.006 J  29.395
G3 X  47.006 Y 139.553 I   1.964 J  35.797
G3 X  49.280 Y 139.668 I  -0.484 J  31.908
G3 X  50.868 Y 139.962 I  -0.725 J   8.359
G2 X  52.807 Y 140.453 I   8.739 J -30.472
G2 X  53.549 Y 140.331 I   0.218 J  -0.993
G2 X  53.918 Y 139.748 I  -0.396 J  -0.659
G2 X  54.000 Y 138.077 I -16.958 J  -1.671
G1 X  54.000 Y 135.293
G1 X  48.782 Y 136.646
G3 X  40.756 Y 137.920 I -10.597 J -40.853
G3 X  33.018 Y 137.532 I  -2.129 J -34.885
G3 X  25.962 Y 135.510 I   5.007 J -30.794
G3 X  19.947 Y 131.958 I   9.929 J -23.683
G3 X  16.439 Y 128.697 I  18.814 J -23.755
G3 X  13.464 Y 124.904 I  22.907 J -21.031
G3 X  11.531 Y 121.453 I  21.432 J -14.274
G3 X  11.830 Y 119.770 I   1.355 J  -0.627
G3 X  12.433 Y 119.609 I   0.441 J   0.441
G3 X  13.209 Y 120.016 I  -0.521 J   1.935
G3 X  14.174 Y 121.046 I  -4.017 J   4.731
G3 X  15.345 Y 122.755 I -21.929 J  16.291
G2 X  18.143 Y 126.435 I  22.531 J -14.223
G2 X  21.702 Y 129.830 I  25.249 J -22.907
G2 X  25.500 Y 132.512 I  19.791 J -23.999
G2 X  29.000 Y 134.015 I   7.313 J -12.200
G2 X  33.387 Y 134.753 I   5.700 J -20.486
G2 X  39.675 Y 134.899 I   5.037 J -81.421
G2 X  45.896 Y 134.567 I  -1.259 J -82.112
G2 X  49.960 Y 133.694 I  -1.575 J -17.217
G2 X  52.303 Y 132.351 I  -2.354 J  -6.824
G2 X  53.706 Y 130.350 I  -3.206 J  -3.741
G2 X  54.547 Y 126.876 I -13.557 J  -5.120
G2 X  55.226 Y 119.750 I-189.298 J -21.631
G2 X  55.327 Y 115.498 I -40.480 J  -3.091
G2 X  54.455 Y 113.977 I  -1.856 J   0.053
G2 X  53.105 Y 114.229 I  -0.538 J   0.861
G2 X  51.203 Y 117.235 I  17.967 J  13.467
G3 X  48.458 Y 121.492 I -25.448 J -13.399
G3 X  45.152 Y 124.926 I -17.867 J -13.895
G3 X  41.514 Y 127.324 I -12.113 J -14.416
G3 X  37.785 Y 128.509 I  -5.560 J -11.032
G3 X  27.786 Y 126.851 I  -2.439 J -16.267
G3 X  21.358 Y 119.704 I   6.258 J -12.092
G3 X  20.111 Y 108.026 I  20.869 J  -8.135
G3 X  24.473 Y  94.357 I  47.376 J   7.589
G3 X  26.735 Y  90.187 I  56.050 J  27.702
G3 X  28.879 Y  87.128 I  21.004 J  12.445
G3 X  31.585 Y  84.272 I  21.643 J  17.792
G3 X  35.704 Y  80.696 I  67.771 J  73.895
G3 X  42.456 Y  75.515 I  81.043 J  98.637
G3 X  49.029 Y  71.222 I  53.856 J  75.261
G3 X  55.765 Y  67.607 I  44.640 J  75.107
G3 X  63.007 Y  64.469 I  43.039 J  89.388
G2 X  68.505 Y  62.205 I -50.051 J-129.369
G2 X  72.913 Y  60.075 I -25.708 J -58.825
G2 X  75.354 Y  58.550 I  -9.646 J -18.159
G2 X  75.177 Y  58.004 I  -0.178 J  -0.244
G2 X  70.845 Y  58.554 I  -0.048 J  16.942
G2 X  62.838 Y  60.837 I  47.631 J 182.228
G2 X  54.609 Y  63.615 I  49.904 J 161.404
G2 X  48.500 Y  66.252 I  20.395 J  55.650
G2 X  41.075 Y  70.211 I  71.774 J 143.563
G2 X  33.742 Y  74.616 I  84.592 J 149.110
G2 X  27.396 Y  78.880 I  79.934 J 125.828
G2 X  23.265 Y  82.283 I  21.578 J  30.402
G3 X  21.059 Y  84.105 I -13.982 J -14.684
G3 X  19.493 Y  84.587 I  -1.508 J  -2.114
G3 X  18.946 Y  83.905 I   0.013 J  -0.571
G3 X  19.610 Y  82.202 I   5.114 J   1.013
G3 X  22.035 Y  79.594 I   7.618 J   4.651
G3 X  29.865 Y  74.178 I 174.575 J 244.032
G3 X  38.432 Y  68.738 I 119.906 J 179.378
G3 X  46.000 Y  64.561 I  58.886 J  97.747
G3 X  52.747 Y  61.361 I  71.500 J 142.011
G3 X  58.562 Y  59.039 I  32.210 J  72.232
G3 X  64.342 Y  57.259 I  24.306 J  68.655
G3 X  70.959 Y  55.725 I  29.393 J 111.750
G1 X  77.417 Y  54.427
G1 X  80.628 Y  48.488
G2 X  81.824 Y  46.156 I -52.771 J -28.533
G2 X  82.755 Y  44.066 I -31.455 J -15.272
G2 X  83.419 Y  42.324 I -38.199 J -15.548
G2 X  83.361 Y  41.775 I  -0.601 J  -0.214
G2 X  82.968 Y  41.473 I  -0.594 J   0.367
G2 X  81.967 Y  41.228 I  -2.836 J   9.399
G2 X  80.700 Y  41.057 I  -2.217 J  11.655
G2 X  79.290 Y  41.000 I  -1.411 J  17.556
G2 X  77.180 Y  41.253 I  -0.000 J   8.938
G2 X  75.378 Y  41.997 I   1.505 J   6.194
G2 X  73.368 Y  43.510 I   6.543 J  10.784
G2 X  70.372 Y  46.411 I  58.608 J  63.528
G3 X  67.338 Y  49.273 I -40.077 J -39.442
G3 X  64.764 Y  51.185 I -13.194 J -15.068
G3 X  61.974 Y  52.624 I -10.051 J -16.071
G3 X  58.274 Y  53.977 I -17.779 J -42.872
G2 X  48.741 Y  57.403 I  41.775 J 131.231
G2 X  40.345 Y  61.255 I  35.540 J  88.528
F5
G1 Z   0.118
G0 Z   0.591 
M9 M5
G0 X   0.000 Y   0.000
M2 (Program end)