(Generated with: DXF2GCODE, Version: PyQt5 Beta, Date: $Date: Sun Oct 4 21:49:52 2015 +0200 $)
(Created from file: C:/Users/jpflueger/Downloads/Result/deadpoolLogo.dxf)
(Time: Sat Feb 20 11:50:32 2016)
G20 (Units in inches)  G90 (Absolute programming) G64 (Default cutting) G17 (XY plane) G40 (Cancel radius comp.) G49 (Cancel length comp.)
G0 Z   0.591 

(*** LAYER: 0 ***)
T1 M6
S6000

(* SHAPE Nr: 1 *)
G0 X  55.624 Y  29.291
M3 M8
G0 Z   0.118 
F5
G1 Z  -0.059
F15
G2 X  23.352 Y  64.480 I  72.240 J  98.645
G2 X   7.026 Y 109.336 I 104.427 J  63.405
G2 X   9.114 Y 157.065 I 121.151 J  18.611
G2 X  29.291 Y 200.376 I 119.091 J -29.126
G2 X  64.480 Y 232.648 I  98.645 J -72.240
G2 X  85.001 Y 242.661 I  64.682 J-106.530
G2 X 106.768 Y 248.620 I  42.151 J-111.239
G2 X 129.335 Y 250.373 I  20.515 J-117.947
G2 X 152.234 Y 247.912 I  -2.198 J-128.192
G2 X 181.455 Y 238.084 I -23.744 J-118.956
G2 X 207.369 Y 221.181 I -53.704 J-110.651
G2 X 228.249 Y 198.343 I -79.648 J -93.784
G2 X 242.691 Y 171.089 I -99.265 J -70.054
G2 X 250.447 Y 129.766 I-113.343 J -42.662
G2 X 243.669 Y  88.083 I-123.186 J  -1.362
G2 X 223.204 Y  51.108 I-116.596 J  40.385
G2 X 191.520 Y  23.352 I -94.912 J  76.380
G2 X 146.664 Y   7.026 I -63.405 J 104.427
G2 X  98.935 Y   9.114 I -18.611 J 121.151
G2 X  55.624 Y  29.291 I  29.126 J 119.091
F5
G1 Z  -0.118
F15
G2 X  23.352 Y  64.480 I  72.240 J  98.645
G2 X   7.026 Y 109.336 I 104.427 J  63.405
G2 X   9.114 Y 157.065 I 121.151 J  18.611
G2 X  29.291 Y 200.376 I 119.091 J -29.126
G2 X  64.480 Y 232.648 I  98.645 J -72.240
G2 X  85.001 Y 242.661 I  64.682 J-106.530
G2 X 106.768 Y 248.620 I  42.151 J-111.239
G2 X 129.335 Y 250.373 I  20.515 J-117.947
G2 X 152.234 Y 247.912 I  -2.198 J-128.192
G2 X 181.455 Y 238.084 I -23.744 J-118.956
G2 X 207.369 Y 221.181 I -53.704 J-110.651
G2 X 228.249 Y 198.343 I -79.648 J -93.784
G2 X 242.691 Y 171.089 I -99.265 J -70.054
G2 X 250.447 Y 129.766 I-113.343 J -42.662
G2 X 243.669 Y  88.083 I-123.186 J  -1.362
G2 X 223.204 Y  51.108 I-116.596 J  40.385
G2 X 191.520 Y  23.352 I -94.912 J  76.380
G2 X 146.664 Y   7.026 I -63.405 J 104.427
G2 X  98.935 Y   9.114 I -18.611 J 121.151
G2 X  55.624 Y  29.291 I  29.126 J 119.091
F5
G1 Z   0.118
G0 Z   0.591 
M9 M5

(* SHAPE Nr: 3 *)
G0 X  54.200 Y  57.405
M3 M8
G0 Z   0.118 
G1 Z  -0.059
F15
G2 X  43.340 Y  70.842 I  71.899 J  69.213
G2 X  34.880 Y  86.068 I  84.204 J  56.749
G2 X  28.831 Y 103.000 I 105.096 J  47.094
G2 X  27.616 Y 108.211 I  71.857 J  19.500
G2 X  26.938 Y 112.935 I  46.343 J   9.062
G2 X  26.614 Y 118.743 I  79.808 J   7.364
G2 X  26.524 Y 128.000 I 476.816 J   9.257
G2 X  26.614 Y 137.257 I 476.906 J   0.000
G2 X  26.938 Y 143.065 I  80.132 J  -1.556
G2 X  27.616 Y 147.789 I  47.021 J  -4.339
G2 X  28.831 Y 153.000 I  73.072 J -14.289
G2 X  33.360 Y 166.534 I 118.839 J -32.250
G2 X  39.187 Y 178.542 I  87.540 J -35.062
G2 X  46.615 Y 189.543 I  80.734 J -46.506
G2 X  55.939 Y 200.061 I  92.063 J -72.221
G2 X  63.270 Y 206.824 I  87.662 J -87.661
G2 X  70.719 Y 212.569 I  63.600 J -74.759
G2 X  78.477 Y 217.429 I  53.016 J -76.009
G2 X  86.732 Y 221.538 I  46.599 J -83.263
G2 X  92.452 Y 223.815 I  35.574 J -81.062
G2 X  96.455 Y 224.769 I   6.317 J -17.634
G2 X  99.715 Y 224.658 I   1.283 J -10.304
G2 X 102.901 Y 223.551 I  -2.256 J -11.632
G2 X 106.704 Y 219.244 I  -3.648 J  -7.054
G2 X 108.380 Y 211.322 I -26.338 J  -9.709
G2 X 108.932 Y 194.554 I-271.616 J -17.326
G1 X 109.000 Y 127.940
G1 X 108.963 Y  69.638
G2 X 108.736 Y  50.088 I-946.165 J   1.196
G2 X 108.281 Y  39.623 I-242.748 J   5.324
G2 X 106.983 Y  35.976 I  -7.065 J   0.460
G2 X 104.751 Y  33.773 I  -7.419 J   5.283
G2 X 101.614 Y  32.119 I  -8.374 J  12.087
G2 X  98.136 Y  31.252 I  -5.340 J  14.012
G2 X  94.898 Y  31.370 I  -1.256 J  10.030
G2 X  89.836 Y  32.997 I   4.604 J  23.018
G2 X  82.105 Y  36.766 I  60.604 J 134.125
G2 X  74.040 Y  41.317 I  69.521 J 132.617
G2 X  67.385 Y  45.793 I  43.826 J  72.341
G2 X  54.200 Y  57.405 I  63.670 J  85.596
F5
G1 Z  -0.118
F15
G2 X  43.340 Y  70.842 I  71.899 J  69.213
G2 X  34.880 Y  86.068 I  84.204 J  56.749
G2 X  28.831 Y 103.000 I 105.096 J  47.094
G2 X  27.616 Y 108.211 I  71.857 J  19.500
G2 X  26.938 Y 112.935 I  46.343 J   9.062
G2 X  26.614 Y 118.743 I  79.808 J   7.364
G2 X  26.524 Y 128.000 I 476.816 J   9.257
G2 X  26.614 Y 137.257 I 476.906 J   0.000
G2 X  26.938 Y 143.065 I  80.132 J  -1.556
G2 X  27.616 Y 147.789 I  47.021 J  -4.339
G2 X  28.831 Y 153.000 I  73.072 J -14.289
G2 X  33.360 Y 166.534 I 118.839 J -32.250
G2 X  39.187 Y 178.542 I  87.540 J -35.062
G2 X  46.615 Y 189.543 I  80.734 J -46.506
G2 X  55.939 Y 200.061 I  92.063 J -72.221
G2 X  63.270 Y 206.824 I  87.662 J -87.661
G2 X  70.719 Y 212.569 I  63.600 J -74.759
G2 X  78.477 Y 217.429 I  53.016 J -76.009
G2 X  86.732 Y 221.538 I  46.599 J -83.263
G2 X  92.452 Y 223.815 I  35.574 J -81.062
G2 X  96.455 Y 224.769 I   6.317 J -17.634
G2 X  99.715 Y 224.658 I   1.283 J -10.304
G2 X 102.901 Y 223.551 I  -2.256 J -11.632
G2 X 106.704 Y 219.244 I  -3.648 J  -7.054
G2 X 108.380 Y 211.322 I -26.338 J  -9.709
G2 X 108.932 Y 194.554 I-271.616 J -17.326
G1 X 109.000 Y 127.940
G1 X 108.963 Y  69.638
G2 X 108.736 Y  50.088 I-946.165 J   1.196
G2 X 108.281 Y  39.623 I-242.748 J   5.324
G2 X 106.983 Y  35.976 I  -7.065 J   0.460
G2 X 104.751 Y  33.773 I  -7.419 J   5.283
G2 X 101.614 Y  32.119 I  -8.374 J  12.087
G2 X  98.136 Y  31.252 I  -5.340 J  14.012
G2 X  94.898 Y  31.370 I  -1.256 J  10.030
G2 X  89.836 Y  32.997 I   4.604 J  23.018
G2 X  82.105 Y  36.766 I  60.604 J 134.125
G2 X  74.040 Y  41.317 I  69.521 J 132.617
G2 X  67.385 Y  45.793 I  43.826 J  72.341
G2 X  54.200 Y  57.405 I  63.670 J  85.596
F5
G1 Z   0.118
G0 Z   0.591 
M9 M5

(* SHAPE Nr: 5 *)
G0 X 149.528 Y  36.468
M3 M8
G0 Z   0.118 
G1 Z  -0.059
F15
G2 X 147.667 Y  44.155 I  21.748 J   9.334
G2 X 147.072 Y  60.719 I 244.960 J  17.090
G1 X 147.000 Y 128.000
G1 X 147.067 Y 194.293
G2 X 147.604 Y 211.163 I 283.230 J  -0.575
G2 X 149.214 Y 219.171 I  29.902 J  -1.845
G2 X 152.893 Y 223.503 I   7.443 J  -2.592
G2 X 156.022 Y 224.630 I   5.245 J  -9.649
G2 X 159.314 Y 224.755 I   2.041 J -10.394
G2 X 163.381 Y 223.813 I  -2.262 J -19.022
G2 X 169.102 Y 221.575 I -28.134 J -80.360
G2 X 177.397 Y 217.486 I -37.499 J -86.531
G2 X 185.190 Y 212.631 I -44.478 J -80.071
G2 X 192.678 Y 206.869 I -55.529 J -79.904
G2 X 200.061 Y 200.061 I -80.379 J -94.570
G2 X 209.340 Y 189.578 I -81.442 J -81.442
G2 X 216.782 Y 178.538 I -74.271 J -58.092
G2 X 222.616 Y 166.524 I -82.271 J -47.374
G2 X 227.086 Y 153.127 I-110.070 J -44.176
G2 X 228.740 Y 144.582 I -58.968 J -15.845
G2 X 229.677 Y 133.546 I-156.533 J -18.850
G2 X 229.840 Y 122.313 I-159.817 J  -7.931
G2 X 229.073 Y 113.088 I -74.352 J   1.535
G2 X 222.136 Y  88.441 I -98.350 J  14.381
G2 X 209.067 Y  66.004 I -96.593 J  41.240
G2 X 190.927 Y  47.506 I -83.135 J  63.380
G2 X 169.102 Y  34.425 I -60.550 J  76.279
G2 X 163.346 Y  32.095 I -50.836 J 117.309
G2 X 159.888 Y  31.224 I  -5.537 J  14.695
G2 X 157.014 Y  31.328 I  -1.132 J   8.476
G2 X 153.672 Y  32.364 I   3.742 J  17.989
G2 X 149.528 Y  36.468 I   2.995 J   7.169
F5
G1 Z  -0.118
F15
G2 X 147.667 Y  44.155 I  21.748 J   9.334
G2 X 147.072 Y  60.719 I 244.960 J  17.090
G1 X 147.000 Y 128.000
G1 X 147.067 Y 194.293
G2 X 147.604 Y 211.163 I 283.230 J  -0.575
G2 X 149.214 Y 219.171 I  29.902 J  -1.845
G2 X 152.893 Y 223.503 I   7.443 J  -2.592
G2 X 156.022 Y 224.630 I   5.245 J  -9.649
G2 X 159.314 Y 224.755 I   2.041 J -10.394
G2 X 163.381 Y 223.813 I  -2.262 J -19.022
G2 X 169.102 Y 221.575 I -28.134 J -80.360
G2 X 177.397 Y 217.486 I -37.499 J -86.531
G2 X 185.190 Y 212.631 I -44.478 J -80.071
G2 X 192.678 Y 206.869 I -55.529 J -79.904
G2 X 200.061 Y 200.061 I -80.379 J -94.570
G2 X 209.340 Y 189.578 I -81.442 J -81.442
G2 X 216.782 Y 178.538 I -74.271 J -58.092
G2 X 222.616 Y 166.524 I -82.271 J -47.374
G2 X 227.086 Y 153.127 I-110.070 J -44.176
G2 X 228.740 Y 144.582 I -58.968 J -15.845
G2 X 229.677 Y 133.546 I-156.533 J -18.850
G2 X 229.840 Y 122.313 I-159.817 J  -7.931
G2 X 229.073 Y 113.088 I -74.352 J   1.535
G2 X 222.136 Y  88.441 I -98.350 J  14.381
G2 X 209.067 Y  66.004 I -96.593 J  41.240
G2 X 190.927 Y  47.506 I -83.135 J  63.380
G2 X 169.102 Y  34.425 I -60.550 J  76.279
G2 X 163.346 Y  32.095 I -50.836 J 117.309
G2 X 159.888 Y  31.224 I  -5.537 J  14.695
G2 X 157.014 Y  31.328 I  -1.132 J   8.476
G2 X 153.672 Y  32.364 I   3.742 J  17.989
G2 X 149.528 Y  36.468 I   2.995 J   7.169
F5
G1 Z   0.118
G0 Z   0.591 
M9 M5

(* SHAPE Nr: 6 *)
G0 X  61.292 Y 109.981
M3 M8
G0 Z   0.118 
G1 Z  -0.059
F15
G2 X  56.466 Y 115.257 I  14.389 J  18.007
G2 X  51.998 Y 123.256 I  50.464 J  33.436
G2 X  49.817 Y 129.106 I  36.929 J  17.101
G2 X  47.719 Y 137.357 I 131.365 J  37.789
G2 X  46.098 Y 145.505 I 189.680 J  41.981
G2 X  46.393 Y 148.581 I   5.689 J   1.006
G2 X  46.728 Y 149.124 I   1.603 J  -0.615
G2 X  47.276 Y 149.583 I   1.986 J  -1.812
G2 X  47.945 Y 149.894 I   1.527 J  -2.413
G2 X  48.634 Y 150.000 I   0.689 J  -2.188
G2 X  50.985 Y 149.398 I   0.000 J  -4.895
G2 X  71.519 Y 138.118 I-4065.129 J-7424.032
G2 X  91.338 Y 127.130 I-2199.971 J-3991.485
G2 X  94.853 Y 124.526 I  -8.286 J -14.858
G2 X  95.641 Y 122.838 I  -1.800 J  -1.869
G2 X  95.291 Y 120.649 I  -4.874 J  -0.341
G2 X  93.675 Y 117.829 I -11.400 J   4.657
G2 X  90.636 Y 114.203 I -41.664 J  31.837
G2 X  86.738 Y 110.598 I -23.953 J  21.991
G2 X  82.642 Y 108.054 I -13.690 J  17.473
G2 X  78.273 Y 106.547 I  -8.729 J  18.214
G2 X  73.566 Y 106.022 I  -4.806 J  21.737
G2 X  66.873 Y 107.022 I  -0.099 J  22.240
G2 X  61.292 Y 109.981 I   5.048 J  16.262
F5
G1 Z  -0.118
F15
G2 X  56.466 Y 115.257 I  14.389 J  18.007
G2 X  51.998 Y 123.256 I  50.464 J  33.436
G2 X  49.817 Y 129.106 I  36.929 J  17.101
G2 X  47.719 Y 137.357 I 131.365 J  37.789
G2 X  46.098 Y 145.505 I 189.680 J  41.981
G2 X  46.393 Y 148.581 I   5.689 J   1.006
G2 X  46.728 Y 149.124 I   1.603 J  -0.615
G2 X  47.276 Y 149.583 I   1.986 J  -1.812
G2 X  47.945 Y 149.894 I   1.527 J  -2.413
G2 X  48.634 Y 150.000 I   0.689 J  -2.188
G2 X  50.985 Y 149.398 I   0.000 J  -4.895
G2 X  71.519 Y 138.118 I-4065.129 J-7424.032
G2 X  91.338 Y 127.130 I-2199.971 J-3991.485
G2 X  94.853 Y 124.526 I  -8.286 J -14.858
G2 X  95.641 Y 122.838 I  -1.800 J  -1.869
G2 X  95.291 Y 120.649 I  -4.874 J  -0.341
G2 X  93.675 Y 117.829 I -11.400 J   4.657
G2 X  90.636 Y 114.203 I -41.664 J  31.837
G2 X  86.738 Y 110.598 I -23.953 J  21.991
G2 X  82.642 Y 108.054 I -13.690 J  17.473
G2 X  78.273 Y 106.547 I  -8.729 J  18.214
G2 X  73.566 Y 106.022 I  -4.806 J  21.737
G2 X  66.873 Y 107.022 I  -0.099 J  22.240
G2 X  61.292 Y 109.981 I   5.048 J  16.262
F5
G1 Z   0.118
G0 Z   0.591 
M9 M5

(* SHAPE Nr: 8 *)
G0 X 162.325 Y 117.829
M3 M8
G0 Z   0.118 
G1 Z  -0.059
F15
G2 X 160.710 Y 120.649 I   9.787 J   7.479
G2 X 160.359 Y 122.837 I   4.522 J   1.848
G2 X 161.147 Y 124.524 I   2.585 J  -0.181
G2 X 162.244 Y 125.358 I   4.123 J  -4.286
G2 X 168.418 Y 128.988 I 822.318 J-1391.321
G2 X 175.663 Y 133.175 I 395.055 J-675.230
G2 X 184.000 Y 137.895 I 664.773 J-1164.637
G2 X 192.369 Y 142.521 I 361.072 J-643.203
G2 X 199.708 Y 146.424 I 201.924 J-370.885
G2 X 206.031 Y 149.675 I 415.352 J-800.004
G2 X 207.281 Y 149.982 I   1.279 J  -2.512
G2 X 208.831 Y 149.350 I   0.022 J  -2.164
G2 X 209.598 Y 147.749 I  -1.878 J  -1.884
G2 X 209.537 Y 144.565 I -12.642 J  -1.348
G2 X 208.514 Y 138.423 I-152.701 J  22.279
G2 X 205.789 Y 127.870 I -79.481 J  14.893
G2 X 201.867 Y 118.946 I -49.317 J  16.350
G2 X 197.044 Y 112.159 I -33.164 J  18.464
G2 X 191.604 Y 108.050 I -13.063 J  11.639
G2 X 184.887 Y 106.101 I  -9.092 J  18.781
G2 X 177.958 Y 106.504 I  -2.305 J  20.122
G2 X 171.296 Y 109.276 I   5.047 J  21.522
G2 X 165.364 Y 114.203 I  15.182 J  24.312
G2 X 162.325 Y 117.829 I  38.624 J  35.461
F5
G1 Z  -0.118
F15
G2 X 160.710 Y 120.649 I   9.787 J   7.479
G2 X 160.359 Y 122.837 I   4.522 J   1.848
G2 X 161.147 Y 124.524 I   2.585 J  -0.181
G2 X 162.244 Y 125.358 I   4.123 J  -4.286
G2 X 168.418 Y 128.988 I 822.318 J-1391.321
G2 X 175.663 Y 133.175 I 395.055 J-675.230
G2 X 184.000 Y 137.895 I 664.773 J-1164.637
G2 X 192.369 Y 142.521 I 361.072 J-643.203
G2 X 199.708 Y 146.424 I 201.924 J-370.885
G2 X 206.031 Y 149.675 I 415.352 J-800.004
G2 X 207.281 Y 149.982 I   1.279 J  -2.512
G2 X 208.831 Y 149.350 I   0.022 J  -2.164
G2 X 209.598 Y 147.749 I  -1.878 J  -1.884
G2 X 209.537 Y 144.565 I -12.642 J  -1.348
G2 X 208.514 Y 138.423 I-152.701 J  22.279
G2 X 205.789 Y 127.870 I -79.481 J  14.893
G2 X 201.867 Y 118.946 I -49.317 J  16.350
G2 X 197.044 Y 112.159 I -33.164 J  18.464
G2 X 191.604 Y 108.050 I -13.063 J  11.639
G2 X 184.887 Y 106.101 I  -9.092 J  18.781
G2 X 177.958 Y 106.504 I  -2.305 J  20.122
G2 X 171.296 Y 109.276 I   5.047 J  21.522
G2 X 165.364 Y 114.203 I  15.182 J  24.312
G2 X 162.325 Y 117.829 I  38.624 J  35.461
F5
G1 Z   0.118
G0 Z   0.591 
M9 M5
G0 X   0.000 Y   0.000
M2 (Program end)