(Generated with: DXF2GCODE, Version: PyQt5 Beta, Date: $Date: Sun Oct 4 21:49:52 2015 +0200 $)
(Created from file: C:/Users/jpflueger/Downloads/Result/dolphin.dxf)
(Time: Sat Feb 20 14:49:15 2016)
G20 (Units in inches)  G90 (Absolute programming) G64 (Default cutting) G17 (XY plane) G40 (Cancel radius comp.) G49 (Cancel length comp.)
G0 Z   0.591 

(*** LAYER: 0 ***)
T1 M6
S6000

(* SHAPE Nr: 0 *)
G0 X   7.670 Y   6.492
M3 M8
G0 Z   0.118 
F5
G1 Z  -0.059
F15
G2 X   7.105 Y   9.573 I   3.343 J   2.205
G2 X   8.919 Y  15.941 I  56.758 J -12.727
G2 X  11.621 Y  23.051 I 125.721 J -43.693
G2 X  14.452 Y  29.187 I  76.810 J -31.720
G2 X  17.708 Y  34.943 I  70.447 J -36.049
G2 X  21.691 Y  40.899 I  92.450 J -57.521
G1 X  27.000 Y  48.298
G1 X  27.000 Y  58.084
G2 X  27.408 Y  67.096 I  99.730 J  -0.000
G2 X  28.642 Y  75.072 I  63.788 J  -5.788
G2 X  31.004 Y  83.527 I  76.905 J -16.921
G2 X  34.935 Y  94.146 I 202.944 J -69.089
G3 X  36.876 Y  99.043 I-706.181 J 282.837
G3 X  38.512 Y 103.277 I-392.001 J 153.862
G3 X  39.908 Y 106.968 I-1185.070 J 450.466
G3 X  40.000 Y 107.472 I  -1.339 J   0.504
G2 X  40.349 Y 108.754 I   2.527 J   0.000
G2 X  44.504 Y 115.750 I 944.922 J-556.349
G2 X  48.710 Y 122.591 I 294.154 J-176.144
G2 X  52.281 Y 127.980 I 122.936 J -77.585
G2 X  55.290 Y 132.040 I  68.321 J -47.491
G2 X  59.201 Y 136.829 I 145.107 J-114.536
G2 X  63.658 Y 141.938 I 164.923 J-139.375
G2 X  68.354 Y 147.000 I 172.669 J-155.471
G3 X  72.295 Y 151.535 I -45.882 J  43.850
G3 X  74.952 Y 155.596 I -21.471 J  16.943
G3 X  76.482 Y 159.413 I -16.668 J   8.899
G3 X  77.000 Y 163.193 I -13.535 J   3.779
G3 X  76.828 Y 166.111 I -24.886 J   0.000
G3 X  76.263 Y 168.091 I  -6.395 J  -0.755
G3 X  75.026 Y 170.032 I  -8.129 J  -3.814
G3 X  72.395 Y 173.009 I -54.213 J -45.273
G3 X  70.489 Y 174.939 I -36.518 J -34.158
G3 X  68.569 Y 176.668 I -28.473 J -29.688
G3 X  66.865 Y 178.023 I -23.666 J -28.000
G3 X  65.837 Y 178.552 I  -2.078 J  -2.778
G2 X  64.348 Y 179.731 I   0.810 J   2.551
G2 X  64.173 Y 181.485 I   1.783 J   1.064
G2 X  65.526 Y 183.361 I   3.863 J  -1.361
G2 X  68.000 Y 184.694 I   5.227 J  -6.741
G2 X  74.790 Y 185.798 I   6.661 J -19.533
G2 X  83.521 Y 185.018 I  -0.331 J -52.973
G2 X  93.561 Y 182.524 I -12.378 J -71.293
G2 X 104.379 Y 178.377 I -35.165 J-107.921
G3 X 111.775 Y 175.441 I  41.102 J  92.757
G3 X 117.114 Y 174.226 I   7.936 J  22.532
G3 X 122.880 Y 174.197 I   3.025 J  27.653
G3 X 132.000 Y 175.356 I -16.333 J 164.940
G2 X 141.857 Y 176.273 I  12.385 J -79.694
G2 X 156.955 Y 176.469 I  12.879 J-410.717
G2 X 171.896 Y 176.129 I  -2.325 J-430.514
G2 X 180.500 Y 175.094 I  -2.186 J -54.473
G2 X 190.389 Y 172.666 I -24.277 J-120.229
G2 X 200.477 Y 169.336 I -40.477 J-139.563
G2 X 209.647 Y 165.531 I -45.538 J-122.686
G2 X 216.650 Y 161.676 I -23.274 J -50.575
G2 X 221.849 Y 157.981 I -40.475 J -62.457
G2 X 226.196 Y 154.181 I -30.748 J -39.560
G2 X 230.314 Y 149.683 I -39.949 J -40.704
G2 X 234.834 Y 143.829 I -94.602 J -77.728
G3 X 236.842 Y 141.322 I  27.081 J  19.636
G3 X 239.509 Y 138.462 I  54.618 J  48.237
G3 X 242.366 Y 135.708 I  52.942 J  52.072
G3 X 244.973 Y 133.521 I  27.207 J  29.782
G2 X 248.156 Y 130.952 I -53.819 J -69.941
G2 X 249.851 Y 129.202 I  -7.945 J  -9.391
G2 X 250.705 Y 127.653 I  -4.179 J  -3.312
G2 X 251.000 Y 125.917 I  -4.954 J  -1.736
G2 X 250.346 Y 123.449 I  -4.981 J  -0.000
G2 X 248.604 Y 121.989 I  -2.842 J   1.621
G2 X 245.672 Y 121.666 I  -2.145 J   6.008
G2 X 241.538 Y 122.539 I   3.094 J  24.888
G3 X 235.158 Y 123.929 I -12.116 J -40.257
G3 X 225.548 Y 125.007 I -26.213 J-190.331
G3 X 214.295 Y 125.713 I -20.423 J-235.451
G3 X 202.421 Y 125.932 I -11.289 J-290.702
G1 X 188.342 Y 125.903
G1 X 180.907 Y 118.612
G2 X 175.033 Y 113.459 I -49.207 J  50.173
G2 X 169.624 Y 110.035 I -19.743 J  25.207
G2 X 163.595 Y 107.729 I -14.640 J  29.242
G2 X 155.787 Y 106.035 I -19.936 J  73.040
G2 X 149.530 Y 105.184 I -19.753 J 121.726
G2 X 145.373 Y 105.079 I  -2.700 J  24.520
G2 X 142.516 Y 105.644 I   0.634 J  10.704
G2 X 140.557 Y 106.937 I   1.533 J   4.454
G2 X 139.481 Y 108.548 I   4.921 J   4.454
G2 X 139.513 Y 109.793 I   1.247 J   0.591
G2 X 140.608 Y 110.767 I   1.883 J  -1.016
G2 X 143.020 Y 111.504 I   5.777 J -14.586
G3 X 144.128 Y 111.825 I  -1.895 J   8.629
G3 X 144.966 Y 112.246 I  -1.338 J   3.701
G3 X 145.424 Y 112.695 I  -0.940 J   1.417
G3 X 145.434 Y 113.106 I  -0.308 J   0.213
G2 X 145.267 Y 113.453 I   1.574 J   0.973
G2 X 145.265 Y 113.705 I   0.360 J   0.129
G2 X 145.410 Y 113.831 I   0.180 J  -0.061
G2 X 145.676 Y 113.819 I   0.109 J  -0.575
G3 X 146.995 Y 113.928 I   0.513 J   1.837
G3 X 149.681 Y 115.318 I -15.478 J  33.186
G3 X 152.374 Y 117.047 I -15.376 J  26.915
G3 X 154.238 Y 118.711 I  -6.854 J   9.554
G3 X 154.921 Y 119.737 I  -3.096 J   2.802
G3 X 154.667 Y 120.153 I  -0.264 J   0.124
G3 X 153.222 Y 120.035 I  -0.210 J  -6.354
G3 X 147.736 Y 118.926 I 134.088 J-677.134
G3 X 143.506 Y 117.998 I  35.754 J-173.174
G3 X 137.235 Y 116.517 I 186.413 J-803.044
G3 X 130.263 Y 114.812 I 215.084 J-894.748
G3 X 123.553 Y 113.113 I 192.056 J-772.390
G2 X 117.277 Y 111.537 I-124.812 J 483.941
G2 X 111.614 Y 110.208 I -77.488 J 317.386
G2 X 106.848 Y 109.163 I -92.927 J 412.350
G2 X 105.303 Y 109.000 I  -1.545 J   7.243
G3 X 104.421 Y 108.922 I  -0.000 J  -5.035
G3 X 103.677 Y 108.689 I   0.538 J  -3.022
G3 X 103.173 Y 108.346 I   0.767 J  -1.668
G3 X 103.000 Y 107.941 I   0.388 J  -0.405
G2 X 102.931 Y 107.580 I  -0.979 J  -0.000
G2 X 102.735 Y 107.357 I  -0.411 J   0.163
G2 X 102.443 Y 107.308 I  -0.215 J   0.386
G2 X 102.099 Y 107.439 I   0.172 J   0.966
G3 X  99.773 Y 107.614 I  -1.331 J  -2.154
G3 X  92.971 Y 104.488 I  53.880 J-126.199
G3 X  85.692 Y 100.512 I  43.873 J -88.982
G3 X  79.327 Y  96.211 I  37.702 J -62.655
G3 X  73.702 Y  91.552 I  48.957 J -64.829
G3 X  69.767 Y  87.290 I  22.033 J -24.288
G3 X  65.042 Y  80.638 I  82.291 J -63.465
G3 X  53.000 Y  62.074 I3127.624 J-2041.990
G3 X  50.527 Y  58.137 I 167.653 J-108.048
G3 X  48.483 Y  54.659 I  96.708 J -59.181
G3 X  46.837 Y  51.683 I 176.631 J -99.633
G3 X  46.750 Y  50.994 I   0.840 J  -0.456
G2 X  46.790 Y  50.623 I  -1.305 J  -0.328
G2 X  46.706 Y  50.327 I  -0.638 J   0.021
G2 X  46.515 Y  50.153 I  -0.361 J   0.206
G2 X  46.250 Y  50.118 I  -0.192 J   0.429
G3 X  45.071 Y  50.134 I  -0.643 J  -4.070
G3 X  44.593 Y  49.688 I   0.073 J  -0.558
G3 X  44.689 Y  48.741 I   1.571 J  -0.320
G3 X  45.582 Y  46.841 I  25.696 J  10.926
G2 X  46.298 Y  45.120 I  -9.958 J  -5.149
G2 X  46.694 Y  43.351 I  -9.537 J  -3.063
G2 X  46.787 Y  41.393 I -11.888 J  -1.549
G2 X  46.592 Y  39.091 I -22.903 J   0.783
G2 X  45.328 Y  32.682 I -54.254 J   7.369
G2 X  43.452 Y  28.020 I -19.021 J   4.946
G2 X  41.720 Y  26.904 I  -1.919 J   1.075
G2 X  40.317 Y  27.895 I  -0.113 J   1.328
G3 X  39.678 Y  29.541 I  -7.478 J  -1.956
G3 X  38.925 Y  29.813 I  -0.525 J  -0.277
G3 X  38.003 Y  28.995 I   0.726 J  -1.747
G3 X  36.637 Y  26.365 I  37.774 J -21.294
G1 X  34.904 Y  22.730
G1 X  29.515 Y  23.286
G1 X  24.126 Y  23.842
G1 X  19.813 Y  19.038
G3 X  17.961 Y  16.898 I  57.589 J -51.703
G3 X  15.962 Y  14.436 I  93.674 J -78.108
G3 X  14.115 Y  12.036 I  90.465 J -71.527
G3 X  12.760 Y  10.117 I  33.907 J -25.390
G2 X   9.575 Y   6.285 I -19.604 J  13.049
G2 X   7.670 Y   6.492 I  -0.867 J   0.892
F5
G1 Z  -0.118
F15
G2 X   7.105 Y   9.573 I   3.343 J   2.205
G2 X   8.919 Y  15.941 I  56.758 J -12.727
G2 X  11.621 Y  23.051 I 125.721 J -43.693
G2 X  14.452 Y  29.187 I  76.810 J -31.720
G2 X  17.708 Y  34.943 I  70.447 J -36.049
G2 X  21.691 Y  40.899 I  92.450 J -57.521
G1 X  27.000 Y  48.298
G1 X  27.000 Y  58.084
G2 X  27.408 Y  67.096 I  99.730 J  -0.000
G2 X  28.642 Y  75.072 I  63.788 J  -5.788
G2 X  31.004 Y  83.527 I  76.905 J -16.921
G2 X  34.935 Y  94.146 I 202.944 J -69.089
G3 X  36.876 Y  99.043 I-706.181 J 282.837
G3 X  38.512 Y 103.277 I-392.001 J 153.862
G3 X  39.908 Y 106.968 I-1185.070 J 450.466
G3 X  40.000 Y 107.472 I  -1.339 J   0.504
G2 X  40.349 Y 108.754 I   2.527 J   0.000
G2 X  44.504 Y 115.750 I 944.922 J-556.349
G2 X  48.710 Y 122.591 I 294.154 J-176.144
G2 X  52.281 Y 127.980 I 122.936 J -77.585
G2 X  55.290 Y 132.040 I  68.321 J -47.491
G2 X  59.201 Y 136.829 I 145.107 J-114.536
G2 X  63.658 Y 141.938 I 164.923 J-139.375
G2 X  68.354 Y 147.000 I 172.669 J-155.471
G3 X  72.295 Y 151.535 I -45.882 J  43.850
G3 X  74.952 Y 155.596 I -21.471 J  16.943
G3 X  76.482 Y 159.413 I -16.668 J   8.899
G3 X  77.000 Y 163.193 I -13.535 J   3.779
G3 X  76.828 Y 166.111 I -24.886 J   0.000
G3 X  76.263 Y 168.091 I  -6.395 J  -0.755
G3 X  75.026 Y 170.032 I  -8.129 J  -3.814
G3 X  72.395 Y 173.009 I -54.213 J -45.273
G3 X  70.489 Y 174.939 I -36.518 J -34.158
G3 X  68.569 Y 176.668 I -28.473 J -29.688
G3 X  66.865 Y 178.023 I -23.666 J -28.000
G3 X  65.837 Y 178.552 I  -2.078 J  -2.778
G2 X  64.348 Y 179.731 I   0.810 J   2.551
G2 X  64.173 Y 181.485 I   1.783 J   1.064
G2 X  65.526 Y 183.361 I   3.863 J  -1.361
G2 X  68.000 Y 184.694 I   5.227 J  -6.741
G2 X  74.790 Y 185.798 I   6.661 J -19.533
G2 X  83.521 Y 185.018 I  -0.331 J -52.973
G2 X  93.561 Y 182.524 I -12.378 J -71.293
G2 X 104.379 Y 178.377 I -35.165 J-107.921
G3 X 111.775 Y 175.441 I  41.102 J  92.757
G3 X 117.114 Y 174.226 I   7.936 J  22.532
G3 X 122.880 Y 174.197 I   3.025 J  27.653
G3 X 132.000 Y 175.356 I -16.333 J 164.940
G2 X 141.857 Y 176.273 I  12.385 J -79.694
G2 X 156.955 Y 176.469 I  12.879 J-410.717
G2 X 171.896 Y 176.129 I  -2.325 J-430.514
G2 X 180.500 Y 175.094 I  -2.186 J -54.473
G2 X 190.389 Y 172.666 I -24.277 J-120.229
G2 X 200.477 Y 169.336 I -40.477 J-139.563
G2 X 209.647 Y 165.531 I -45.538 J-122.686
G2 X 216.650 Y 161.676 I -23.274 J -50.575
G2 X 221.849 Y 157.981 I -40.475 J -62.457
G2 X 226.196 Y 154.181 I -30.748 J -39.560
G2 X 230.314 Y 149.683 I -39.949 J -40.704
G2 X 234.834 Y 143.829 I -94.602 J -77.728
G3 X 236.842 Y 141.322 I  27.081 J  19.636
G3 X 239.509 Y 138.462 I  54.618 J  48.237
G3 X 242.366 Y 135.708 I  52.942 J  52.072
G3 X 244.973 Y 133.521 I  27.207 J  29.782
G2 X 248.156 Y 130.952 I -53.819 J -69.941
G2 X 249.851 Y 129.202 I  -7.945 J  -9.391
G2 X 250.705 Y 127.653 I  -4.179 J  -3.312
G2 X 251.000 Y 125.917 I  -4.954 J  -1.736
G2 X 250.346 Y 123.449 I  -4.981 J  -0.000
G2 X 248.604 Y 121.989 I  -2.842 J   1.621
G2 X 245.672 Y 121.666 I  -2.145 J   6.008
G2 X 241.538 Y 122.539 I   3.094 J  24.888
G3 X 235.158 Y 123.929 I -12.116 J -40.257
G3 X 225.548 Y 125.007 I -26.213 J-190.331
G3 X 214.295 Y 125.713 I -20.423 J-235.451
G3 X 202.421 Y 125.932 I -11.289 J-290.702
G1 X 188.342 Y 125.903
G1 X 180.907 Y 118.612
G2 X 175.033 Y 113.459 I -49.207 J  50.173
G2 X 169.624 Y 110.035 I -19.743 J  25.207
G2 X 163.595 Y 107.729 I -14.640 J  29.242
G2 X 155.787 Y 106.035 I -19.936 J  73.040
G2 X 149.530 Y 105.184 I -19.753 J 121.726
G2 X 145.373 Y 105.079 I  -2.700 J  24.520
G2 X 142.516 Y 105.644 I   0.634 J  10.704
G2 X 140.557 Y 106.937 I   1.533 J   4.454
G2 X 139.481 Y 108.548 I   4.921 J   4.454
G2 X 139.513 Y 109.793 I   1.247 J   0.591
G2 X 140.608 Y 110.767 I   1.883 J  -1.016
G2 X 143.020 Y 111.504 I   5.777 J -14.586
G3 X 144.128 Y 111.825 I  -1.895 J   8.629
G3 X 144.966 Y 112.246 I  -1.338 J   3.701
G3 X 145.424 Y 112.695 I  -0.940 J   1.417
G3 X 145.434 Y 113.106 I  -0.308 J   0.213
G2 X 145.267 Y 113.453 I   1.574 J   0.973
G2 X 145.265 Y 113.705 I   0.360 J   0.129
G2 X 145.410 Y 113.831 I   0.180 J  -0.061
G2 X 145.676 Y 113.819 I   0.109 J  -0.575
G3 X 146.995 Y 113.928 I   0.513 J   1.837
G3 X 149.681 Y 115.318 I -15.478 J  33.186
G3 X 152.374 Y 117.047 I -15.376 J  26.915
G3 X 154.238 Y 118.711 I  -6.854 J   9.554
G3 X 154.921 Y 119.737 I  -3.096 J   2.802
G3 X 154.667 Y 120.153 I  -0.264 J   0.124
G3 X 153.222 Y 120.035 I  -0.210 J  -6.354
G3 X 147.736 Y 118.926 I 134.088 J-677.134
G3 X 143.506 Y 117.998 I  35.754 J-173.174
G3 X 137.235 Y 116.517 I 186.413 J-803.044
G3 X 130.263 Y 114.812 I 215.084 J-894.748
G3 X 123.553 Y 113.113 I 192.056 J-772.390
G2 X 117.277 Y 111.537 I-124.812 J 483.941
G2 X 111.614 Y 110.208 I -77.488 J 317.386
G2 X 106.848 Y 109.163 I -92.927 J 412.350
G2 X 105.303 Y 109.000 I  -1.545 J   7.243
G3 X 104.421 Y 108.922 I  -0.000 J  -5.035
G3 X 103.677 Y 108.689 I   0.538 J  -3.022
G3 X 103.173 Y 108.346 I   0.767 J  -1.668
G3 X 103.000 Y 107.941 I   0.388 J  -0.405
G2 X 102.931 Y 107.580 I  -0.979 J  -0.000
G2 X 102.735 Y 107.357 I  -0.411 J   0.163
G2 X 102.443 Y 107.308 I  -0.215 J   0.386
G2 X 102.099 Y 107.439 I   0.172 J   0.966
G3 X  99.773 Y 107.614 I  -1.331 J  -2.154
G3 X  92.971 Y 104.488 I  53.880 J-126.199
G3 X  85.692 Y 100.512 I  43.873 J -88.982
G3 X  79.327 Y  96.211 I  37.702 J -62.655
G3 X  73.702 Y  91.552 I  48.957 J -64.829
G3 X  69.767 Y  87.290 I  22.033 J -24.288
G3 X  65.042 Y  80.638 I  82.291 J -63.465
G3 X  53.000 Y  62.074 I3127.624 J-2041.990
G3 X  50.527 Y  58.137 I 167.653 J-108.048
G3 X  48.483 Y  54.659 I  96.708 J -59.181
G3 X  46.837 Y  51.683 I 176.631 J -99.633
G3 X  46.750 Y  50.994 I   0.840 J  -0.456
G2 X  46.790 Y  50.623 I  -1.305 J  -0.328
G2 X  46.706 Y  50.327 I  -0.638 J   0.021
G2 X  46.515 Y  50.153 I  -0.361 J   0.206
G2 X  46.250 Y  50.118 I  -0.192 J   0.429
G3 X  45.071 Y  50.134 I  -0.643 J  -4.070
G3 X  44.593 Y  49.688 I   0.073 J  -0.558
G3 X  44.689 Y  48.741 I   1.571 J  -0.320
G3 X  45.582 Y  46.841 I  25.696 J  10.926
G2 X  46.298 Y  45.120 I  -9.958 J  -5.149
G2 X  46.694 Y  43.351 I  -9.537 J  -3.063
G2 X  46.787 Y  41.393 I -11.888 J  -1.549
G2 X  46.592 Y  39.091 I -22.903 J   0.783
G2 X  45.328 Y  32.682 I -54.254 J   7.369
G2 X  43.452 Y  28.020 I -19.021 J   4.946
G2 X  41.720 Y  26.904 I  -1.919 J   1.075
G2 X  40.317 Y  27.895 I  -0.113 J   1.328
G3 X  39.678 Y  29.541 I  -7.478 J  -1.956
G3 X  38.925 Y  29.813 I  -0.525 J  -0.277
G3 X  38.003 Y  28.995 I   0.726 J  -1.747
G3 X  36.637 Y  26.365 I  37.774 J -21.294
G1 X  34.904 Y  22.730
G1 X  29.515 Y  23.286
G1 X  24.126 Y  23.842
G1 X  19.813 Y  19.038
G3 X  17.961 Y  16.898 I  57.589 J -51.703
G3 X  15.962 Y  14.436 I  93.674 J -78.108
G3 X  14.115 Y  12.036 I  90.465 J -71.527
G3 X  12.760 Y  10.117 I  33.907 J -25.390
G2 X   9.575 Y   6.285 I -19.604 J  13.049
G2 X   7.670 Y   6.492 I  -0.867 J   0.892
F5
G1 Z   0.118
G0 Z   0.591 
M9 M5
G0 X   0.000 Y   0.000
M2 (Program end)