(Generated with: DXF2GCODE, Version: PyQt5 Beta, Date: $Date: Sun Oct 4 21:49:52 2015 +0200 $)
(Created from file: C:/Users/jpflueger/Downloads/Result/FORK.dxf)
(Time: Sat Feb 20 11:51:02 2016)
G20 (Units in inches)  G90 (Absolute programming) G64 (Default cutting) G17 (XY plane) G40 (Cancel radius comp.) G49 (Cancel length comp.)
G0 Z   0.591 

(*** LAYER: 0 ***)
T1 M6
S6000

(* SHAPE Nr: 0 *)
G0 X  65.419 Y 123.339
M3 M8
G0 Z   0.118 
F5
G1 Z  -0.059
F15
G2 X  56.294 Y 128.664 I 953.197 J1643.739
G3 X  49.584 Y 132.526 I-222.909 J-379.516
G3 X  41.034 Y 137.298 I-546.269 J-968.686
G3 X  32.143 Y 142.159 I-560.608 J-1014.895
G3 X  24.294 Y 146.340 I-327.936 J-606.135
G1 X   6.500 Y 155.672
G1 X   3.782 Y 161.086
G2 X   1.771 Y 165.618 I  46.573 J  23.381
G2 X   1.219 Y 168.605 I   7.603 J   2.950
G2 X   1.801 Y 171.574 I   8.053 J  -0.037
G2 X   3.851 Y 176.028 I  46.552 J -18.727
G2 X   7.762 Y 183.098 I 142.833 J -74.400
G2 X  11.243 Y 188.391 I  53.256 J -31.232
G2 X  14.566 Y 192.352 I  32.078 J -23.539
G2 X  17.973 Y 195.273 I  16.415 J -15.699
G2 X  19.347 Y 196.001 I   3.644 J  -5.215
G2 X  21.143 Y 196.545 I   4.748 J -12.436
G2 X  23.249 Y 196.886 I   3.764 J -16.548
G2 X  25.567 Y 197.000 I   2.318 J -23.621
G2 X  29.440 Y 196.487 I   0.000 J -14.864
G2 X  33.376 Y 194.967 I  -5.246 J -19.442
G2 X  38.365 Y 191.988 I -20.462 J -39.940
G2 X  46.062 Y 186.500 I-163.735 J-237.785
G2 X  55.941 Y 179.014 I-289.627 J-392.454
G2 X  67.850 Y 169.615 I-667.171 J-857.547
G2 X  81.164 Y 158.815 I-845.284 J-1055.730
G2 X  95.379 Y 147.014 I-1157.678 J-1408.919
G3 X 114.124 Y 131.386 I2627.905 J3132.956
G3 X 128.511 Y 119.623 I 893.464 J1078.177
G3 X 139.375 Y 110.997 I 569.807 J 706.484
G3 X 145.712 Y 106.419 I  63.870 J  81.715
G3 X 155.205 Y 100.708 I  66.165 J  99.239
G3 X 163.257 Y  97.282 I  22.410 J  41.502
G3 X 171.014 Y  95.690 I  11.292 J  35.334
G3 X 179.519 Y  95.614 I   4.691 J  48.995
G2 X 186.776 Y  95.755 I   4.841 J -62.278
G2 X 193.148 Y  94.972 I  -1.485 J -38.356
G2 X 199.419 Y  93.116 I  -8.210 J -39.264
G2 X 206.381 Y  89.998 I -26.648 J -68.841
G2 X 214.067 Y  85.574 I -40.779 J -79.740
G2 X 221.754 Y  80.163 I -61.176 J -95.070
G2 X 229.780 Y  73.512 I -85.731 J-111.621
G2 X 238.500 Y  65.329 I-161.879 J-181.238
G2 X 246.616 Y  56.915 I-163.027 J-165.374
G2 X 252.025 Y  50.233 I -51.429 J -47.167
G2 X 255.098 Y  45.097 I -30.587 J -21.787
G2 X 255.050 Y  42.094 I  -2.941 J  -1.455
G2 X 254.493 Y  41.236 I  -5.343 J   2.859
G2 X 253.722 Y  40.351 I  -8.243 J   6.403
G2 X 252.871 Y  39.571 I  -7.300 J   7.119
G2 X 252.069 Y  39.037 I  -3.158 J   3.869
G2 X 249.458 Y  38.992 I  -1.350 J   2.522
G2 X 244.785 Y  41.724 I  16.506 J  33.589
G2 X 238.374 Y  46.648 I  42.820 J  62.386
G2 X 229.500 Y  54.527 I 218.177 J 254.658
G3 X 223.505 Y  59.844 I-148.442 J-161.339
G3 X 218.577 Y  63.748 I -54.726 J -64.026
G3 X 214.671 Y  66.380 I -35.130 J -47.921
G3 X 212.486 Y  67.000 I  -2.185 J  -3.538
G3 X 212.420 Y  66.842 I  -0.000 J  -0.093
G3 X 213.813 Y  65.458 I  75.998 J  75.038
G3 X 215.609 Y  63.764 I  49.619 J  50.828
G3 X 217.864 Y  61.750 I 106.787 J 117.278
G2 X 226.590 Y  53.552 I-113.877 J-129.957
G2 X 236.920 Y  42.768 I-293.645 J-291.623
G2 X 247.017 Y  31.693 I-833.154 J-769.740
G2 X 248.000 Y  29.131 I  -2.848 J  -2.562
G2 X 247.468 Y  27.329 I  -3.317 J  -0.000
G2 X 246.027 Y  26.033 I  -3.120 J   2.020
G2 X 243.984 Y  25.548 I  -2.031 J   4.009
G2 X 241.815 Y  25.998 I   0.015 J   5.514
G2 X 239.502 Y  27.292 I   5.121 J  11.873
G2 X 233.756 Y  31.399 I 251.225 J 357.514
G2 X 225.850 Y  37.253 I 334.892 J 460.569
G2 X 214.627 Y  45.768 I1387.415 J1840.374
G3 X 210.805 Y  48.488 I -42.392 J -55.523
G3 X 207.307 Y  50.553 I -21.765 J -32.867
G3 X 204.434 Y  51.891 I -15.926 J -30.455
G3 X 203.338 Y  51.671 I  -0.383 J  -0.933
G3 X 203.347 Y  51.388 I   0.137 J  -0.137
G3 X 205.496 Y  49.521 I 176.059 J 200.506
G3 X 208.081 Y  47.372 I  67.273 J  78.283
G3 X 211.225 Y  44.893 I 129.600 J 161.143
G2 X 219.814 Y  37.745 I -94.549 J-122.337
G2 X 229.210 Y  28.923 I-181.997 J-203.265
G2 X 237.952 Y  20.133 I-407.680 J-414.174
G2 X 239.000 Y  17.554 I  -2.649 J  -2.579
G2 X 238.599 Y  16.082 I  -2.903 J  -0.000
G2 X 237.409 Y  14.584 I  -5.929 J   3.487
G2 X 235.823 Y  13.444 I  -4.917 J   5.173
G2 X 234.243 Y  13.032 I  -1.670 J   3.165
G2 X 233.380 Y  13.261 I  -0.040 J   1.588
G2 X 229.206 Y  15.818 I 253.488 J 418.559
G2 X 224.364 Y  18.899 I 123.895 J 200.030
G2 X 218.858 Y  22.561 I 226.228 J 346.097
G3 X 208.788 Y  29.231 I-341.343 J-504.405
G3 X 201.450 Y  33.715 I -88.013 J-135.783
G3 X 195.990 Y  36.691 I -67.706 J-117.719
G3 X 194.029 Y  36.842 I  -1.159 J  -2.248
G3 X 193.953 Y  36.477 I   0.068 J  -0.205
G3 X 195.840 Y  34.838 I  42.597 J  47.144
G3 X 198.394 Y  32.826 I  36.885 J  44.200
G3 X 201.628 Y  30.500 I  76.863 J 103.460
G2 X 205.702 Y  27.608 I-153.222 J-220.144
G2 X 210.911 Y  23.801 I-430.730 J-594.911
G2 X 216.331 Y  19.768 I-460.711 J-624.695
G2 X 221.124 Y  16.122 I-294.806 J-392.540
G2 X 228.775 Y   9.963 I-140.718 J-182.659
G2 X 231.533 Y   6.602 I  -7.616 J  -9.061
G2 X 231.477 Y   4.081 I  -2.205 J  -1.212
G2 X 229.053 Y   1.690 I  -5.993 J   3.652
G1 X 226.105 Y  -0.051
G1 X 213.303 Y   6.324
G2 X 194.209 Y  16.176 I 334.743 J 672.226
G2 X 181.005 Y  23.894 I  93.959 J 175.888
G2 X 171.407 Y  30.754 I  59.592 J  93.518
G2 X 164.015 Y  37.732 I  38.369 J  48.055
G2 X 159.898 Y  42.721 I  57.780 J  51.866
G2 X 157.106 Y  47.093 I  25.935 J  19.642
G2 X 154.764 Y  52.320 I  37.561 J  19.965
G2 X 152.005 Y  60.326 I 181.353 J  66.983
G3 X 147.402 Y  70.415 I -44.854 J -14.368
G3 X 140.797 Y  78.434 I -31.149 J -18.927
G3 X 130.028 Y  86.555 I -49.054 J -53.853
G3 X 110.869 Y  97.797 I-256.583 J-415.341
G1 X 105.767 Y 100.636
G1 X 100.665 Y 103.475
G1 X  96.210 Y 105.953
G1 X  93.500 Y 107.461
G2 X  82.551 Y 113.574 I1644.990 J2958.927
G2 X  73.700 Y 118.578 I 721.628 J1286.782
G2 X  65.419 Y 123.339 I 629.300 J1104.240
F5
G1 Z  -0.118
F15
G2 X  56.294 Y 128.664 I 953.197 J1643.739
G3 X  49.584 Y 132.526 I-222.909 J-379.516
G3 X  41.034 Y 137.298 I-546.269 J-968.686
G3 X  32.143 Y 142.159 I-560.608 J-1014.895
G3 X  24.294 Y 146.340 I-327.936 J-606.135
G1 X   6.500 Y 155.672
G1 X   3.782 Y 161.086
G2 X   1.771 Y 165.618 I  46.573 J  23.381
G2 X   1.219 Y 168.605 I   7.603 J   2.950
G2 X   1.801 Y 171.574 I   8.053 J  -0.037
G2 X   3.851 Y 176.028 I  46.552 J -18.727
G2 X   7.762 Y 183.098 I 142.833 J -74.400
G2 X  11.243 Y 188.391 I  53.256 J -31.232
G2 X  14.566 Y 192.352 I  32.078 J -23.539
G2 X  17.973 Y 195.273 I  16.415 J -15.699
G2 X  19.347 Y 196.001 I   3.644 J  -5.215
G2 X  21.143 Y 196.545 I   4.748 J -12.436
G2 X  23.249 Y 196.886 I   3.764 J -16.548
G2 X  25.567 Y 197.000 I   2.318 J -23.621
G2 X  29.440 Y 196.487 I   0.000 J -14.864
G2 X  33.376 Y 194.967 I  -5.246 J -19.442
G2 X  38.365 Y 191.988 I -20.462 J -39.940
G2 X  46.062 Y 186.500 I-163.735 J-237.785
G2 X  55.941 Y 179.014 I-289.627 J-392.454
G2 X  67.850 Y 169.615 I-667.171 J-857.547
G2 X  81.164 Y 158.815 I-845.284 J-1055.730
G2 X  95.379 Y 147.014 I-1157.678 J-1408.919
G3 X 114.124 Y 131.386 I2627.905 J3132.956
G3 X 128.511 Y 119.623 I 893.464 J1078.177
G3 X 139.375 Y 110.997 I 569.807 J 706.484
G3 X 145.712 Y 106.419 I  63.870 J  81.715
G3 X 155.205 Y 100.708 I  66.165 J  99.239
G3 X 163.257 Y  97.282 I  22.410 J  41.502
G3 X 171.014 Y  95.690 I  11.292 J  35.334
G3 X 179.519 Y  95.614 I   4.691 J  48.995
G2 X 186.776 Y  95.755 I   4.841 J -62.278
G2 X 193.148 Y  94.972 I  -1.485 J -38.356
G2 X 199.419 Y  93.116 I  -8.210 J -39.264
G2 X 206.381 Y  89.998 I -26.648 J -68.841
G2 X 214.067 Y  85.574 I -40.779 J -79.740
G2 X 221.754 Y  80.163 I -61.176 J -95.070
G2 X 229.780 Y  73.512 I -85.731 J-111.621
G2 X 238.500 Y  65.329 I-161.879 J-181.238
G2 X 246.616 Y  56.915 I-163.027 J-165.374
G2 X 252.025 Y  50.233 I -51.429 J -47.167
G2 X 255.098 Y  45.097 I -30.587 J -21.787
G2 X 255.050 Y  42.094 I  -2.941 J  -1.455
G2 X 254.493 Y  41.236 I  -5.343 J   2.859
G2 X 253.722 Y  40.351 I  -8.243 J   6.403
G2 X 252.871 Y  39.571 I  -7.300 J   7.119
G2 X 252.069 Y  39.037 I  -3.158 J   3.869
G2 X 249.458 Y  38.992 I  -1.350 J   2.522
G2 X 244.785 Y  41.724 I  16.506 J  33.589
G2 X 238.374 Y  46.648 I  42.820 J  62.386
G2 X 229.500 Y  54.527 I 218.177 J 254.658
G3 X 223.505 Y  59.844 I-148.442 J-161.339
G3 X 218.577 Y  63.748 I -54.726 J -64.026
G3 X 214.671 Y  66.380 I -35.130 J -47.921
G3 X 212.486 Y  67.000 I  -2.185 J  -3.538
G3 X 212.420 Y  66.842 I  -0.000 J  -0.093
G3 X 213.813 Y  65.458 I  75.998 J  75.038
G3 X 215.609 Y  63.764 I  49.619 J  50.828
G3 X 217.864 Y  61.750 I 106.787 J 117.278
G2 X 226.590 Y  53.552 I-113.877 J-129.957
G2 X 236.920 Y  42.768 I-293.645 J-291.623
G2 X 247.017 Y  31.693 I-833.154 J-769.740
G2 X 248.000 Y  29.131 I  -2.848 J  -2.562
G2 X 247.468 Y  27.329 I  -3.317 J  -0.000
G2 X 246.027 Y  26.033 I  -3.120 J   2.020
G2 X 243.984 Y  25.548 I  -2.031 J   4.009
G2 X 241.815 Y  25.998 I   0.015 J   5.514
G2 X 239.502 Y  27.292 I   5.121 J  11.873
G2 X 233.756 Y  31.399 I 251.225 J 357.514
G2 X 225.850 Y  37.253 I 334.892 J 460.569
G2 X 214.627 Y  45.768 I1387.415 J1840.374
G3 X 210.805 Y  48.488 I -42.392 J -55.523
G3 X 207.307 Y  50.553 I -21.765 J -32.867
G3 X 204.434 Y  51.891 I -15.926 J -30.455
G3 X 203.338 Y  51.671 I  -0.383 J  -0.933
G3 X 203.347 Y  51.388 I   0.137 J  -0.137
G3 X 205.496 Y  49.521 I 176.059 J 200.506
G3 X 208.081 Y  47.372 I  67.273 J  78.283
G3 X 211.225 Y  44.893 I 129.600 J 161.143
G2 X 219.814 Y  37.745 I -94.549 J-122.337
G2 X 229.210 Y  28.923 I-181.997 J-203.265
G2 X 237.952 Y  20.133 I-407.680 J-414.174
G2 X 239.000 Y  17.554 I  -2.649 J  -2.579
G2 X 238.599 Y  16.082 I  -2.903 J  -0.000
G2 X 237.409 Y  14.584 I  -5.929 J   3.487
G2 X 235.823 Y  13.444 I  -4.917 J   5.173
G2 X 234.243 Y  13.032 I  -1.670 J   3.165
G2 X 233.380 Y  13.261 I  -0.040 J   1.588
G2 X 229.206 Y  15.818 I 253.488 J 418.559
G2 X 224.364 Y  18.899 I 123.895 J 200.030
G2 X 218.858 Y  22.561 I 226.228 J 346.097
G3 X 208.788 Y  29.231 I-341.343 J-504.405
G3 X 201.450 Y  33.715 I -88.013 J-135.783
G3 X 195.990 Y  36.691 I -67.706 J-117.719
G3 X 194.029 Y  36.842 I  -1.159 J  -2.248
G3 X 193.953 Y  36.477 I   0.068 J  -0.205
G3 X 195.840 Y  34.838 I  42.597 J  47.144
G3 X 198.394 Y  32.826 I  36.885 J  44.200
G3 X 201.628 Y  30.500 I  76.863 J 103.460
G2 X 205.702 Y  27.608 I-153.222 J-220.144
G2 X 210.911 Y  23.801 I-430.730 J-594.911
G2 X 216.331 Y  19.768 I-460.711 J-624.695
G2 X 221.124 Y  16.122 I-294.806 J-392.540
G2 X 228.775 Y   9.963 I-140.718 J-182.659
G2 X 231.533 Y   6.602 I  -7.616 J  -9.061
G2 X 231.477 Y   4.081 I  -2.205 J  -1.212
G2 X 229.053 Y   1.690 I  -5.993 J   3.652
G1 X 226.105 Y  -0.051
G1 X 213.303 Y   6.324
G2 X 194.209 Y  16.176 I 334.743 J 672.226
G2 X 181.005 Y  23.894 I  93.959 J 175.888
G2 X 171.407 Y  30.754 I  59.592 J  93.518
G2 X 164.015 Y  37.732 I  38.369 J  48.055
G2 X 159.898 Y  42.721 I  57.780 J  51.866
G2 X 157.106 Y  47.093 I  25.935 J  19.642
G2 X 154.764 Y  52.320 I  37.561 J  19.965
G2 X 152.005 Y  60.326 I 181.353 J  66.983
G3 X 147.402 Y  70.415 I -44.854 J -14.368
G3 X 140.797 Y  78.434 I -31.149 J -18.927
G3 X 130.028 Y  86.555 I -49.054 J -53.853
G3 X 110.869 Y  97.797 I-256.583 J-415.341
G1 X 105.767 Y 100.636
G1 X 100.665 Y 103.475
G1 X  96.210 Y 105.953
G1 X  93.500 Y 107.461
G2 X  82.551 Y 113.574 I1644.990 J2958.927
G2 X  73.700 Y 118.578 I 721.628 J1286.782
G2 X  65.419 Y 123.339 I 629.300 J1104.240
F5
G1 Z   0.118
G0 Z   0.591 
M9 M5
G0 X   0.000 Y   0.000
M2 (Program end)