(Generated with: DXF2GCODE, Version: PyQt5 Beta, Date: $Date: Sun Oct 4 21:49:52 2015 +0200 $)
(Created from file: C:/Users/jpflueger/Downloads/Result/plant.dxf)
(Time: Sat Feb 20 11:57:25 2016)
G20 (Units in inches)  G90 (Absolute programming) G64 (Default cutting) G17 (XY plane) G40 (Cancel radius comp.) G49 (Cancel length comp.)
G0 Z   0.591 

(*** LAYER: 0 ***)
T1 M6
S6000

(* SHAPE Nr: 0 *)
G0 X  73.985 Y  61.009
M3 M8
G0 Z   0.118 
F5
G1 Z  -0.059
F15
G2 X  73.455 Y  61.662 I   0.672 J   1.088
G2 X  73.481 Y  62.463 I   1.019 J   0.369
G2 X  74.209 Y  63.632 I   4.334 J  -1.887
G2 X  76.012 Y  65.663 I  44.847 J -38.010
G3 X  77.254 Y  67.032 I -54.104 J  50.329
G3 X  77.987 Y  67.943 I  -9.513 J   8.415
G3 X  77.992 Y  68.131 I  -0.134 J   0.098
G3 X  77.839 Y  68.158 I  -0.089 J  -0.058
G2 X  76.975 Y  67.586 I  -4.992 J   6.607
G2 X  76.370 Y  67.418 I  -0.632 J   1.100
G2 X  75.885 Y  67.588 I  -0.016 J   0.734
G2 X  75.435 Y  68.106 I   1.365 J   1.640
G2 X  75.173 Y  68.583 I   4.453 J   2.752
G2 X  75.186 Y  68.802 I   0.202 J   0.097
G2 X  75.360 Y  68.855 I   0.118 J  -0.076
G2 X  75.776 Y  68.638 I  -1.262 J  -2.932
G3 X  76.239 Y  68.459 I   0.710 J   1.149
G3 X  76.727 Y  68.463 I   0.235 J   1.261
G3 X  77.167 Y  68.647 I  -0.240 J   1.188
G3 X  77.490 Y  68.984 I  -0.623 J   0.921
G2 X  77.858 Y  69.373 I   1.126 J  -0.696
G2 X  78.451 Y  69.701 I   1.874 J  -2.683
G2 X  79.159 Y  69.925 I   1.503 J  -3.532
G2 X  79.879 Y  70.000 I   0.720 J  -3.402
G3 X  80.706 Y  70.173 I   0.000 J   2.065
G3 X  81.761 Y  70.734 I  -3.116 J   7.124
G3 X  82.851 Y  71.543 I  -5.051 J   7.949
G3 X  83.813 Y  72.500 I  -6.117 J   7.112
G2 X  84.723 Y  73.457 I  11.155 J  -9.699
G2 X  85.661 Y  74.266 I   7.919 J  -8.237
G2 X  86.506 Y  74.846 I   5.716 J  -7.406
G2 X  87.052 Y  75.000 I   0.547 J  -0.896
G3 X  87.416 Y  75.070 I  -0.000 J   0.986
G3 X  87.640 Y  75.266 I  -0.164 J   0.413
G3 X  87.690 Y  75.561 I  -0.389 J   0.217
G3 X  87.558 Y  75.907 I  -0.972 J  -0.173
G2 X  87.532 Y  76.199 I   0.277 J   0.171
G2 X  87.751 Y  76.393 I   0.302 J  -0.120
G2 X  88.270 Y  76.429 I   0.352 J  -1.334
G2 X  89.004 Y  76.289 I  -0.669 J  -5.506
G3 X  90.736 Y  76.250 I   0.948 J   3.627
G3 X  92.401 Y  76.980 I  -0.943 J   4.410
G3 X  93.385 Y  78.155 I  -1.741 J   2.457
G3 X  93.342 Y  79.363 I  -1.196 J   0.563
G2 X  93.130 Y  79.802 I   3.652 J   2.042
G2 X  93.203 Y  79.900 I   0.066 J   0.027
G2 X  93.442 Y  79.798 I  -0.043 J  -0.434
G2 X  94.006 Y  79.297 I -12.010 J -14.086
G3 X  94.731 Y  78.794 I   2.136 J   2.308
G3 X  95.469 Y  78.606 I   0.801 J   1.596
G3 X  96.304 Y  78.730 I   0.082 J   2.316
G3 X  97.333 Y  79.178 I  -2.270 J   6.614
G2 X  98.650 Y  79.608 I   1.868 J  -3.491
G2 X 100.784 Y  79.797 I   2.908 J -20.682
G2 X 103.544 Y  79.781 I   1.187 J -31.978
G2 X 106.930 Y  79.534 I  -3.569 J -72.519
G2 X 114.122 Y  78.820 I-113.808 J-1182.523
G2 X 116.593 Y  78.451 I  -2.740 J -26.765
G2 X 118.059 Y  77.952 I  -1.132 J  -5.734
G2 X 119.417 Y  77.069 I  -3.107 J  -6.264
G3 X 120.309 Y  76.395 I   7.720 J   9.302
G3 X 120.719 Y  76.375 I   0.221 J   0.323
G3 X 120.953 Y  76.737 I  -0.218 J   0.398
G3 X 121.000 Y  77.937 I -15.371 J   1.199
G3 X 120.939 Y  78.736 I  -5.296 J  -0.000
G3 X 120.749 Y  79.322 I  -1.875 J  -0.286
G3 X 120.468 Y  79.602 I  -0.579 J  -0.300
G3 X 120.144 Y  79.589 I  -0.150 J  -0.293
G2 X 119.865 Y  79.610 I  -0.126 J   0.204
G2 X 119.676 Y  79.926 I   0.362 J   0.431
G2 X 119.633 Y  80.584 I   2.315 J   0.483
G2 X 119.751 Y  81.477 I   7.847 J  -0.585
G3 X 119.778 Y  84.493 I  -8.283 J   1.583
G3 X 118.102 Y  93.647 I-443.253 J -76.409
G3 X 116.243 Y 102.674 I-385.099 J -74.620
G3 X 115.012 Y 105.934 I -11.682 J  -2.550
G3 X 114.442 Y 106.443 I  -1.019 J  -0.567
G3 X 113.733 Y 106.437 I  -0.347 J  -0.830
G3 X 112.715 Y 105.780 I   1.543 J  -3.510
G3 X 111.030 Y 104.184 I  28.766 J -32.047
G2 X 109.732 Y 102.965 I -20.120 J  20.120
G2 X 108.465 Y 101.935 I -13.309 J  15.089
G2 X 107.363 Y 101.173 I -10.884 J  14.569
G2 X 106.768 Y 101.000 I  -0.594 J   0.932
G3 X 106.529 Y 100.804 I   0.000 J  -0.243
G3 X 106.566 Y 100.344 I   0.835 J  -0.164
G3 X 106.938 Y  99.625 I   3.099 J   1.148
G3 X 107.595 Y  98.767 I   8.410 J   5.757
G2 X 108.649 Y  97.520 I-129.580 J-110.557
G2 X 108.779 Y  97.242 I  -0.461 J  -0.386
G2 X 108.684 Y  97.183 I  -0.059 J  -0.011
G2 X 107.757 Y  97.884 I  29.087 J  39.469
G3 X 106.384 Y  98.549 I  -2.263 J  -2.923
G3 X 105.018 Y  98.496 I  -0.591 J  -2.380
G3 X 102.813 Y  97.568 I   4.933 J -14.810
G3 X  95.650 Y  93.851 I 510.842 J-993.434
G2 X  94.388 Y  93.254 I  -8.136 J  15.545
G2 X  93.203 Y  92.823 I  -4.590 J  10.777
G2 X  92.218 Y  92.579 I  -2.821 J   9.288
G2 X  91.743 Y  92.665 I  -0.126 J   0.656
G3 X  91.408 Y  92.718 I  -0.232 J  -0.380
G3 X  91.033 Y  92.534 I   0.219 J  -0.919
G3 X  90.673 Y  92.131 I   1.063 J  -1.315
G3 X  90.388 Y  91.569 I   2.609 J  -1.673
G2 X  90.102 Y  91.008 I  -2.790 J   1.071
G2 X  89.737 Y  90.611 I  -1.374 J   0.895
G2 X  89.354 Y  90.433 I  -0.573 J   0.734
G2 X  89.010 Y  90.494 I  -0.096 J   0.461
G3 X  88.162 Y  90.655 I  -0.634 J  -1.026
G3 X  85.981 Y  90.188 I   6.122 J -33.943
G3 X  83.234 Y  89.398 I   9.309 J -37.532
G3 X  80.000 Y  88.259 I  24.786 J -75.535
G2 X  79.144 Y  88.029 I  -1.610 J   4.274
G2 X  77.619 Y  87.806 I  -6.132 J  36.632
G2 X  75.833 Y  87.621 I  -5.175 J  41.406
G2 X  74.000 Y  87.509 I  -3.708 J  45.500
G3 X  69.127 Y  87.129 I   2.741 J -66.671
G3 X  64.878 Y  86.410 I   4.614 J -40.170
G3 X  61.254 Y  85.360 I   6.785 J -30.201
G3 X  58.278 Y  83.977 I   5.993 J -16.784
G2 X  57.011 Y  83.309 I  -8.508 J  14.610
G2 X  55.873 Y  82.861 I  -3.880 J   8.185
G2 X  54.978 Y  82.648 I  -1.890 J   5.951
G2 X  54.615 Y  82.814 I  -0.057 J   0.354
G2 X  54.579 Y  83.297 I   0.447 J   0.276
G2 X  55.202 Y  84.635 I  22.143 J  -9.498
G2 X  56.093 Y  86.243 I  20.725 J -10.436
G2 X  57.233 Y  88.014 I  34.132 J -20.725
G3 X  58.396 Y  89.751 I -95.714 J  65.264
G3 X  59.351 Y  91.256 I -51.312 J  33.648
G3 X  60.145 Y  92.560 I-140.265 J  86.260
G3 X  60.146 Y  92.750 I  -0.159 J   0.096
G2 X  59.944 Y  93.441 I   1.285 J   0.752
G2 X  60.067 Y  94.202 I   1.920 J   0.079
G2 X  60.458 Y  94.785 I   1.458 J  -0.553
G2 X  61.000 Y  95.000 I   0.542 J  -0.578
G3 X  61.513 Y  95.126 I  -0.000 J   1.110
G3 X  62.294 Y  95.588 I  -3.892 J   7.471
G3 X  63.161 Y  96.234 I  -5.671 J   8.507
G3 X  64.000 Y  97.000 I  -7.939 J   9.544
G3 X  64.720 Y  97.768 I -11.387 J  11.387
G3 X  65.209 Y  98.412 I  -4.296 J   3.768
G3 X  65.417 Y  98.846 I  -1.547 J   1.010
G3 X  65.306 Y  99.000 I  -0.111 J   0.037
G2 X  65.237 Y  99.148 I   0.000 J   0.090
G2 X  65.750 Y  99.689 I   5.046 J  -4.261
G2 X  66.619 Y 100.445 I   9.687 J -10.264
G2 X  67.792 Y 101.347 I  23.590 J -29.483
G3 X  68.958 Y 102.305 I  -8.565 J  11.609
G3 X  69.822 Y 103.243 I  -5.003 J   5.476
G3 X  70.307 Y 104.036 I  -3.356 J   2.595
G3 X  70.237 Y 104.507 I  -0.389 J   0.183
G2 X  70.005 Y 104.793 I   2.471 J   2.237
G2 X  70.024 Y 104.907 I   0.066 J   0.048
G2 X  70.172 Y 104.920 I   0.085 J  -0.121
G2 X  70.548 Y 104.726 I  -2.258 J  -4.836
G3 X  71.051 Y 104.562 I   0.659 J   1.162
G3 X  71.695 Y 104.559 I   0.336 J   2.853
G3 X  72.375 Y 104.706 I  -0.354 J   3.272
G3 X  72.983 Y 104.990 I  -0.902 J   2.729
G3 X  73.657 Y 105.522 I  -1.958 J   3.168
G3 X  73.859 Y 106.023 I  -0.488 J   0.489
G3 X  73.670 Y 106.645 I  -1.185 J  -0.021
G3 X  72.936 Y 107.674 I -11.451 J  -7.396
G2 X  72.010 Y 108.859 I 206.232 J 162.131
G2 X  71.999 Y 108.998 I   0.100 J   0.078
G2 X  72.105 Y 109.020 I   0.063 J  -0.035
G2 X  73.206 Y 108.164 I-120.153 J-155.699
G3 X  74.525 Y 107.499 I   2.321 J   2.964
G3 X  75.868 Y 107.485 I   0.698 J   2.527
G3 X  76.570 Y 108.089 I  -0.256 J   1.008
G3 X  76.500 Y 109.000 I  -0.918 J   0.387
G2 X  76.387 Y 109.384 I   0.644 J   0.398
G2 X  76.468 Y 109.821 I   1.117 J   0.020
G2 X  76.731 Y 110.244 I   1.337 J  -0.538
G2 X  77.138 Y 110.585 I   1.383 J  -1.238
G2 X  77.608 Y 110.841 I   2.549 J  -4.125
G2 X  77.808 Y 110.810 I   0.077 J  -0.162
G2 X  77.845 Y 110.616 I  -0.115 J  -0.122
G2 X  77.595 Y 110.155 I  -4.109 J   1.923
G3 X  77.426 Y 109.689 I   1.039 J  -0.642
G3 X  77.524 Y 109.318 I   0.482 J  -0.071
G3 X  77.891 Y 109.078 I   0.538 J   0.422
G3 X  78.500 Y 109.000 I   0.609 J   2.341
G3 X  79.086 Y 109.057 I   0.000 J   3.051
G3 X  79.499 Y 109.233 I  -0.207 J   1.060
G3 X  79.676 Y 109.493 I  -0.256 J   0.365
G3 X  79.628 Y 109.792 I  -0.383 J   0.093
G2 X  79.618 Y 110.106 I   0.268 J   0.166
G2 X  79.897 Y 110.398 I   0.659 J  -0.349
G2 X  80.462 Y 110.625 I   1.014 J  -1.709
G2 X  81.229 Y 110.742 I   1.150 J  -4.963
G3 X  82.073 Y 110.863 I  -0.480 J   6.367
G3 X  82.879 Y 111.094 I  -1.242 J   5.862
G3 X  83.540 Y 111.392 I  -1.659 J   4.562
G3 X  83.910 Y 111.717 I  -0.531 J   0.975
G2 X  85.033 Y 112.303 I   1.146 J  -0.827
G2 X  90.952 Y 112.331 I   4.098 J-248.423
G2 X  97.247 Y 112.119 I  -0.879 J-119.918
G2 X 103.000 Y 111.577 I  -5.084 J -84.829
G3 X 104.881 Y 111.338 I 114.263 J 888.758
G3 X 106.811 Y 111.096 I 124.474 J 984.647
G3 X 108.529 Y 110.883 I 109.521 J 880.231
G3 X 109.655 Y 110.749 I  20.953 J 171.125
G2 X 110.448 Y 110.600 I  -0.656 J  -5.666
G2 X 111.040 Y 110.353 I  -0.591 J  -2.249
G2 X 111.345 Y 110.055 I  -0.456 J  -0.772
G2 X 111.345 Y 109.750 I  -0.246 J  -0.153
G3 X 111.309 Y 109.467 I   0.294 J  -0.182
G3 X 111.496 Y 109.220 I   0.431 J   0.133
G3 X 111.917 Y 109.054 I   0.631 J   0.978
G3 X 112.508 Y 109.000 I   0.591 J   3.235
G3 X 113.180 Y 109.113 I  -0.000 J   2.043
G3 X 113.598 Y 109.442 I  -0.268 J   0.771
G3 X 113.751 Y 109.989 I  -0.813 J   0.524
G3 X 113.636 Y 110.750 I  -3.039 J  -0.073
G2 X 113.298 Y 111.946 I 246.150 J  70.209
G1 X 112.218 Y 115.805
G1 X 110.935 Y 120.393
G1 X 109.510 Y 125.500
G3 X 108.084 Y 130.607 I-9320.532 J-2600.180
G3 X 106.799 Y 135.195 I-6069.494 J-1696.820
G3 X 105.716 Y 139.053 I-8105.812 J-2272.724
G3 X 105.374 Y 140.250 I-130.233 J -36.582
G3 X 105.068 Y 140.919 I  -2.421 J  -0.704
G3 X 104.577 Y 141.486 I  -2.285 J  -1.483
G3 X 103.982 Y 141.869 I  -1.592 J  -1.820
G3 X 103.374 Y 142.000 I  -0.608 J  -1.344
G3 X 102.829 Y 141.919 I   0.000 J  -1.867
G3 X 102.501 Y 141.676 I   0.178 J  -0.584
G3 X 102.421 Y 141.304 I   0.422 J  -0.284
G3 X 102.595 Y 140.845 I   1.276 J   0.222
G2 X 102.845 Y 140.385 I  -3.849 J  -2.379
G2 X 102.808 Y 140.190 I  -0.154 J  -0.072
G2 X 102.610 Y 140.158 I  -0.123 J   0.128
G2 X 102.143 Y 140.411 I   2.023 J   4.281
G3 X 101.484 Y 140.500 I  -0.429 J  -0.694
G3 X 100.458 Y 140.075 I   1.467 J  -4.989
G3 X  99.250 Y 139.271 I   3.991 J  -7.308
G3 X  97.989 Y 138.143 I   9.521 J -11.909
G2 X  96.842 Y 137.036 I -30.990 J  30.990
G2 X  95.878 Y 136.202 I -12.356 J  13.289
G2 X  95.149 Y 135.654 I  -8.278 J  10.263
G2 X  95.000 Y 135.732 I  -0.054 J   0.078
G3 X  94.861 Y 135.829 I  -0.103 J  -0.000
G3 X  94.419 Y 135.615 I   0.856 J  -2.333
G3 X  93.783 Y 135.167 I   3.243 J  -5.295
G3 X  93.024 Y 134.521 I  10.281 J -12.846
G3 X  92.314 Y 133.762 I   4.173 J  -4.611
G3 X  91.813 Y 132.958 I   3.367 J  -2.656
G3 X  91.579 Y 132.232 I   2.561 J  -1.227
G3 X  91.678 Y 131.712 I   0.730 J  -0.131
G2 X  91.857 Y 131.351 I  -1.836 J  -1.134
G2 X  91.800 Y 131.186 I  -0.127 J  -0.049
G2 X  91.586 Y 131.173 I  -0.119 J   0.196
G2 X  91.163 Y 131.399 I   1.588 J   3.480
G3 X  90.548 Y 131.499 I  -0.428 J  -0.692
G3 X  89.617 Y 131.165 I   1.010 J  -4.275
G3 X  88.554 Y 130.510 I   2.920 J  -5.929
G3 X  87.508 Y 129.599 I   6.039 J  -7.995
G2 X  86.545 Y 128.674 I -23.952 J  23.952
G2 X  85.737 Y 127.982 I  -9.361 J  10.130
G2 X  85.134 Y 127.545 I  -5.564 J   7.040
G2 X  85.000 Y 127.617 I  -0.048 J   0.072
G3 X  84.882 Y 127.700 I  -0.088 J  -0.000
G3 X  84.536 Y 127.524 I   0.562 J  -1.537
G3 X  84.027 Y 127.133 I   2.656 J  -3.980
G3 X  83.419 Y 126.562 I   8.793 J  -9.971
G2 X  82.744 Y 126.001 I  -3.383 J   3.383
G2 X  82.023 Y 125.619 I  -2.027 J   2.952
G2 X  81.366 Y 125.460 I  -0.910 J   2.323
G2 X  80.886 Y 125.570 I  -0.078 J   0.761
G3 X  80.308 Y 125.676 I  -0.424 J  -0.686
G3 X  79.195 Y 125.385 I   1.750 J  -8.973
G3 X  77.864 Y 124.853 I   3.654 J -11.083
G3 X  76.467 Y 124.113 I   7.372 J -15.603
G2 X  75.136 Y 123.395 I -10.054 J  17.041
G2 X  74.018 Y 122.946 I  -3.564 J   7.256
G2 X  73.241 Y 122.791 I  -1.083 J   3.410
G2 X  73.000 Y 123.012 I  -0.019 J   0.221
G3 X  72.829 Y 123.329 I  -0.379 J   0.000
G3 X  72.404 Y 123.456 I  -0.424 J  -0.646
G3 X  71.701 Y 123.352 I   0.003 J  -2.450
G3 X  70.750 Y 123.010 I   2.747 J  -9.121
G2 X  69.517 Y 122.542 I  -7.096 J  16.848
G2 X  67.468 Y 121.869 I -38.457 J 113.585
G2 X  65.108 Y 121.141 I -40.844 J 128.181
G2 X  62.737 Y 120.456 I -38.397 J 128.616
G3 X  60.567 Y 119.775 I   9.387 J -33.690
G3 X  58.833 Y 119.054 I   5.420 J -15.482
G3 X  57.640 Y 118.383 I   4.894 J -10.096
G3 X  57.539 Y 117.937 I   0.177 J  -0.274
G2 X  57.594 Y 117.654 I  -0.348 J  -0.215
G2 X  57.434 Y 117.485 I  -0.206 J   0.035
G2 X  57.012 Y 117.488 I  -0.204 J   0.918
G2 X  56.388 Y 117.681 I   1.146 J   4.808
G3 X  55.639 Y 117.927 I  -2.840 J  -7.402
G3 X  55.273 Y 117.891 I  -0.136 J  -0.497
G3 X  55.173 Y 117.656 I   0.088 J  -0.177
G3 X  55.388 Y 117.181 I   1.955 J   0.601
G2 X  55.609 Y 116.720 I  -2.038 J  -1.260
G2 X  55.544 Y 116.470 I  -0.218 J  -0.077
G2 X  55.260 Y 116.396 I  -0.216 J   0.244
G2 X  54.692 Y 116.565 I   0.817 J   3.777
G3 X  53.946 Y 116.605 I  -0.434 J  -1.132
G3 X  52.803 Y 116.197 I   1.889 J  -7.108
G3 X  51.511 Y 115.491 I   4.026 J  -8.899
G3 X  50.246 Y 114.553 I   6.936 J -10.684
G2 X  47.543 Y 112.564 I -16.607 J  19.737
G2 X  45.629 Y 111.973 I  -2.025 J   3.164
G2 X  44.781 Y 112.677 I  -0.025 J   0.833
G2 X  44.961 Y 114.397 I   3.334 J   0.521
G3 X  45.259 Y 115.371 I  -7.216 J   2.744
G3 X  45.403 Y 116.314 I  -5.807 J   1.368
G3 X  45.389 Y 117.102 I  -4.433 J   0.316
G3 X  45.186 Y 117.558 I  -0.805 J  -0.086
G2 X  45.000 Y 117.807 I   1.284 J   1.154
G2 X  45.040 Y 117.903 I   0.054 J   0.033
G2 X  45.237 Y 117.880 I   0.066 J  -0.294
G2 X  45.653 Y 117.662 I  -2.881 J  -5.984
G3 X  46.193 Y 117.604 I   0.335 J   0.587
G3 X  46.786 Y 117.952 I  -0.475 J   1.491
G3 X  47.374 Y 118.689 I  -2.212 J   2.368
G3 X  47.889 Y 119.751 I  -6.734 J   3.921
G2 X  48.447 Y 121.052 I  22.327 J  -8.806
G2 X  49.249 Y 122.721 I  62.679 J -29.099
G2 X  50.143 Y 124.459 I  66.033 J -32.835
G2 X  50.997 Y 126.000 I  43.048 J -22.848
G3 X  51.734 Y 127.435 I -14.175 J   8.193
G3 X  52.279 Y 128.854 I -11.735 J   5.318
G3 X  52.587 Y 130.078 I  -9.861 J   3.131
G3 X  52.521 Y 130.802 I  -1.314 J   0.247
G2 X  52.396 Y 131.263 I   2.246 J   0.860
G2 X  52.460 Y 131.542 I   0.370 J   0.062
G2 X  52.672 Y 131.627 I   0.172 J  -0.122
G2 X  53.011 Y 131.493 I  -0.201 J  -1.008
G3 X  53.389 Y 131.345 I   0.597 J   0.966
G3 X  53.710 Y 131.390 I   0.095 J   0.484
G3 X  53.924 Y 131.621 I  -0.210 J   0.409
G3 X  54.000 Y 132.000 I  -0.903 J   0.379
G2 X  54.077 Y 132.378 I   0.963 J   0.000
G2 X  54.294 Y 132.608 I   0.421 J  -0.180
G2 X  54.618 Y 132.651 I   0.225 J  -0.449
G2 X  55.000 Y 132.500 I  -0.232 J  -1.144
G3 X  55.596 Y 132.475 I   0.320 J   0.517
G3 X  56.037 Y 132.982 I  -0.407 J   0.800
G3 X  56.201 Y 134.069 I  -2.868 J   0.990
G3 X  56.035 Y 135.500 I  -8.629 J  -0.277
G2 X  56.005 Y 135.838 I   1.524 J   0.308
G2 X  56.099 Y 136.000 I   0.193 J  -0.004
G2 X  56.279 Y 135.999 I   0.089 J  -0.151
G2 X  56.536 Y 135.798 I  -0.711 J  -1.169
G3 X  57.333 Y 135.657 I   0.499 J   0.499
G3 X  58.563 Y 136.455 I  -2.228 J   4.780
G3 X  59.646 Y 137.667 I  -4.223 J   4.863
G3 X  60.000 Y 138.806 I  -1.655 J   1.139
G2 X  60.117 Y 139.264 I   0.954 J  -0.000
G2 X  60.514 Y 139.880 I   4.405 J  -2.406
G2 X  61.080 Y 140.532 I   5.045 J  -3.803
G2 X  61.750 Y 141.128 I   5.172 J  -5.146
G2 X  62.880 Y 142.008 I 140.172 J-178.733
G2 X  63.000 Y 142.000 I   0.056 J  -0.072
G2 X  63.008 Y 141.880 I  -0.065 J  -0.065
G2 X  62.128 Y 140.750 I-179.613 J 139.042
G3 X  61.628 Y 140.028 I   5.769 J  -4.524
G3 X  61.423 Y 139.478 I   1.344 J  -0.815
G3 X  61.514 Y 139.145 I   0.401 J  -0.069
G3 X  61.828 Y 139.000 I   0.314 J   0.267
G3 X  62.297 Y 139.097 I  -0.000 J   1.178
G3 X  62.820 Y 139.394 I  -1.132 J   2.606
G3 X  63.315 Y 139.829 I  -1.938 J   2.704
G3 X  63.700 Y 140.342 I  -2.204 J   2.056
G2 X  64.270 Y 140.975 I   1.890 J  -1.126
G2 X  65.514 Y 141.833 I  11.326 J -15.090
G2 X  67.064 Y 142.728 I  11.741 J -18.571
G2 X  68.750 Y 143.535 I  12.101 J -23.115
G3 X  70.378 Y 144.306 I -11.227 J  25.787
G3 X  71.752 Y 145.096 I  -7.698 J  14.979
G3 X  72.785 Y 145.818 I  -8.274 J  12.943
G3 X  73.000 Y 146.251 I  -0.330 J   0.433
G2 X  73.064 Y 146.542 I   0.692 J  -0.000
G2 X  73.240 Y 146.715 I   0.318 J  -0.147
G2 X  73.505 Y 146.741 I   0.171 J  -0.387
G2 X  73.817 Y 146.613 I  -0.227 J  -1.001
G3 X  74.364 Y 146.494 I   0.442 J   0.715
G3 X  75.696 Y 146.710 I  -2.427 J  19.220
G3 X  77.310 Y 147.097 I  -3.988 J  20.159
G3 X  79.067 Y 147.652 I  -8.511 J  30.042
G2 X  83.483 Y 148.560 I   5.626 J -16.156
G2 X  90.431 Y 148.783 I   6.360 J -89.724
G2 X  97.317 Y 148.481 I  -0.604 J -92.421
G2 X 101.301 Y 147.506 I  -1.050 J -12.914
G3 X 102.270 Y 147.192 I   2.321 J   5.506
G3 X 102.668 Y 147.376 I   0.081 J   0.348
G3 X 102.756 Y 147.980 I  -0.827 J   0.428
G3 X 102.397 Y 149.624 I -32.686 J  -6.276
G3 X 102.059 Y 150.770 I -12.422 J  -3.043
G3 X 101.625 Y 151.835 I -10.367 J  -3.594
G3 X 101.166 Y 152.692 I  -8.217 J  -3.854
G3 X 100.761 Y 153.112 I  -1.133 J  -0.688
G2 X 100.420 Y 153.396 I   1.068 J   1.626
G2 X 100.163 Y 153.744 I   1.265 J   1.204
G2 X 100.024 Y 154.099 I   1.189 J   0.669
G2 X 100.033 Y 154.405 I   0.576 J   0.136
G3 X  99.972 Y 156.158 I  -2.632 J   0.787
G3 X  97.831 Y 161.588 I-167.377 J -62.878
G3 X  95.528 Y 166.819 I-116.775 J -48.275
G3 X  93.999 Y 169.001 I  -6.970 J  -3.258
G2 X  93.332 Y 169.739 I   7.018 J   7.018
G2 X  92.848 Y 170.438 I   4.146 J   3.388
G2 X  92.583 Y 171.014 I   2.890 J   1.678
G2 X  92.653 Y 171.319 I   0.278 J   0.097
G3 X  92.805 Y 172.230 I  -0.563 J   0.563
G3 X  91.763 Y 173.961 I -10.170 J  -4.946
G3 X  90.371 Y 175.543 I  -9.508 J  -6.956
G3 X  89.228 Y 176.000 I  -1.143 J  -1.203
G3 X  88.692 Y 175.889 I  -0.000 J  -1.348
G3 X  88.148 Y 175.561 I   0.950 J  -2.191
G3 X  87.679 Y 175.077 I   1.676 J  -2.091
G3 X  87.364 Y 174.506 I   1.894 J  -1.419
G2 X  87.077 Y 173.976 I  -2.156 J   0.827
G2 X  86.691 Y 173.616 I  -1.120 J   0.813
G2 X  86.270 Y 173.479 I  -0.486 J   0.776
G2 X  85.877 Y 173.576 I  -0.047 J   0.656
G3 X  85.311 Y 173.635 I  -0.344 J  -0.557
G3 X  84.136 Y 173.136 I   3.833 J -10.660
G3 X  82.728 Y 172.338 I   6.223 J -12.627
G3 X  81.232 Y 171.286 I  12.422 J -19.255
G2 X  77.009 Y 168.189 I -79.414 J 103.861
G2 X  73.010 Y 165.530 I -53.186 J  75.657
G2 X  69.573 Y 163.498 I -39.518 J  62.921
G2 X  67.340 Y 162.561 I  -5.367 J   9.661
G3 X  66.428 Y 162.214 I   1.821 J  -6.155
G3 X  65.473 Y 161.698 I   4.167 J  -8.857
G3 X  64.618 Y 161.104 I   4.829 J  -7.864
G3 X  64.017 Y 160.521 I   2.410 J  -3.082
G2 X  63.453 Y 160.031 I  -1.776 J   1.474
G2 X  62.728 Y 159.710 I  -1.529 J   2.478
G2 X  61.958 Y 159.601 I  -0.774 J   2.693
G2 X  61.263 Y 159.729 I  -0.003 J   1.933
G3 X  60.687 Y 159.904 I  -1.496 J  -3.899
G3 X  60.306 Y 159.890 I  -0.164 J  -0.728
G3 X  60.166 Y 159.713 I   0.057 J  -0.189
G3 X  60.240 Y 159.420 I   0.501 J  -0.029
G2 X  60.177 Y 159.056 I  -0.237 J  -0.146
G2 X  59.568 Y 158.719 I  -1.315 J   1.660
G2 X  58.517 Y 158.459 I  -1.859 J   5.250
G2 X  57.155 Y 158.327 I  -2.021 J  13.793
G3 X  52.208 Y 158.038 I  10.677 J-225.580
G3 X  48.786 Y 157.693 I   3.777 J -54.460
G3 X  46.389 Y 157.308 I   5.923 J -44.526
G3 X  46.003 Y 156.844 I   0.088 J  -0.466
G2 X  45.863 Y 156.629 I  -0.237 J   0.001
G2 X  45.458 Y 156.522 I  -0.524 J   1.167
G2 X  44.861 Y 156.533 I  -0.251 J   2.686
G2 X  44.152 Y 156.671 I   0.729 J   5.637
G3 X  43.182 Y 156.743 I  -0.684 J  -2.617
G3 X  41.701 Y 156.506 I   1.490 J -14.018
G3 X  40.031 Y 156.055 I   3.535 J -16.397
G3 X  38.402 Y 155.431 I   5.397 J -16.537
G2 X  33.992 Y 153.690 I -24.037 J  54.438
G2 X  31.474 Y 153.396 I  -1.918 J   5.490
G2 X  31.036 Y 154.262 I   0.059 J   0.574
G2 X  32.546 Y 156.038 I   5.822 J  -3.420
G3 X  33.096 Y 156.632 I  -1.989 J   2.397
G3 X  33.480 Y 157.352 I  -2.612 J   1.853
G3 X  33.646 Y 158.084 I  -2.540 J   0.961
G3 X  33.557 Y 158.712 I  -1.414 J   0.119
G2 X  33.413 Y 159.210 I   2.831 J   1.087
G2 X  33.455 Y 159.525 I   0.482 J   0.095
G2 X  33.649 Y 159.631 I   0.173 J  -0.086
G2 X  33.961 Y 159.524 I  -0.078 J  -0.738
G3 X  34.824 Y 159.625 I   0.368 J   0.595
G3 X  36.090 Y 161.146 I  -7.694 J   7.685
G3 X  37.119 Y 162.977 I  -9.605 J   6.607
G3 X  37.212 Y 164.250 I  -1.703 J   0.765
G2 X  37.257 Y 164.535 I   0.333 J   0.094
G2 X  37.520 Y 164.780 I   0.633 J  -0.418
G2 X  37.977 Y 164.945 I   0.740 J  -1.329
G2 X  38.559 Y 165.000 I   0.582 J  -3.068
G3 X  39.110 Y 165.075 I  -0.000 J   2.070
G3 X  39.476 Y 165.299 I  -0.207 J   0.748
G3 X  39.602 Y 165.630 I  -0.356 J   0.326
G3 X  39.490 Y 166.016 I  -0.752 J  -0.009
G3 X  39.167 Y 166.353 I  -0.946 J  -0.585
G3 X  38.727 Y 166.537 I  -0.679 J  -1.004
G3 X  38.239 Y 166.541 I  -0.254 J  -1.257
G3 X  37.776 Y 166.362 I   0.248 J  -1.327
G2 X  37.360 Y 166.145 I  -1.678 J   2.715
G2 X  37.186 Y 166.198 I  -0.056 J   0.129
G2 X  37.173 Y 166.417 I   0.189 J   0.121
G2 X  37.435 Y 166.894 I   4.715 J  -2.275
G2 X  37.868 Y 167.413 I   2.022 J  -1.250
G2 X  38.319 Y 167.590 I   0.464 J  -0.516
G2 X  38.855 Y 167.447 I   0.019 J  -1.006
G2 X  39.579 Y 166.934 I  -2.994 J  -4.993
G3 X  40.414 Y 166.534 I   1.216 J   1.465
G3 X  41.249 Y 166.635 I   0.266 J   1.304
G3 X  42.249 Y 167.333 I  -1.549 J   3.281
G3 X  43.713 Y 168.886 I -20.906 J  21.182
G2 X  44.853 Y 170.078 I  14.521 J -12.742
G2 X  46.018 Y 171.085 I  10.181 J -10.601
G2 X  47.062 Y 171.812 I   7.447 J  -9.589
G2 X  47.723 Y 172.000 I   0.661 J  -1.065
G3 X  48.212 Y 172.056 I  -0.000 J   2.179
G3 X  48.628 Y 172.220 I  -0.336 J   1.457
G3 X  48.909 Y 172.464 I  -0.504 J   0.866
G3 X  49.011 Y 172.750 I  -0.370 J   0.293
G2 X  49.211 Y 173.137 I   0.489 J  -0.007
G2 X  50.265 Y 173.863 I  12.061 J -16.379
G2 X  51.637 Y 174.670 I  10.772 J -16.741
G2 X  53.261 Y 175.485 I  15.943 J -29.760
G3 X  54.921 Y 176.286 I -33.096 J  70.675
G3 X  56.402 Y 177.052 I -23.270 J  46.782
G3 X  57.619 Y 177.725 I -28.976 J  53.873
G3 X  58.000 Y 178.034 I  -0.739 J   1.302
G2 X  59.438 Y 178.933 I   2.248 J  -1.993
G2 X  63.584 Y 179.977 I  21.990 J -78.576
G2 X  68.463 Y 180.897 I  15.941 J -71.130
G2 X  73.462 Y 181.499 I  11.706 J -76.238
G3 X  76.215 Y 181.804 I  -5.143 J  58.926
G3 X  78.730 Y 182.220 I  -5.668 J  42.076
G3 X  80.791 Y 182.680 I  -7.901 J  40.225
G3 X  81.622 Y 183.102 I  -0.511 J   2.038
G2 X  82.199 Y 183.469 I   1.748 J  -2.106
G2 X  82.710 Y 183.556 I   0.409 J  -0.864
G2 X  83.162 Y 183.362 I  -0.089 J  -0.834
G2 X  83.565 Y 182.894 I  -1.271 J  -1.503
G2 X  83.852 Y 182.374 I  -5.032 J  -3.110
G2 X  83.803 Y 182.187 I  -0.134 J  -0.065
G2 X  83.579 Y 182.172 I  -0.124 J   0.179
G2 X  83.000 Y 182.500 I   4.015 J   7.761
G3 X  82.417 Y 182.831 I  -4.666 J  -7.550
G3 X  82.196 Y 182.812 I  -0.096 J  -0.186
G3 X  82.150 Y 182.621 I   0.092 J  -0.123
G3 X  82.447 Y 182.086 I   5.812 J   2.873
G3 X  82.841 Y 181.660 I   1.289 J   0.797
G3 X  83.391 Y 181.380 I   1.132 J   1.547
G3 X  84.010 Y 181.288 I   0.598 J   1.879
G3 X  84.601 Y 181.400 I  -0.018 J   1.700
G2 X  85.136 Y 181.521 I   0.680 J  -1.773
G2 X  85.589 Y 181.446 I   0.074 J  -0.961
G2 X  85.888 Y 181.191 I  -0.259 J  -0.606
G2 X  86.000 Y 180.802 I  -0.619 J  -0.389
G3 X  86.041 Y 180.406 I   1.931 J   0.000
G3 X  86.173 Y 180.173 I   0.434 J   0.091
G3 X  86.365 Y 180.125 I   0.139 J   0.149
G3 X  86.588 Y 180.255 I  -0.132 J   0.484
G3 X  86.711 Y 181.364 I  -0.631 J   0.631
G3 X  84.901 Y 183.885 I -22.535 J -14.266
G3 X  82.808 Y 186.182 I -20.784 J -16.835
G3 X  81.686 Y 186.306 I  -0.640 J  -0.655
G2 X  81.338 Y 186.128 I  -1.272 J   2.058
G2 X  81.162 Y 186.161 I  -0.063 J   0.152
G2 X  81.125 Y 186.332 I   0.107 J   0.113
G2 X  81.299 Y 186.675 I   2.119 J  -0.858
G3 X  81.174 Y 188.025 I  -0.957 J   0.592
G3 X  76.646 Y 192.828 I-147.598 J-134.589
G3 X  71.973 Y 197.471 I-145.034 J-141.305
G3 X  70.793 Y 197.459 I  -0.584 J  -0.608
G2 X  70.507 Y 197.331 I  -0.310 J   0.310
G2 X  70.153 Y 197.400 I  -0.042 J   0.738
G2 X  69.778 Y 197.664 I   0.546 J   1.170
G2 X  69.446 Y 198.088 I   1.722 J   1.693
G2 X  69.155 Y 198.624 I   4.647 J   2.872
G2 X  69.211 Y 198.822 I   0.141 J   0.067
G2 X  69.461 Y 198.838 I   0.140 J  -0.217
G2 X  70.095 Y 198.508 I  -4.038 J  -8.520
G3 X  70.858 Y 198.085 I  17.372 J  30.452
G3 X  70.974 Y 198.131 I   0.039 J   0.072
G3 X  70.940 Y 198.297 I  -0.159 J   0.054
G3 X  70.274 Y 199.030 I -41.898 J -37.486
G3 X  69.550 Y 199.623 I  -2.523 J  -2.339
G3 X  68.900 Y 199.755 I  -0.506 J  -0.825
G3 X  68.154 Y 199.447 I   0.251 J  -1.664
G3 X  67.047 Y 198.543 I   8.368 J -11.373
G3 X  66.322 Y 197.784 I   4.888 J  -5.402
G3 X  65.796 Y 197.003 I   3.660 J  -3.028
G3 X  65.527 Y 196.311 I   2.723 J  -1.461
G3 X  65.598 Y 195.842 I   0.587 J  -0.151
G2 X  65.700 Y 195.525 I  -0.591 J  -0.365
G2 X  65.598 Y 195.293 I  -0.272 J  -0.019
G2 X  65.294 Y 195.183 I  -0.316 J   0.396
G2 X  64.824 Y 195.225 I  -0.049 J   2.070
G3 X  64.344 Y 195.213 I  -0.214 J  -1.031
G3 X  63.985 Y 194.981 I   0.173 J  -0.663
G3 X  63.805 Y 194.555 I   0.647 J  -0.524
G3 X  63.833 Y 194.000 I   1.651 J  -0.194
G2 X  63.919 Y 193.463 I  -4.412 J  -0.980
G2 X  63.872 Y 193.137 I  -0.687 J  -0.068
G2 X  63.719 Y 193.053 I  -0.128 J   0.052
G2 X  63.498 Y 193.169 I   0.075 J   0.413
G3 X  62.416 Y 193.279 I  -0.608 J  -0.608
G3 X  60.380 Y 191.677 I   8.448 J -12.835
G3 X  58.585 Y 189.702 I  11.083 J -11.875
G3 X  58.397 Y 188.408 I   1.060 J  -0.815
G2 X  58.426 Y 187.948 I  -0.721 J  -0.277
G2 X  58.173 Y 187.653 I  -0.417 J   0.102
G2 X  57.592 Y 187.563 I  -0.478 J   1.161
G2 X  56.675 Y 187.700 I   0.575 J   6.991
G3 X  55.464 Y 187.947 I  -9.879 J -45.379
G3 X  55.201 Y 187.868 I  -0.056 J  -0.293
G3 X  55.209 Y 187.669 I   0.093 J  -0.096
G3 X  56.000 Y 187.045 I  14.122 J  17.095
G2 X  56.880 Y 186.367 I -28.187 J -37.468
G2 X  56.961 Y 186.161 I  -0.136 J  -0.172
G2 X  56.818 Y 186.056 I  -0.125 J   0.019
G2 X  55.871 Y 186.208 I   3.883 J  27.129
G3 X  55.112 Y 186.174 I  -0.303 J  -1.695
G3 X  54.171 Y 185.813 I   1.352 J  -4.935
G3 X  53.207 Y 185.214 I   2.798 J  -5.579
G3 X  52.371 Y 184.453 I   3.721 J  -4.927
G2 X  51.692 Y 183.730 I -27.705 J  25.321
G2 X  51.311 Y 183.395 I  -2.210 J   2.130
G2 X  51.248 Y 183.441 I  -0.024 J   0.033
G2 X  51.391 Y 183.726 I   1.173 J  -0.411
G3 X  51.761 Y 184.347 I  -5.175 J   3.495
G3 X  51.715 Y 184.608 I  -0.194 J   0.100
G3 X  51.421 Y 184.678 I  -0.208 J  -0.226
G3 X  50.641 Y 184.416 I   2.689 J  -9.301
G3 X  50.013 Y 184.109 I   1.419 J  -3.699
G3 X  49.482 Y 183.709 I   1.681 J  -2.784
G3 X  49.117 Y 183.281 I   1.635 J  -1.763
G3 X  49.000 Y 182.893 I   0.581 J  -0.388
G2 X  48.868 Y 182.550 I  -0.512 J   0.000
G2 X  48.486 Y 182.253 I  -1.032 J   0.935
G2 X  47.920 Y 182.046 I  -1.038 J   1.964
G2 X  47.250 Y 181.968 I  -0.732 J   3.371
G3 X  45.503 Y 181.602 I   0.087 J  -4.767
G3 X  43.783 Y 180.592 I   2.823 J  -6.774
G3 X  42.698 Y 179.385 I   2.948 J  -3.741
G3 X  42.766 Y 178.434 I   0.684 J  -0.430
G2 X  42.865 Y 178.244 I  -0.375 J  -0.317
G2 X  42.801 Y 178.189 I  -0.045 J  -0.012
G2 X  42.452 Y 178.382 I   0.730 J   1.732
G2 X  41.856 Y 178.817 I  10.862 J  15.487
G3 X  40.956 Y 179.395 I  -4.056 J  -5.328
G3 X  40.269 Y 179.560 I  -0.657 J  -1.229
G3 X  39.621 Y 179.361 I   0.027 J  -1.245
G3 X  38.856 Y 178.753 I   2.683 J  -4.161
G2 X  38.135 Y 178.233 I  -2.142 J   2.208
G2 X  37.064 Y 177.761 I  -4.146 J   7.957
G2 X  35.847 Y 177.402 I  -3.461 J   9.485
G2 X  34.661 Y 177.222 I  -1.796 J   7.882
G3 X  33.489 Y 177.087 I   1.117 J -14.769
G3 X  32.314 Y 176.857 I   2.419 J -15.460
G3 X  31.296 Y 176.574 I   3.119 J -13.220
G3 X  30.661 Y 176.279 I   0.852 J  -2.664
G2 X  30.083 Y 176.021 I  -1.196 J   1.905
G2 X  29.295 Y 175.854 I  -1.588 J   5.554
G2 X  28.438 Y 175.793 I  -0.882 J   6.306
G2 X  27.641 Y 175.856 I  -0.019 J   4.786
G3 X  26.838 Y 175.931 I  -0.927 J  -5.626
G3 X  26.425 Y 175.784 I  -0.013 J  -0.617
G3 X  26.320 Y 175.456 I   0.210 J  -0.248
G3 X  26.545 Y 174.927 I   1.844 J   0.471
G2 X  26.828 Y 174.418 I  -5.289 J  -3.269
G2 X  26.813 Y 174.198 I  -0.197 J  -0.098
G2 X  26.634 Y 174.147 I  -0.120 J   0.080
G2 X  26.183 Y 174.387 I   1.654 J   3.647
G3 X  25.575 Y 174.540 I  -0.546 J  -0.884
G3 X  24.645 Y 174.392 I   0.282 J  -4.763
G3 X  23.579 Y 174.009 I   1.641 J  -6.243
G3 X  22.528 Y 173.427 I   3.421 J  -7.408
G2 X  20.956 Y 172.431 I -32.399 J  49.448
G2 X  20.381 Y 172.270 I  -0.573 J   0.938
G2 X  20.082 Y 172.520 I   0.000 J   0.305
G2 X  20.000 Y 173.430 I   5.007 J   0.910
G2 X  20.163 Y 174.233 I   2.058 J  -0.000
G2 X  20.706 Y 175.309 I   8.321 J  -3.523
G2 X  21.484 Y 176.452 I   9.399 J  -5.558
G2 X  22.403 Y 177.494 I   8.811 J  -6.849
G3 X  23.369 Y 178.560 I -10.336 J  10.336
G3 X  23.885 Y 179.410 I  -2.724 J   2.235
G3 X  23.958 Y 180.024 I  -1.011 J   0.432
G3 X  23.653 Y 180.420 I  -0.524 J  -0.088
G2 X  23.301 Y 180.609 I   1.222 J   2.699
G2 X  23.297 Y 180.724 I   0.037 J   0.059
G2 X  23.502 Y 180.783 I   0.181 J  -0.244
G2 X  24.059 Y 180.721 I  -0.728 J  -9.125
G3 X  25.705 Y 181.217 I   0.287 J   2.026
G3 X  30.100 Y 185.285 I -97.414 J 109.638
G3 X  34.298 Y 189.515 I -94.800 J  98.303
G3 X  35.000 Y 191.272 I  -1.850 J   1.758
G2 X  35.083 Y 191.542 I   0.481 J  -0.000
G2 X  35.296 Y 191.687 I   0.289 J  -0.196
G2 X  35.622 Y 191.672 I   0.136 J  -0.614
G2 X  36.008 Y 191.495 I  -0.519 J  -1.641
G3 X  36.508 Y 191.372 I   0.442 J   0.715
G3 X  37.179 Y 191.515 I  -0.170 J   2.441
G3 X  37.906 Y 191.884 I  -1.181 J   3.227
G3 X  38.579 Y 192.436 I  -2.463 J   3.688
G2 X  39.291 Y 193.035 I   3.818 J  -3.818
G2 X  40.135 Y 193.541 I   3.888 J  -5.528
G2 X  40.978 Y 193.889 I   2.708 J  -5.368
G2 X  41.678 Y 194.000 I   0.701 J  -2.147
G3 X  42.240 Y 194.100 I   0.000 J   1.636
G3 X  42.627 Y 194.385 I  -0.293 J   0.801
G3 X  42.784 Y 194.820 I  -0.618 J   0.469
G3 X  42.698 Y 195.344 I  -1.302 J   0.057
G2 X  42.617 Y 195.924 I   1.215 J   0.466
G2 X  42.859 Y 196.270 I   0.421 J  -0.037
G2 X  43.476 Y 196.380 I   0.515 J  -1.104
G2 X  44.591 Y 196.227 I  -0.895 J -10.669
G3 X  45.514 Y 196.114 I   1.309 J   6.848
G3 X  46.292 Y 196.158 I   0.192 J   3.469
G3 X  46.821 Y 196.340 I  -0.293 J   1.713
G3 X  47.000 Y 196.639 I  -0.161 J   0.299
G2 X  47.534 Y 197.556 I   1.054 J   0.000
G2 X  49.876 Y 198.719 I  11.729 J -20.677
G2 X  53.172 Y 199.931 I  12.971 J -30.178
G2 X  57.363 Y 201.094 I  22.513 J -73.042
G3 X  59.893 Y 201.765 I -17.992 J  72.867
G3 X  60.918 Y 202.245 I  -0.969 J   3.407
G3 X  61.037 Y 202.718 I  -0.207 J   0.303
G3 X  60.525 Y 203.246 I  -1.142 J  -0.595
G3 X  59.637 Y 203.585 I  -1.604 J  -2.866
G3 X  58.329 Y 203.803 I  -2.611 J -11.676
G3 X  56.860 Y 203.884 I  -1.498 J -13.675
G3 X  55.440 Y 203.803 I  -0.026 J -12.025
G2 X  53.987 Y 203.719 I  -1.452 J  12.434
G2 X  52.824 Y 203.848 I   0.001 J   5.296
G2 X  52.001 Y 204.171 I   0.642 J   2.852
G2 X  51.571 Y 204.674 I   0.498 J   0.859
G3 X  51.208 Y 205.205 I  -1.295 J  -0.497
G3 X  50.481 Y 205.756 I  -3.507 J  -3.871
G3 X  49.552 Y 206.241 I  -3.468 J  -5.516
G3 X  48.543 Y 206.579 I  -2.689 J  -6.357
G2 X  47.569 Y 206.888 I   2.007 J   7.998
G2 X  46.747 Y 207.291 I   1.930 J   4.978
G2 X  46.170 Y 207.722 I   1.862 J   3.094
G2 X  46.000 Y 208.108 I   0.354 J   0.386
G3 X  45.904 Y 208.451 I  -0.659 J  -0.000
G3 X  45.633 Y 208.748 I  -0.893 J  -0.543
G3 X  45.228 Y 208.954 I  -0.814 J  -1.100
G3 X  44.750 Y 209.033 I  -0.524 J  -1.675
G2 X  42.143 Y 210.084 I   0.107 J   4.028
G2 X  39.154 Y 213.415 I  15.054 J  16.514
G2 X  36.771 Y 217.477 I  18.939 J  13.837
G2 X  36.000 Y 221.009 I   7.705 J   3.532
G3 X  35.935 Y 221.779 I  -4.618 J   0.000
G3 X  35.734 Y 222.334 I  -1.616 J  -0.273
G3 X  35.436 Y 222.589 I  -0.516 J  -0.302
G3 X  35.093 Y 222.558 I  -0.140 J  -0.358
G2 X  34.806 Y 222.549 I  -0.151 J   0.244
G2 X  34.620 Y 222.799 I   0.177 J   0.326
G2 X  34.598 Y 223.371 I   1.657 J   0.349
G2 X  34.754 Y 224.167 I   6.480 J  -0.857
G3 X  34.995 Y 225.309 I -11.900 J   3.112
G3 X  34.865 Y 225.786 I  -0.588 J   0.095
G3 X  34.450 Y 225.927 I  -0.323 J  -0.270
G3 X  33.519 Y 225.646 I   1.443 J  -6.468
G2 X  32.506 Y 225.280 I  -9.490 J  24.730
G2 X  32.278 Y 225.360 I  -0.063 J   0.186
G2 X  32.288 Y 225.610 I   0.182 J   0.118
G2 X  32.981 Y 226.477 I  23.378 J -17.960
G3 X  33.566 Y 227.323 I  -4.508 J   3.742
G3 X  33.745 Y 228.000 I  -1.190 J   0.677
G3 X  33.565 Y 228.678 I  -1.371 J  -0.000
G3 X  32.980 Y 229.524 I  -5.107 J  -2.906
G2 X  32.183 Y 230.949 I   3.456 J   2.868
G2 X  32.594 Y 231.627 I   0.490 J   0.166
G2 X  34.220 Y 231.450 I   0.483 J  -3.110
G2 X  37.124 Y 230.169 I -13.114 J -33.657
G3 X  38.797 Y 229.409 I  12.339 J  24.939
G3 X  40.341 Y 228.850 I   6.827 J  16.449
G3 X  41.619 Y 228.510 I   4.757 J  15.313
G3 X  42.166 Y 228.602 I   0.160 J   0.719
G2 X  42.484 Y 228.722 I   0.463 J  -0.749
G2 X  42.755 Y 228.672 I   0.067 J  -0.400
G2 X  42.936 Y 228.459 I  -0.212 J  -0.365
G2 X  43.000 Y 228.116 I  -0.891 J  -0.343
G3 X  43.159 Y 227.766 I   0.466 J  -0.000
G3 X  43.595 Y 227.524 I   0.777 J   0.886
G3 X  44.251 Y 227.429 I   0.643 J   2.131
G3 X  45.027 Y 227.505 I  -0.024 J   4.229
G2 X  45.770 Y 227.597 I   1.056 J  -5.484
G2 X  46.306 Y 227.535 I   0.088 J  -1.570
G2 X  46.546 Y 227.337 I  -0.113 J  -0.381
G2 X  46.535 Y 227.057 I  -0.251 J  -0.131
G3 X  46.521 Y 226.617 I   0.376 J  -0.233
G3 X  46.975 Y 225.954 I   3.188 J   1.696
G3 X  47.746 Y 225.207 I   4.553 J   3.928
G3 X  48.759 Y 224.480 I   6.827 J   8.439
G2 X  50.001 Y 223.636 I -12.760 J -20.116
G2 X  51.479 Y 222.523 I -31.993 J -44.038
G2 X  52.948 Y 221.337 I -34.331 J -44.027
G2 X  54.169 Y 220.261 I -19.837 J -23.739
G3 X  55.337 Y 219.305 I   8.157 J   8.779
G3 X  56.443 Y 218.675 I   3.566 J   4.967
G3 X  57.390 Y 218.403 I   1.472 J   3.350
G3 X  58.073 Y 218.545 I   0.147 J   1.011
G2 X  58.599 Y 218.838 I   3.466 J  -5.608
G2 X  58.807 Y 218.811 I   0.084 J  -0.169
G2 X  58.846 Y 218.616 I  -0.108 J  -0.123
G2 X  58.568 Y 218.111 I  -5.136 J   2.497
G3 X  58.319 Y 216.737 I   1.626 J  -1.005
G3 X  59.036 Y 215.389 I   2.580 J   0.508
G3 X  60.336 Y 214.729 I   1.655 J   1.649
G3 X  61.592 Y 215.077 I   0.242 J   1.571
G2 X  62.263 Y 215.572 I   4.772 J  -5.749
G2 X  62.568 Y 215.556 I   0.142 J  -0.216
G2 X  62.699 Y 215.235 I  -0.230 J  -0.281
G2 X  62.555 Y 214.288 I -11.964 J   1.329
G3 X  62.557 Y 213.389 I   2.314 J  -0.446
G3 X  62.885 Y 212.234 I   7.085 J   1.388
G3 X  63.451 Y 211.026 I   7.975 J   3.002
G3 X  64.189 Y 209.949 I   6.784 J   3.855
G3 X  65.324 Y 208.583 I  77.302 J  63.050
G3 X  65.686 Y 208.336 I   0.622 J   0.526
G3 X  65.828 Y 208.469 I   0.035 J   0.105
G3 X  65.523 Y 209.500 I -16.190 J  -4.236
G2 X  65.229 Y 210.462 I  20.131 J   6.675
G2 X  64.890 Y 211.726 I  57.524 J  16.088
G2 X  64.563 Y 213.064 I  61.498 J  15.755
G2 X  64.301 Y 214.271 I  40.111 J   9.354
G3 X  64.022 Y 215.372 I -11.297 J  -2.280
G3 X  63.645 Y 216.389 I  -9.161 J  -2.811
G3 X  63.233 Y 217.201 I  -7.153 J  -3.117
G3 X  62.855 Y 217.590 I  -0.967 J  -0.564
G2 X  62.570 Y 217.886 I   0.434 J   0.702
G2 X  62.433 Y 218.308 I   0.969 J   0.548
G2 X  62.465 Y 218.794 I   1.355 J   0.154
G2 X  62.664 Y 219.266 I   1.621 J  -0.407
G3 X  62.922 Y 219.969 I  -1.580 J   0.977
G3 X  63.086 Y 221.405 I -21.001 J   3.124
G3 X  63.161 Y 223.131 I -23.883 J   1.905
G3 X  63.119 Y 224.964 I -30.297 J   0.226
G2 X  63.133 Y 226.941 I  16.492 J   0.875
G2 X  63.377 Y 229.037 I  21.346 J  -1.427
G2 X  63.800 Y 230.962 I  19.126 J  -3.193
G2 X  64.359 Y 232.391 I   7.014 J  -1.920
G3 X  64.888 Y 233.605 I  -8.746 J   4.538
G3 X  65.255 Y 234.887 I  -9.548 J   3.422
G3 X  65.423 Y 236.053 I  -8.297 J   1.790
G3 X  65.327 Y 236.874 I  -2.181 J   0.161
G2 X  65.028 Y 237.843 I  58.505 J  18.542
G2 X  65.091 Y 237.951 I   0.082 J   0.024
G2 X  65.236 Y 237.897 I   0.031 J  -0.139
G2 X  65.890 Y 237.000 I -69.277 J -51.202
G3 X  66.387 Y 236.368 I   7.649 J   5.502
G3 X  66.709 Y 236.174 I   0.455 J   0.390
G3 X  66.911 Y 236.290 I   0.038 J   0.168
G3 X  66.985 Y 236.750 I  -1.522 J   0.480
G2 X  67.051 Y 238.322 I  26.247 J  -0.322
G2 X  67.251 Y 239.136 I   2.488 J  -0.180
G2 X  67.677 Y 239.699 I   1.372 J  -0.596
G2 X  68.511 Y 240.266 I   3.660 J  -4.484
G3 X  69.006 Y 240.703 I  -0.765 J   1.368
G3 X  69.368 Y 241.373 I  -2.186 J   1.614
G3 X  69.548 Y 242.164 I  -2.893 J   1.072
G3 X  69.508 Y 242.958 I  -2.824 J   0.257
G2 X  69.405 Y 243.872 I   5.772 J   1.112
G2 X  69.585 Y 244.332 I   0.624 J   0.021
G2 X  70.021 Y 244.480 I   0.364 J  -0.360
G2 X  70.819 Y 244.283 I  -0.562 J  -3.996
G3 X  71.425 Y 244.100 I   2.131 J   5.957
G3 X  71.796 Y 244.091 I   0.206 J   0.829
G3 X  71.896 Y 244.232 I  -0.024 J   0.124
G3 X  71.784 Y 244.473 I  -0.448 J  -0.062
G2 X  71.732 Y 245.014 I   0.337 J   0.305
G2 X  72.663 Y 246.416 I  16.969 J -10.263
G2 X  74.028 Y 248.111 I  18.087 J -13.155
G2 X  75.784 Y 249.973 I  31.823 J -28.260
G2 X  77.636 Y 251.755 I  49.083 J -49.174
G2 X  79.295 Y 253.205 I  25.635 J -27.657
G2 X  80.707 Y 254.328 I  33.529 J -40.704
G2 X  81.115 Y 254.365 I   0.233 J  -0.304
G2 X  81.328 Y 254.079 I  -0.184 J  -0.359
G2 X  81.416 Y 253.326 I  -5.721 J  -1.054
G2 X  81.405 Y 252.360 I  -7.628 J  -0.396
G2 X  81.276 Y 251.274 I -12.437 J   0.931
G3 X  80.794 Y 246.510 I  38.404 J  -6.293
G3 X  80.677 Y 239.692 I 153.800 J  -6.045
G3 X  80.763 Y 232.597 I 493.101 J   2.475
G3 X  81.372 Y 232.000 I   0.609 J   0.012
G2 X  81.610 Y 231.889 I   0.000 J  -0.310
G2 X  81.685 Y 231.633 I  -0.255 J  -0.214
G2 X  81.547 Y 231.230 I  -1.056 J   0.137
G2 X  81.211 Y 230.750 I  -3.155 J   1.851
G3 X  80.817 Y 230.094 I   1.968 J  -1.628
G3 X  80.494 Y 229.133 I   7.062 J  -2.907
G3 X  80.281 Y 228.049 I   8.369 J  -2.205
G3 X  80.223 Y 227.000 I   7.028 J  -0.918
G2 X  80.051 Y 225.028 I  -9.407 J  -0.173
G2 X  79.427 Y 222.450 I -28.949 J   5.638
G2 X  78.385 Y 219.297 I -43.367 J  12.578
G2 X  76.887 Y 215.500 I -95.715 J  35.576
G2 X  76.382 Y 214.396 I -16.993 J   7.101
G2 X  75.415 Y 212.485 I-141.339 J  70.341
G2 X  74.260 Y 210.279 I-155.247 J  79.908
G2 X  73.049 Y 208.043 I-167.610 J  89.317
G1 X  70.047 Y 202.586
G1 X  73.745 Y 199.543
G3 X  75.224 Y 198.397 I  20.267 J  24.633
G3 X  76.608 Y 197.475 I  11.759 J  16.135
G3 X  77.779 Y 196.817 I   9.952 J  16.362
G3 X  78.296 Y 196.775 I   0.310 J   0.601
G2 X  78.581 Y 196.814 I   0.254 J  -0.788
G2 X  78.741 Y 196.714 I  -0.007 J  -0.189
G2 X  78.760 Y 196.497 I  -0.243 J  -0.130
G2 X  78.613 Y 196.183 I  -1.410 J   0.467
G3 X  78.749 Y 194.658 I   1.087 J  -0.672
G3 X  81.533 Y 191.942 I  21.720 J  19.482
G3 X  84.714 Y 189.581 I  18.969 J  22.235
G3 X  86.576 Y 189.391 I   1.119 J   1.743
G2 X  87.466 Y 189.706 I   6.644 J -17.314
G2 X  87.707 Y 189.637 I   0.069 J  -0.213
G2 X  87.714 Y 189.401 I  -0.147 J  -0.123
G2 X  87.158 Y 188.691 I -12.646 J   9.324
G3 X  86.704 Y 187.940 I   2.277 J  -1.890
G3 X  86.596 Y 187.213 I   1.386 J  -0.578
G3 X  86.843 Y 186.412 I   2.101 J   0.210
G3 X  87.485 Y 185.418 I   6.990 J   3.808
G3 X  88.409 Y 184.257 I  24.140 J  18.266
G3 X  88.742 Y 184.212 I   0.191 J   0.160
G3 X  88.951 Y 184.584 I  -0.279 J   0.402
G3 X  89.044 Y 186.500 I -76.458 J   4.666
G2 X  89.528 Y 195.776 I 287.148 J -10.316
G2 X  90.270 Y 203.493 I 139.978 J  -9.567
G2 X  91.165 Y 209.521 I 126.333 J -15.682
G2 X  92.179 Y 211.754 I   4.793 J  -0.830
G3 X  92.806 Y 212.552 I -26.100 J  21.152
G3 X  92.918 Y 212.845 I  -0.442 J   0.337
G3 X  92.800 Y 212.927 I  -0.083 J   0.007
G3 X  92.248 Y 212.632 I   2.693 J  -5.695
G2 X  91.870 Y 212.966 I  -0.136 J   0.227
G2 X  93.224 Y 215.659 I  28.094 J -12.446
G2 X  95.278 Y 218.970 I  42.276 J -23.933
G2 X  97.249 Y 221.465 I  18.008 J -12.198
G3 X  97.900 Y 222.316 I  -4.458 J   4.084
G3 X  98.370 Y 223.245 I  -4.577 J   2.897
G3 X  98.605 Y 224.114 I  -3.912 J   1.525
G3 X  98.536 Y 224.767 I  -1.253 J   0.198
G2 X  98.399 Y 225.245 I   2.649 J   1.016
G2 X  98.444 Y 225.544 I   0.447 J   0.086
G2 X  98.635 Y 225.644 I   0.168 J  -0.089
G2 X  98.943 Y 225.535 I  -0.093 J  -0.758
G3 X  99.988 Y 225.622 I   0.464 J   0.750
G3 X 101.372 Y 227.163 I  -5.740 J   6.547
G3 X 102.409 Y 229.064 I  -7.845 J   5.513
G3 X 102.304 Y 230.317 I  -1.287 J   0.523
G2 X 102.135 Y 230.659 I   1.718 J   1.062
G2 X 102.184 Y 230.825 I   0.133 J   0.051
G2 X 102.379 Y 230.847 I   0.117 J  -0.159
G2 X 102.755 Y 230.651 I  -1.137 J  -2.645
G3 X 103.989 Y 230.315 I   1.187 J   1.921
G3 X 105.405 Y 230.633 I  -0.075 J   3.643
G3 X 106.317 Y 231.390 I  -0.904 J   2.016
G3 X 106.340 Y 232.259 I  -0.652 J   0.452
G2 X 106.151 Y 232.628 I   2.226 J   1.376
G2 X 106.182 Y 232.815 I   0.164 J   0.068
G2 X 106.359 Y 232.856 I   0.118 J  -0.106
G2 X 106.715 Y 232.676 I  -0.860 J  -2.147
G3 X 107.295 Y 232.590 I   0.390 J   0.630
G3 X 108.272 Y 232.945 I  -1.508 J   5.670
G3 X 109.415 Y 233.594 I  -3.536 J   7.564
G3 X 110.577 Y 234.481 I  -7.129 J  10.536
G2 X 111.690 Y 235.390 I  18.455 J -21.477
G2 X 112.686 Y 236.098 I   9.092 J -11.737
G2 X 113.508 Y 236.597 I   8.357 J -12.846
G2 X 113.773 Y 236.561 I   0.109 J  -0.192
G2 X 113.875 Y 236.267 I  -0.253 J  -0.253
G2 X 113.729 Y 235.176 I -26.675 J   3.021
G2 X 113.482 Y 233.853 I -21.493 J   3.332
G2 X 113.120 Y 232.351 I -36.700 J   8.041
G3 X 112.711 Y 230.135 I  14.676 J  -3.854
G3 X 112.327 Y 226.055 I 143.495 J -15.582
G3 X 112.016 Y 221.268 I 158.645 J -12.682
G3 X 111.839 Y 216.324 I 179.865 J  -8.935
G2 X 111.684 Y 211.685 I-208.428 J   4.620
G2 X 111.439 Y 207.854 I -98.102 J   4.361
G2 X 111.150 Y 204.733 I-176.707 J  14.793
G2 X 110.857 Y 204.589 I  -0.192 J   0.019
G3 X 110.127 Y 204.413 I  -0.278 J  -0.450
G3 X 109.515 Y 202.967 I   4.644 J  -2.818
G3 X 109.253 Y 201.104 I   7.874 J  -2.055
G3 X 109.596 Y 199.759 I   2.573 J  -0.061
G2 X 109.837 Y 199.304 I  -6.595 J  -3.797
G2 X 109.875 Y 199.080 I  -0.357 J  -0.174
G2 X 109.779 Y 199.033 I  -0.064 J   0.008
G2 X 109.527 Y 199.216 I   0.750 J   1.293
G3 X 108.588 Y 199.166 I  -0.444 J  -0.492
G3 X 105.753 Y 195.829 I  67.212 J -59.975
G3 X 103.141 Y 192.364 I  49.718 J -40.202
G3 X 102.479 Y 190.500 I   3.024 J  -2.123
G2 X 102.359 Y 190.138 I  -0.763 J   0.054
G2 X 102.076 Y 189.867 I  -0.714 J   0.461
G2 X 101.670 Y 189.730 I  -0.531 J   0.902
G2 X 101.205 Y 189.750 I  -0.172 J   1.434
G3 X 100.504 Y 189.631 I  -0.198 J  -0.954
G3 X 100.008 Y 189.058 I   0.632 J  -1.049
G3 X  99.796 Y 188.035 I   2.483 J  -1.049
G3 X  99.906 Y 186.676 I   7.529 J  -0.070
G2 X  99.865 Y 186.423 I  -0.384 J  -0.067
G2 X  99.681 Y 186.295 I  -0.219 J   0.119
G2 X  99.355 Y 186.332 I  -0.092 J   0.648
G2 X  98.938 Y 186.538 I   0.883 J   2.309
G3 X  98.299 Y 186.601 I  -0.384 J  -0.621
G3 X  97.172 Y 186.072 I   2.681 J  -7.173
G3 X  95.847 Y 185.177 I   5.406 J  -9.434
G3 X  94.487 Y 183.987 I  10.952 J -13.894
G1 X  91.146 Y 180.749
G1 X  93.303 Y 177.458
G3 X  94.188 Y 176.232 I  14.138 J   9.268
G3 X  95.060 Y 175.278 I   7.144 J   5.656
G3 X  95.816 Y 174.668 I   4.197 J   4.424
G3 X  96.255 Y 174.658 I   0.228 J   0.333
G2 X  96.541 Y 174.786 I   0.633 J  -1.024
G2 X  96.736 Y 174.756 I   0.066 J  -0.219
G2 X  96.822 Y 174.591 I  -0.111 J  -0.163
G2 X  96.775 Y 174.304 I  -0.958 J   0.009
G3 X  96.815 Y 173.011 I   1.818 J  -0.591
G3 X  98.475 Y 169.009 I 117.093 J  46.235
G3 X 100.262 Y 165.123 I  95.490 J  41.558
G3 X 101.308 Y 163.888 I   2.928 J   1.420
G2 X 101.632 Y 163.607 I  -1.258 J  -1.775
G2 X 101.892 Y 163.269 I  -1.554 J  -1.467
G2 X 102.056 Y 162.927 I  -1.468 J  -0.913
G2 X 102.085 Y 162.638 I  -0.588 J  -0.206
G3 X 101.952 Y 160.986 I  15.704 J  -2.102
G3 X 102.116 Y 159.936 I   2.917 J  -0.083
G3 X 102.544 Y 159.520 I   0.632 J   0.222
G3 X 103.155 Y 159.595 I   0.223 J   0.702
G2 X 103.582 Y 159.825 I   2.072 J  -3.352
G2 X 103.799 Y 159.815 I   0.099 J  -0.216
G2 X 103.858 Y 159.651 I  -0.067 J  -0.116
G2 X 103.681 Y 159.292 I  -1.963 J   0.745
G3 X 103.532 Y 158.654 I   0.875 J  -0.541
G3 X 103.723 Y 157.337 I  13.394 J   1.275
G3 X 104.119 Y 155.751 I  15.716 J   3.085
G3 X 104.707 Y 154.064 I  21.821 J   6.653
G1 X 106.362 Y 149.851
G1 X 107.812 Y 155.176
G3 X 108.374 Y 157.337 I -90.837 J  24.750
G3 X 108.861 Y 159.428 I -78.177 J  19.321
G3 X 109.230 Y 161.217 I -72.392 J  15.856
G3 X 109.346 Y 162.177 I  -6.702 J   1.296
G2 X 109.434 Y 162.785 I   3.245 J  -0.160
G2 X 109.635 Y 163.218 I   1.194 J  -0.290
G2 X 109.910 Y 163.410 I   0.416 J  -0.303
G2 X 110.214 Y 163.368 I   0.104 J  -0.366
G3 X 110.512 Y 163.301 I   0.245 J   0.396
G3 X 110.769 Y 163.438 I  -0.045 J   0.395
G3 X 110.943 Y 163.786 I  -0.620 J   0.528
G3 X 111.000 Y 164.291 I  -2.217 J   0.505
G2 X 111.827 Y 167.052 I   5.025 J  -0.000
G2 X 114.882 Y 171.124 I  34.473 J -22.675
G2 X 119.120 Y 175.534 I  38.589 J -32.853
G2 X 124.072 Y 179.645 I  42.066 J -45.632
G3 X 126.895 Y 181.852 I -47.117 J  63.149
G3 X 129.220 Y 183.899 I -27.975 J  34.138
G3 X 130.998 Y 185.661 I -35.354 J  37.444
G3 X 131.167 Y 186.343 I  -0.507 J   0.488
G2 X 131.081 Y 186.748 I   2.742 J   0.790
G2 X 131.141 Y 186.950 I   0.254 J   0.035
G2 X 131.298 Y 186.977 I   0.094 J  -0.081
G2 X 131.548 Y 186.785 I  -0.597 J  -1.039
G3 X 132.570 Y 186.490 I   0.779 J   0.779
G3 X 134.152 Y 187.107 I  -1.260 J   5.571
G3 X 135.398 Y 188.122 I  -2.464 J   4.296
G3 X 135.476 Y 189.039 I  -0.578 J   0.511
G2 X 135.391 Y 189.342 I   0.485 J   0.300
G2 X 135.522 Y 189.527 I   0.197 J  -0.001
G2 X 135.888 Y 189.549 I   0.223 J  -0.631
G2 X 136.448 Y 189.382 I  -0.825 J  -3.778
G3 X 137.042 Y 189.235 I   0.879 J   2.291
G3 X 137.544 Y 189.286 I   0.136 J   1.162
G3 X 137.874 Y 189.521 I  -0.214 J   0.651
G3 X 138.000 Y 189.893 I  -0.487 J   0.372
G2 X 138.111 Y 190.315 I   0.857 J   0.000
G2 X 138.424 Y 190.675 I   1.040 J  -0.589
G2 X 138.892 Y 190.917 I   0.909 J  -1.186
G2 X 139.443 Y 191.000 I   0.551 J  -1.783
G3 X 140.107 Y 191.155 I   0.000 J   1.493
G3 X 140.920 Y 191.653 I  -2.392 J   4.824
G3 X 141.741 Y 192.372 I  -3.977 J   5.368
G3 X 142.443 Y 193.223 I  -4.999 J   4.844
G2 X 143.043 Y 194.014 I  10.904 J  -7.637
G2 X 143.543 Y 194.515 I   2.772 J  -2.267
G2 X 143.850 Y 194.639 I   0.352 J  -0.428
G2 X 144.000 Y 194.500 I   0.011 J  -0.139
G3 X 144.143 Y 194.352 I   0.148 J  -0.000
G3 X 144.429 Y 194.445 I   0.015 J   0.440
G3 X 144.898 Y 194.901 I  -1.853 J   2.374
G3 X 145.460 Y 195.640 I  -9.016 J   7.448
G2 X 146.237 Y 196.529 I   4.544 J  -3.182
G2 X 147.384 Y 197.482 I   9.429 J -10.192
G2 X 148.689 Y 198.349 I   8.875 J -11.943
G2 X 149.960 Y 198.984 I   5.129 J  -8.680
G3 X 151.124 Y 199.571 I  -3.320 J   8.015
G3 X 152.107 Y 200.295 I  -3.461 J   5.733
G3 X 152.789 Y 201.040 I  -3.228 J   3.638
G3 X 153.000 Y 201.680 I  -0.865 J   0.640
G2 X 153.067 Y 202.190 I   1.976 J   0.000
G2 X 153.268 Y 202.530 I   0.708 J  -0.189
G2 X 153.566 Y 202.651 I   0.301 J  -0.315
G2 X 153.912 Y 202.554 I   0.005 J  -0.649
G2 X 154.213 Y 202.150 I  -0.359 J  -0.580
G2 X 154.339 Y 201.350 I  -3.748 J  -1.000
G2 X 154.300 Y 200.338 I  -5.634 J  -0.291
G2 X 154.083 Y 199.245 I  -8.152 J   1.051
G3 X 153.826 Y 197.898 I   8.810 J  -2.380
G3 X 153.875 Y 196.840 I   3.307 J  -0.377
G3 X 154.237 Y 195.980 I   2.390 J   0.499
G3 X 154.921 Y 195.236 I   2.763 J   1.852
G2 X 155.780 Y 194.526 I -22.888 J -28.588
G2 X 155.918 Y 194.262 I  -0.260 J  -0.305
G2 X 155.786 Y 194.129 I  -0.120 J  -0.012
G2 X 155.024 Y 194.236 I   0.984 J   9.856
G3 X 154.409 Y 194.174 I  -0.199 J  -1.114
G3 X 153.863 Y 193.799 I   0.541 J  -1.371
G3 X 153.445 Y 193.134 I   1.613 J  -1.478
G3 X 153.204 Y 192.250 I   3.715 J  -1.488
G2 X 153.016 Y 191.388 I  -6.806 J   1.038
G2 X 152.732 Y 190.661 I  -4.081 J   1.172
G2 X 152.403 Y 190.154 I  -2.436 J   1.218
G2 X 152.079 Y 190.000 I  -0.324 J   0.266
G3 X 151.702 Y 189.751 I   0.000 J  -0.410
G3 X 151.001 Y 188.017 I  42.558 J -18.222
G3 X 150.249 Y 185.837 I  33.525 J -12.778
G3 X 149.506 Y 183.250 I  63.425 J -19.611
G2 X 148.749 Y 180.574 I -81.519 J  21.627
G2 X 147.953 Y 178.116 I -60.161 J  18.103
G2 X 147.212 Y 176.089 I -58.584 J  20.291
G2 X 146.735 Y 175.250 I  -3.044 J   1.175
G3 X 146.402 Y 174.770 I   3.914 J  -3.069
G3 X 146.226 Y 174.367 I   1.401 J  -0.854
G3 X 146.229 Y 174.110 I   0.433 J  -0.124
G3 X 146.378 Y 174.000 I   0.149 J   0.046
G2 X 146.482 Y 173.860 I   0.000 J  -0.109
G2 X 146.303 Y 173.457 I  -1.639 J   0.489
G2 X 145.879 Y 172.862 I  -4.356 J   2.658
G2 X 145.250 Y 172.152 I -10.914 J   9.032
G3 X 143.203 Y 169.787 I  25.294 J -23.956
G3 X 141.332 Y 167.200 I  29.699 J -23.454
G3 X 139.865 Y 164.825 I  37.879 J -25.036
G3 X 139.750 Y 163.831 I   1.094 J  -0.630
G2 X 139.789 Y 163.526 I  -0.897 J  -0.270
G2 X 139.706 Y 163.291 I  -0.420 J   0.016
G2 X 139.516 Y 163.164 I  -0.273 J   0.203
G2 X 139.250 Y 163.159 I  -0.144 J   0.573
G3 X 137.991 Y 163.093 I  -0.506 J  -2.390
G3 X 136.543 Y 162.401 I   1.885 J  -5.814
G3 X 135.380 Y 161.397 I   3.104 J  -4.770
G3 X 135.000 Y 160.393 I   1.138 J  -1.004
G2 X 134.894 Y 159.861 I  -1.382 J   0.000
G2 X 134.591 Y 159.409 I  -1.295 J   0.540
G2 X 134.139 Y 159.106 I  -0.992 J   0.992
G2 X 133.607 Y 159.000 I  -0.532 J   1.276
G3 X 133.038 Y 158.906 I   0.000 J  -1.766
G3 X 132.481 Y 158.631 I   0.763 J  -2.244
G3 X 132.020 Y 158.223 I   1.296 J  -1.933
G3 X 131.731 Y 157.742 I   1.222 J  -1.060
G2 X 131.249 Y 157.148 I  -1.153 J   0.442
G2 X 129.812 Y 156.299 I -11.214 J  17.339
G2 X 127.968 Y 155.410 I -10.992 J  20.450
G2 X 125.874 Y 154.594 I -13.260 J  30.931
G3 X 123.725 Y 153.799 I  23.564 J -66.992
G3 X 121.712 Y 152.973 I  20.922 J -53.863
G3 X 120.038 Y 152.215 I  21.376 J -49.429
G3 X 119.250 Y 151.729 I   1.807 J  -3.815
G2 X 118.770 Y 151.401 I  -2.861 J   3.671
G2 X 118.367 Y 151.234 I  -0.774 J   1.300
G2 X 118.110 Y 151.251 I  -0.103 J   0.407
G2 X 118.000 Y 151.413 I   0.064 J   0.162
G3 X 117.847 Y 151.582 I  -0.170 J   0.000
G3 X 117.404 Y 151.558 I  -0.145 J  -1.434
G3 X 116.750 Y 151.355 I   0.754 J  -3.573
G3 X 115.972 Y 150.985 I   3.472 J  -8.311
G3 X 115.238 Y 150.501 I   2.256 J  -4.215
G3 X 114.710 Y 149.943 I   1.758 J  -2.194
G3 X 114.457 Y 149.402 I   1.328 J  -0.950
G3 X 114.524 Y 148.961 I   0.550 J  -0.142
G2 X 114.623 Y 148.652 I  -0.572 J  -0.353
G2 X 114.507 Y 148.462 I  -0.193 J  -0.013
G2 X 114.174 Y 148.427 I  -0.222 J   0.506
G2 X 113.653 Y 148.580 I   0.673 J   3.264
G3 X 113.042 Y 148.700 I  -0.653 J  -1.701
G3 X 112.406 Y 148.614 I  -0.046 J  -2.038
G3 X 111.845 Y 148.339 I   0.559 J  -1.851
G3 X 111.447 Y 147.914 I   0.851 J  -1.197
G3 X 111.150 Y 147.379 I   5.515 J  -3.408
G3 X 111.196 Y 147.188 I   0.138 J  -0.068
G3 X 111.417 Y 147.169 I   0.125 J   0.167
G3 X 112.000 Y 147.500 I  -4.083 J   7.881
G2 X 112.571 Y 147.823 I   4.459 J  -7.215
G2 X 112.801 Y 147.814 I   0.107 J  -0.208
G2 X 112.854 Y 147.633 I  -0.074 J  -0.120
G2 X 112.585 Y 147.138 I  -4.563 J   2.159
G2 X 112.230 Y 146.740 I  -1.302 J   0.805
G2 X 111.768 Y 146.501 I  -0.858 J   1.090
G2 X 111.272 Y 146.456 I  -0.359 J   1.203
G2 X 110.819 Y 146.612 I   0.119 J   1.082
G3 X 109.339 Y 146.168 I  -0.543 J  -0.879
G3 X 108.831 Y 143.463 I   5.066 J  -2.350
G3 X 109.681 Y 138.611 I  22.440 J   1.429
G3 X 111.676 Y 133.154 I  41.396 J  12.043
G2 X 112.327 Y 131.583 I -30.512 J -13.552
G2 X 112.939 Y 129.882 I -39.744 J -15.279
G2 X 113.434 Y 128.301 I -36.491 J -12.277
G2 X 113.698 Y 127.145 I -10.008 J  -2.894
G3 X 113.986 Y 125.820 I  14.431 J   2.443
G3 X 114.643 Y 123.437 I 135.679 J  36.155
G3 X 115.462 Y 120.666 I 148.129 J  42.279
G3 X 116.357 Y 117.828 I 165.808 J  50.706
G3 X 117.868 Y 113.274 I 355.097 J 115.294
G3 X 118.474 Y 112.168 I   3.440 J   1.166
G3 X 119.041 Y 112.179 I   0.279 J   0.224
G3 X 119.822 Y 113.508 I  -5.993 J   4.414
G3 X 120.244 Y 114.581 I -10.049 J   4.579
G3 X 120.519 Y 115.620 I  -7.922 J   2.652
G3 X 120.631 Y 116.497 I  -6.407 J   1.260
G3 X 120.506 Y 116.990 I  -0.841 J   0.050
G2 X 120.366 Y 117.336 I   0.956 J   0.591
G2 X 120.362 Y 117.681 I   0.811 J   0.181
G2 X 120.496 Y 117.971 I   0.680 J  -0.137
G2 X 120.744 Y 118.165 I   0.511 J  -0.400
G3 X 121.125 Y 118.480 I  -0.372 J   0.838
G3 X 121.770 Y 119.466 I -17.108 J  11.881
G3 X 122.478 Y 120.713 I -18.201 J  11.169
G3 X 123.174 Y 122.126 I -27.566 J  14.466
G3 X 123.952 Y 123.990 I -24.369 J  11.255
G3 X 124.250 Y 125.267 I  -4.799 J   1.792
G3 X 124.150 Y 126.238 I  -2.406 J   0.243
G3 X 123.674 Y 127.077 I  -2.211 J  -0.697
G2 X 123.018 Y 127.830 I  51.470 J  45.580
G2 X 123.051 Y 127.904 I   0.034 J   0.029
G2 X 123.231 Y 127.845 I   0.001 J  -0.298
G2 X 124.250 Y 127.079 I-102.354 J-137.377
G3 X 125.089 Y 126.499 I   7.242 J   9.571
G3 X 125.599 Y 126.329 I   0.603 J   0.955
G3 X 125.887 Y 126.486 I   0.024 J   0.298
G3 X 126.000 Y 126.937 I  -0.845 J   0.451
G2 X 126.077 Y 127.340 I   1.101 J   0.000
G2 X 126.294 Y 127.589 I   0.460 J  -0.181
G2 X 126.619 Y 127.645 I   0.240 J  -0.426
G2 X 127.000 Y 127.500 I  -0.186 J  -1.064
G3 X 127.390 Y 127.367 I   0.484 J   0.782
G3 X 127.741 Y 127.448 I   0.057 J   0.557
G3 X 127.997 Y 127.738 I  -0.352 J   0.570
G3 X 128.118 Y 128.191 I  -1.255 J   0.578
G2 X 128.167 Y 128.729 I 715.220 J -64.702
G2 X 128.216 Y 129.262 I 694.739 J -63.376
G2 X 128.259 Y 129.725 I 622.481 J -57.266
G2 X 128.285 Y 130.000 I  85.062 J  -7.889
G2 X 128.639 Y 130.750 I   1.219 J  -0.117
G2 X 130.668 Y 132.706 I  59.527 J -59.714
G2 X 132.696 Y 134.534 I  55.172 J -59.175
G2 X 133.000 Y 134.396 I   0.120 J  -0.138
G3 X 133.153 Y 134.296 I   0.109 J  -0.000
G3 X 133.893 Y 134.656 I  -4.107 J   9.387
G3 X 134.874 Y 135.236 I  -6.557 J  12.211
G3 X 136.041 Y 136.030 I -17.559 J  27.092
G3 X 137.675 Y 137.282 I -16.907 J  23.743
G3 X 138.309 Y 138.103 I  -1.486 J   1.803
G3 X 138.341 Y 138.882 I  -0.926 J   0.428
G3 X 137.809 Y 139.848 I  -3.397 J  -1.243
G2 X 137.120 Y 140.759 I  45.333 J  34.958
G2 X 137.173 Y 140.849 I   0.045 J   0.034
G2 X 137.417 Y 140.742 I  -0.063 J  -0.475
G2 X 138.605 Y 139.742 I-114.231 J-136.925
G3 X 139.918 Y 138.719 I  12.710 J  14.968
G3 X 140.640 Y 138.514 I   0.649 J   0.911
G3 X 141.328 Y 138.810 I  -0.072 J   1.112
G3 X 142.493 Y 139.992 I -13.235 J  14.214
G2 X 143.306 Y 140.761 I   5.336 J  -4.829
G2 X 144.245 Y 141.412 I   4.912 J  -6.079
G2 X 145.165 Y 141.863 I   3.365 J  -5.701
G2 X 145.905 Y 142.006 I   0.748 J  -1.882
G3 X 146.710 Y 142.107 I  -0.013 J   3.350
G3 X 147.870 Y 142.448 I  -3.807 J  15.124
G3 X 149.144 Y 142.931 I  -5.705 J  16.980
G3 X 150.354 Y 143.501 I  -6.473 J  15.300
G2 X 152.302 Y 144.323 I   6.020 J -11.543
G2 X 153.759 Y 144.451 I   1.002 J  -3.043
G2 X 154.648 Y 143.916 I  -0.190 J  -1.320
G2 X 155.000 Y 142.834 I  -1.487 J  -1.082
G2 X 154.860 Y 142.489 I  -0.496 J   0.000
G2 X 154.497 Y 142.285 I  -0.523 J   0.509
G2 X 153.942 Y 142.268 I  -0.323 J   1.430
G2 X 153.280 Y 142.446 I   0.524 J   3.268
G3 X 152.657 Y 142.659 I  -3.227 J  -8.409
G3 X 152.261 Y 142.717 I  -0.394 J  -1.304
G3 X 152.157 Y 142.620 I   0.000 J  -0.104
G3 X 152.223 Y 142.444 I   0.227 J  -0.015
G2 X 152.387 Y 141.941 I  -0.413 J  -0.413
G2 X 152.109 Y 140.501 I -19.667 J   3.054
G2 X 151.616 Y 138.733 I -20.279 J   4.700
G2 X 150.906 Y 136.761 I -33.495 J  10.951
G3 X 150.178 Y 134.806 I  51.066 J -20.128
G3 X 149.632 Y 133.091 I  28.807 J -10.108
G3 X 149.252 Y 131.666 I  39.606 J -11.324
G3 X 149.349 Y 131.317 I   0.357 J  -0.088
G3 X 150.274 Y 131.362 I   0.442 J   0.442
G3 X 151.876 Y 133.610 I -15.274 J  12.581
G3 X 153.238 Y 136.214 I -18.550 J  11.357
G3 X 153.274 Y 137.728 I  -1.821 J   0.801
G2 X 153.045 Y 138.437 I   6.438 J   2.471
G2 X 153.107 Y 138.757 I   0.363 J   0.096
G2 X 153.363 Y 138.830 I   0.176 J  -0.131
G2 X 153.897 Y 138.564 I  -1.200 J  -3.072
G3 X 154.424 Y 138.332 I   1.094 J   1.769
G3 X 154.749 Y 138.422 I   0.088 J   0.312
G3 X 154.893 Y 138.802 I  -0.392 J   0.367
G3 X 154.817 Y 139.546 I  -4.854 J  -0.123
G2 X 154.790 Y 140.246 I   2.464 J   0.447
G2 X 154.960 Y 140.908 I   2.256 J  -0.229
G2 X 155.297 Y 141.430 I   1.707 J  -0.729
G2 X 155.750 Y 141.730 I   0.820 J  -0.749
G2 X 156.574 Y 141.582 I   0.281 J  -0.803
G2 X 156.965 Y 140.768 I  -0.691 J  -0.834
G2 X 156.681 Y 139.444 I  -2.965 J  -0.056
G2 X 155.817 Y 138.217 I  -3.970 J   1.878
G3 X 155.129 Y 137.309 I   2.947 J  -2.947
G3 X 155.114 Y 136.609 I   0.650 J  -0.364
G3 X 155.631 Y 136.378 I   0.400 J   0.202
G3 X 156.529 Y 136.805 I  -0.735 J   2.704
G3 X 157.011 Y 137.274 I  -1.312 J   1.830
G3 X 157.734 Y 138.285 I -17.900 J  13.581
G3 X 158.520 Y 139.525 I -20.891 J  14.101
G3 X 159.268 Y 140.864 I -25.733 J  15.266
G1 X 161.037 Y 144.226
G1 X 158.580 Y 143.609
G2 X 156.799 Y 143.468 I  -1.310 J   5.218
G2 X 155.558 Y 144.045 I   0.176 J   2.002
G2 X 155.243 Y 145.095 I   0.811 J   0.815
G2 X 155.887 Y 146.287 I   2.319 J  -0.483
G2 X 156.431 Y 146.777 I   4.972 J  -4.972
G2 X 156.750 Y 146.867 I   0.264 J  -0.326
G2 X 156.944 Y 146.687 I  -0.030 J  -0.227
G2 X 157.000 Y 146.141 I  -2.639 J  -0.546
G3 X 157.090 Y 145.687 I   1.189 J   0.000
G3 X 157.343 Y 145.442 I   0.410 J   0.169
G3 X 157.739 Y 145.430 I   0.215 J   0.566
G3 X 158.250 Y 145.666 I  -0.664 J   2.108
G2 X 158.849 Y 145.947 I   1.444 J  -2.303
G2 X 159.620 Y 146.140 I   1.740 J  -5.318
G2 X 160.433 Y 146.224 I   1.010 J  -5.745
G2 X 161.160 Y 146.177 I   0.126 J  -3.710
G3 X 161.920 Y 146.238 I   0.257 J   1.566
G3 X 162.836 Y 146.660 I  -1.465 J   4.388
G3 X 163.755 Y 147.344 I  -2.982 J   4.967
G3 X 164.533 Y 148.202 I  -4.084 J   4.484
G2 X 165.355 Y 149.272 I  37.660 J -28.079
G2 X 165.703 Y 149.541 I   0.716 J  -0.566
G2 X 165.838 Y 149.430 I   0.039 J  -0.090
G2 X 165.629 Y 148.685 I  -6.895 J   1.526
G3 X 165.401 Y 147.805 I   5.838 J  -1.983
G3 X 165.519 Y 147.361 I   0.530 J  -0.096
G3 X 165.924 Y 147.196 I   0.361 J   0.304
G3 X 166.756 Y 147.347 I  -0.451 J   4.832
G2 X 167.673 Y 147.573 I   4.758 J -17.352
G2 X 169.085 Y 147.870 I  19.754 J -90.407
G2 X 170.677 Y 148.179 I  20.565 J-101.698
G2 X 172.235 Y 148.455 I  17.180 J -92.367
G2 X 174.259 Y 148.749 I   7.396 J -43.860
G2 X 175.156 Y 148.676 I   0.271 J  -2.227
G2 X 175.480 Y 148.284 I  -0.126 J  -0.434
G2 X 175.378 Y 147.542 I  -1.634 J  -0.154
G2 X 175.085 Y 146.952 I  -3.247 J   1.246
G2 X 174.695 Y 146.453 I  -2.527 J   1.571
G2 X 174.272 Y 146.111 I  -1.612 J   1.562
G2 X 173.884 Y 146.000 I  -0.389 J   0.622
G3 X 172.816 Y 145.431 I   0.000 J  -1.286
G3 X 169.787 Y 140.788 I 174.147 J-116.919
G3 X 166.903 Y 136.090 I 163.473 J-103.593
G3 X 166.755 Y 134.750 I   1.401 J  -0.833
G2 X 166.764 Y 134.486 I  -0.455 J  -0.149
G2 X 166.627 Y 134.294 I  -0.310 J   0.077
G2 X 166.349 Y 134.209 I  -0.289 J   0.451
G2 X 165.975 Y 134.250 I  -0.032 J   1.447
G3 X 165.468 Y 134.154 I  -0.148 J  -0.606
G3 X 164.744 Y 133.545 I   3.165 J  -4.498
G3 X 163.960 Y 132.631 I   5.544 J  -5.544
G3 X 163.225 Y 131.500 I   9.913 J  -7.252
G2 X 162.473 Y 130.293 I -17.405 J  10.006
G2 X 161.639 Y 129.146 I -16.423 J  11.058
G2 X 160.844 Y 128.203 I -13.488 J  10.559
G2 X 160.250 Y 127.700 I  -2.179 J   1.975
G3 X 159.772 Y 127.334 I   1.917 J  -2.997
G3 X 159.367 Y 126.895 I   2.306 J  -2.533
G3 X 159.088 Y 126.453 I   2.179 J  -1.683
G3 X 159.000 Y 126.082 I   0.735 J  -0.371
G2 X 158.129 Y 124.050 I  -2.805 J  -0.000
G2 X 153.212 Y 119.606 I -87.731 J  92.128
G2 X 147.754 Y 115.292 I -56.621 J  66.029
G2 X 143.000 Y 112.361 I -21.526 J  29.595
G2 X 139.177 Y 110.545 I -29.859 J  57.906
G2 X 136.326 Y 109.588 I  -6.885 J  15.792
G2 X 133.328 Y 109.134 I  -4.130 J  17.146
G2 X 129.000 Y 108.990 I  -4.518 J  70.267
G3 X 126.044 Y 108.928 I   0.221 J -81.903
G3 X 123.367 Y 108.759 I   2.155 J -55.512
G3 X 121.156 Y 108.525 I   5.180 J -59.333
G3 X 120.354 Y 108.235 I   0.239 J  -1.913
G3 X 119.890 Y 107.478 I   0.550 J  -0.858
G3 X 119.868 Y 105.809 I   9.659 J  -0.965
G3 X 120.200 Y 103.229 I  23.383 J   1.702
G3 X 121.011 Y  99.203 I 133.151 J  24.734
G2 X 121.754 Y  95.582 I-152.357 J -33.110
G2 X 122.492 Y  91.558 I-229.501 J -44.204
G2 X 123.123 Y  87.743 I-215.333 J -37.579
G2 X 123.520 Y  84.830 I -73.466 J -11.485
G1 X 124.225 Y  78.754
G1 X 126.662 Y  81.627
G2 X 130.357 Y  85.852 I 142.195 J-120.633
G2 X 133.157 Y  88.718 I  37.191 J -33.527
G2 X 135.301 Y  90.560 I  20.501 J -21.696
G2 X 136.581 Y  91.000 I   1.281 J  -1.642
G3 X 137.123 Y  91.115 I   0.000 J   1.334
G3 X 137.583 Y  91.441 I  -0.583 J   1.313
G3 X 137.892 Y  91.927 I  -1.095 J   1.036
G3 X 138.000 Y  92.500 I  -1.464 J   0.573
G2 X 138.055 Y  93.060 I   2.892 J   0.000
G2 X 138.220 Y  93.503 I   1.431 J  -0.283
G2 X 138.465 Y  93.762 I   0.657 J  -0.377
G2 X 138.750 Y  93.809 I   0.196 J  -0.302
G3 X 140.167 Y  93.836 I   0.659 J   2.585
G3 X 145.788 Y  95.552 I -99.585 J 336.135
G3 X 151.587 Y  97.408 I-186.369 J 592.410
G3 X 152.000 Y  97.977 I  -0.185 J   0.569
G2 X 152.353 Y  98.338 I   0.361 J   0.000
G2 X 157.114 Y  98.410 I   8.803 J-426.811
G2 X 161.652 Y  98.402 I   1.916 J-202.273
G2 X 163.000 Y  98.081 I  -0.041 J  -3.169
G3 X 163.591 Y  97.890 I   0.969 J   1.987
G3 X 165.603 Y  97.556 I  24.679 J 142.241
G3 X 168.121 Y  97.183 I  18.935 J 119.102
G3 X 171.177 Y  96.781 I  35.042 J 255.020
G2 X 171.787 Y  96.649 I  -0.433 J  -3.460
G2 X 172.229 Y  96.420 I  -0.431 J  -1.374
G2 X 172.435 Y  96.138 I  -0.373 J  -0.490
G2 X 172.404 Y  95.845 I  -0.319 J  -0.114
G3 X 172.463 Y  94.964 I   0.647 J  -0.400
G3 X 174.136 Y  93.114 I  19.343 J  15.811
G3 X 176.023 Y  91.428 I  15.835 J  15.828
G3 X 177.248 Y  91.000 I   1.224 J   1.538
G2 X 177.528 Y  90.918 I  -0.000 J  -0.521
G2 X 177.681 Y  90.706 I  -0.190 J  -0.299
G2 X 177.673 Y  90.383 I  -0.585 J  -0.148
G2 X 177.500 Y  90.000 I  -1.561 J   0.475
G2 X 177.079 Y  89.614 I  -0.893 J   0.552
G2 X 176.273 Y  89.291 I  -2.293 J   4.551
G2 X 175.266 Y  89.068 I  -1.929 J   6.327
G2 X 174.191 Y  88.991 I  -1.102 J   7.823
G3 X 171.513 Y  88.529 I   0.028 J  -8.153
G3 X 166.978 Y  86.761 I  24.109 J -68.538
G3 X 162.539 Y  84.746 I  45.919 J-107.039
G3 X 162.400 Y  83.933 I   0.219 J  -0.456
G2 X 162.376 Y  83.756 I  -0.079 J  -0.079
G2 X 161.957 Y  83.582 I  -0.913 J   1.611
G2 X 161.233 Y  83.437 I  -1.383 J   5.001
G2 X 160.285 Y  83.348 I  -1.788 J  13.958
G3 X 159.265 Y  83.227 I   0.529 J  -8.842
G3 X 158.305 Y  82.991 I   1.330 J  -7.486
G3 X 157.526 Y  82.685 I   1.830 J  -5.793
G3 X 157.119 Y  82.348 I   0.462 J  -0.972
G2 X 156.536 Y  81.998 I  -0.705 J   0.515
G2 X 153.796 Y  81.649 I -14.341 J 101.742
G2 X 150.485 Y  81.352 I  -7.939 J  69.864
G2 X 146.676 Y  81.161 I  -8.004 J 121.346
G3 X 141.807 Y  80.890 I   3.994 J-115.733
G3 X 138.028 Y  80.434 I   3.342 J -43.541
G3 X 134.934 Y  79.747 I   4.737 J -28.658
G3 X 132.214 Y  78.770 I   5.434 J -19.411
G3 X 127.811 Y  76.602 I  24.179 J -54.661
G3 X 126.106 Y  74.923 I   2.077 J  -3.814
G3 X 125.573 Y  72.617 I   3.643 J  -2.056
G3 X 126.067 Y  67.879 I  53.848 J   3.218
G2 X 126.491 Y  64.031 I -50.131 J  -7.476
G2 X 127.025 Y  55.994 I-762.878 J -54.749
G2 X 127.551 Y  46.464 I-789.199 J -48.290
G2 X 127.994 Y  36.377 I-988.645 J -48.523
G3 X 128.407 Y  26.507 I1653.957 J  64.271
G3 X 128.841 Y  17.642 I1079.266 J  48.391
G3 X 129.256 Y  10.192 I1430.626 J  75.927
G3 X 129.507 Y   7.877 I  23.432 J   1.366
G2 X 129.716 Y   5.851 I -18.462 J  -2.932
G2 X 129.434 Y   4.838 I  -1.670 J  -0.081
G2 X 128.590 Y   4.148 I  -1.560 J   1.048
G2 X 126.494 Y   3.391 I  -9.686 J  23.522
G2 X 124.885 Y   2.958 I  -6.132 J  19.615
G2 X 123.671 Y   2.809 I  -1.354 J   6.004
G2 X 122.814 Y   2.919 I  -0.066 J   2.877
G2 X 122.318 Y   3.295 I   0.237 J   0.829
G2 X 122.139 Y   3.661 I   1.731 J   1.070
G2 X 122.208 Y   3.816 I   0.114 J   0.042
G2 X 122.451 Y   3.807 I   0.111 J  -0.278
G2 X 122.934 Y   3.541 I  -2.411 J  -4.949
G3 X 123.587 Y   3.875 I   0.225 J   0.365
G3 X 123.800 Y   8.281 I -92.713 J   6.694
G3 X 123.831 Y  15.537 I-178.459 J   4.393
G3 X 123.564 Y  29.136 I-1889.937 J -30.312
G3 X 123.043 Y  47.146 I-1578.959 J -36.692
G3 X 122.398 Y  60.432 I-480.350 J -16.647
G3 X 121.686 Y  70.676 I-724.821 J -45.226
G3 X 120.860 Y  72.474 I  -2.841 J  -0.218
G3 X 119.795 Y  72.673 I  -0.678 J  -0.678
G3 X 116.230 Y  70.979 I  28.934 J -65.501
G3 X 112.789 Y  69.037 I  21.021 J -41.270
G3 X 110.930 Y  67.416 I   4.066 J  -6.538
G2 X 108.630 Y  65.593 I  -5.474 J   4.543
G2 X 104.012 Y  63.551 I -24.348 J  48.834
G2 X  99.254 Y  61.942 I -20.695 J  53.365
G2 X  96.638 Y  61.873 I  -1.440 J   4.966
G3 X  96.211 Y  61.831 I  -0.151 J  -0.646
G3 X  95.617 Y  61.491 I   1.564 J  -3.421
G3 X  94.973 Y  60.957 I   2.942 J  -4.201
G3 X  94.373 Y  60.287 I   4.784 J  -4.893
G2 X  93.814 Y  59.632 I  -8.357 J   6.556
G2 X  93.436 Y  59.374 I  -0.745 J   0.689
G2 X  93.250 Y  59.468 I  -0.051 J   0.131
G2 X  93.236 Y  59.846 I   0.794 J   0.219
G3 X  93.166 Y  60.427 I  -0.930 J   0.183
G3 X  92.746 Y  61.058 I  -2.264 J  -1.048
G3 X  92.060 Y  61.642 I  -2.618 J  -2.383
G3 X  91.199 Y  62.083 I  -2.543 J  -3.908
G3 X  90.327 Y  62.376 I  -3.758 J  -9.709
G3 X  89.715 Y  62.465 I  -0.626 J  -2.171
G3 X  89.457 Y  62.342 I  -0.002 J  -0.327
G3 X  89.442 Y  62.093 I   0.169 J  -0.135
G2 X  89.365 Y  61.820 I  -0.163 J  -0.101
G2 X  88.851 Y  61.688 I  -0.565 J   1.130
G2 X  87.885 Y  61.739 I  -0.210 J   5.211
G2 X  86.595 Y  61.979 I   2.490 J  17.001
G3 X  85.203 Y  62.214 I  -2.854 J -12.654
G3 X  83.827 Y  62.289 I  -1.331 J -11.728
G3 X  82.649 Y  62.213 I   0.037 J  -9.692
G3 X  81.937 Y  61.961 I   0.223 J  -1.765
G2 X  81.306 Y  61.689 I  -1.240 J   2.006
G2 X  80.444 Y  61.523 I  -1.579 J   5.910
G2 X  79.506 Y  61.478 I  -0.796 J   6.736
G2 X  78.633 Y  61.571 I   0.109 J   5.192
G3 X  77.811 Y  61.652 I  -0.854 J  -4.434
G3 X  77.025 Y  61.575 I  -0.027 J  -3.773
G3 X  76.388 Y  61.362 I   0.566 J  -2.755
G3 X  76.021 Y  61.034 I   0.371 J  -0.784
G2 X  75.683 Y  60.725 I  -0.714 J   0.441
G2 X  75.203 Y  60.609 I  -0.493 J   0.986
G2 X  74.619 Y  60.705 I  -0.021 J   1.688
G2 X  73.985 Y  61.009 I   1.101 J   3.111
F5
G1 Z  -0.118
F15
G2 X  73.455 Y  61.662 I   0.672 J   1.088
G2 X  73.481 Y  62.463 I   1.019 J   0.369
G2 X  74.209 Y  63.632 I   4.334 J  -1.887
G2 X  76.012 Y  65.663 I  44.847 J -38.010
G3 X  77.254 Y  67.032 I -54.104 J  50.329
G3 X  77.987 Y  67.943 I  -9.513 J   8.415
G3 X  77.992 Y  68.131 I  -0.134 J   0.098
G3 X  77.839 Y  68.158 I  -0.089 J  -0.058
G2 X  76.975 Y  67.586 I  -4.992 J   6.607
G2 X  76.370 Y  67.418 I  -0.632 J   1.100
G2 X  75.885 Y  67.588 I  -0.016 J   0.734
G2 X  75.435 Y  68.106 I   1.365 J   1.640
G2 X  75.173 Y  68.583 I   4.453 J   2.752
G2 X  75.186 Y  68.802 I   0.202 J   0.097
G2 X  75.360 Y  68.855 I   0.118 J  -0.076
G2 X  75.776 Y  68.638 I  -1.262 J  -2.932
G3 X  76.239 Y  68.459 I   0.710 J   1.149
G3 X  76.727 Y  68.463 I   0.235 J   1.261
G3 X  77.167 Y  68.647 I  -0.240 J   1.188
G3 X  77.490 Y  68.984 I  -0.623 J   0.921
G2 X  77.858 Y  69.373 I   1.126 J  -0.696
G2 X  78.451 Y  69.701 I   1.874 J  -2.683
G2 X  79.159 Y  69.925 I   1.503 J  -3.532
G2 X  79.879 Y  70.000 I   0.720 J  -3.402
G3 X  80.706 Y  70.173 I   0.000 J   2.065
G3 X  81.761 Y  70.734 I  -3.116 J   7.124
G3 X  82.851 Y  71.543 I  -5.051 J   7.949
G3 X  83.813 Y  72.500 I  -6.117 J   7.112
G2 X  84.723 Y  73.457 I  11.155 J  -9.699
G2 X  85.661 Y  74.266 I   7.919 J  -8.237
G2 X  86.506 Y  74.846 I   5.716 J  -7.406
G2 X  87.052 Y  75.000 I   0.547 J  -0.896
G3 X  87.416 Y  75.070 I  -0.000 J   0.986
G3 X  87.640 Y  75.266 I  -0.164 J   0.413
G3 X  87.690 Y  75.561 I  -0.389 J   0.217
G3 X  87.558 Y  75.907 I  -0.972 J  -0.173
G2 X  87.532 Y  76.199 I   0.277 J   0.171
G2 X  87.751 Y  76.393 I   0.302 J  -0.120
G2 X  88.270 Y  76.429 I   0.352 J  -1.334
G2 X  89.004 Y  76.289 I  -0.669 J  -5.506
G3 X  90.736 Y  76.250 I   0.948 J   3.627
G3 X  92.401 Y  76.980 I  -0.943 J   4.410
G3 X  93.385 Y  78.155 I  -1.741 J   2.457
G3 X  93.342 Y  79.363 I  -1.196 J   0.563
G2 X  93.130 Y  79.802 I   3.652 J   2.042
G2 X  93.203 Y  79.900 I   0.066 J   0.027
G2 X  93.442 Y  79.798 I  -0.043 J  -0.434
G2 X  94.006 Y  79.297 I -12.010 J -14.086
G3 X  94.731 Y  78.794 I   2.136 J   2.308
G3 X  95.469 Y  78.606 I   0.801 J   1.596
G3 X  96.304 Y  78.730 I   0.082 J   2.316
G3 X  97.333 Y  79.178 I  -2.270 J   6.614
G2 X  98.650 Y  79.608 I   1.868 J  -3.491
G2 X 100.784 Y  79.797 I   2.908 J -20.682
G2 X 103.544 Y  79.781 I   1.187 J -31.978
G2 X 106.930 Y  79.534 I  -3.569 J -72.519
G2 X 114.122 Y  78.820 I-113.808 J-1182.523
G2 X 116.593 Y  78.451 I  -2.740 J -26.765
G2 X 118.059 Y  77.952 I  -1.132 J  -5.734
G2 X 119.417 Y  77.069 I  -3.107 J  -6.264
G3 X 120.309 Y  76.395 I   7.720 J   9.302
G3 X 120.719 Y  76.375 I   0.221 J   0.323
G3 X 120.953 Y  76.737 I  -0.218 J   0.398
G3 X 121.000 Y  77.937 I -15.371 J   1.199
G3 X 120.939 Y  78.736 I  -5.296 J  -0.000
G3 X 120.749 Y  79.322 I  -1.875 J  -0.286
G3 X 120.468 Y  79.602 I  -0.579 J  -0.300
G3 X 120.144 Y  79.589 I  -0.150 J  -0.293
G2 X 119.865 Y  79.610 I  -0.126 J   0.204
G2 X 119.676 Y  79.926 I   0.362 J   0.431
G2 X 119.633 Y  80.584 I   2.315 J   0.483
G2 X 119.751 Y  81.477 I   7.847 J  -0.585
G3 X 119.778 Y  84.493 I  -8.283 J   1.583
G3 X 118.102 Y  93.647 I-443.253 J -76.409
G3 X 116.243 Y 102.674 I-385.099 J -74.620
G3 X 115.012 Y 105.934 I -11.682 J  -2.550
G3 X 114.442 Y 106.443 I  -1.019 J  -0.567
G3 X 113.733 Y 106.437 I  -0.347 J  -0.830
G3 X 112.715 Y 105.780 I   1.543 J  -3.510
G3 X 111.030 Y 104.184 I  28.766 J -32.047
G2 X 109.732 Y 102.965 I -20.120 J  20.120
G2 X 108.465 Y 101.935 I -13.309 J  15.089
G2 X 107.363 Y 101.173 I -10.884 J  14.569
G2 X 106.768 Y 101.000 I  -0.594 J   0.932
G3 X 106.529 Y 100.804 I   0.000 J  -0.243
G3 X 106.566 Y 100.344 I   0.835 J  -0.164
G3 X 106.938 Y  99.625 I   3.099 J   1.148
G3 X 107.595 Y  98.767 I   8.410 J   5.757
G2 X 108.649 Y  97.520 I-129.580 J-110.557
G2 X 108.779 Y  97.242 I  -0.461 J  -0.386
G2 X 108.684 Y  97.183 I  -0.059 J  -0.011
G2 X 107.757 Y  97.884 I  29.087 J  39.469
G3 X 106.384 Y  98.549 I  -2.263 J  -2.923
G3 X 105.018 Y  98.496 I  -0.591 J  -2.380
G3 X 102.813 Y  97.568 I   4.933 J -14.810
G3 X  95.650 Y  93.851 I 510.842 J-993.434
G2 X  94.388 Y  93.254 I  -8.136 J  15.545
G2 X  93.203 Y  92.823 I  -4.590 J  10.777
G2 X  92.218 Y  92.579 I  -2.821 J   9.288
G2 X  91.743 Y  92.665 I  -0.126 J   0.656
G3 X  91.408 Y  92.718 I  -0.232 J  -0.380
G3 X  91.033 Y  92.534 I   0.219 J  -0.919
G3 X  90.673 Y  92.131 I   1.063 J  -1.315
G3 X  90.388 Y  91.569 I   2.609 J  -1.673
G2 X  90.102 Y  91.008 I  -2.790 J   1.071
G2 X  89.737 Y  90.611 I  -1.374 J   0.895
G2 X  89.354 Y  90.433 I  -0.573 J   0.734
G2 X  89.010 Y  90.494 I  -0.096 J   0.461
G3 X  88.162 Y  90.655 I  -0.634 J  -1.026
G3 X  85.981 Y  90.188 I   6.122 J -33.943
G3 X  83.234 Y  89.398 I   9.309 J -37.532
G3 X  80.000 Y  88.259 I  24.786 J -75.535
G2 X  79.144 Y  88.029 I  -1.610 J   4.274
G2 X  77.619 Y  87.806 I  -6.132 J  36.632
G2 X  75.833 Y  87.621 I  -5.175 J  41.406
G2 X  74.000 Y  87.509 I  -3.708 J  45.500
G3 X  69.127 Y  87.129 I   2.741 J -66.671
G3 X  64.878 Y  86.410 I   4.614 J -40.170
G3 X  61.254 Y  85.360 I   6.785 J -30.201
G3 X  58.278 Y  83.977 I   5.993 J -16.784
G2 X  57.011 Y  83.309 I  -8.508 J  14.610
G2 X  55.873 Y  82.861 I  -3.880 J   8.185
G2 X  54.978 Y  82.648 I  -1.890 J   5.951
G2 X  54.615 Y  82.814 I  -0.057 J   0.354
G2 X  54.579 Y  83.297 I   0.447 J   0.276
G2 X  55.202 Y  84.635 I  22.143 J  -9.498
G2 X  56.093 Y  86.243 I  20.725 J -10.436
G2 X  57.233 Y  88.014 I  34.132 J -20.725
G3 X  58.396 Y  89.751 I -95.714 J  65.264
G3 X  59.351 Y  91.256 I -51.312 J  33.648
G3 X  60.145 Y  92.560 I-140.265 J  86.260
G3 X  60.146 Y  92.750 I  -0.159 J   0.096
G2 X  59.944 Y  93.441 I   1.285 J   0.752
G2 X  60.067 Y  94.202 I   1.920 J   0.079
G2 X  60.458 Y  94.785 I   1.458 J  -0.553
G2 X  61.000 Y  95.000 I   0.542 J  -0.578
G3 X  61.513 Y  95.126 I  -0.000 J   1.110
G3 X  62.294 Y  95.588 I  -3.892 J   7.471
G3 X  63.161 Y  96.234 I  -5.671 J   8.507
G3 X  64.000 Y  97.000 I  -7.939 J   9.544
G3 X  64.720 Y  97.768 I -11.387 J  11.387
G3 X  65.209 Y  98.412 I  -4.296 J   3.768
G3 X  65.417 Y  98.846 I  -1.547 J   1.010
G3 X  65.306 Y  99.000 I  -0.111 J   0.037
G2 X  65.237 Y  99.148 I   0.000 J   0.090
G2 X  65.750 Y  99.689 I   5.046 J  -4.261
G2 X  66.619 Y 100.445 I   9.687 J -10.264
G2 X  67.792 Y 101.347 I  23.590 J -29.483
G3 X  68.958 Y 102.305 I  -8.565 J  11.609
G3 X  69.822 Y 103.243 I  -5.003 J   5.476
G3 X  70.307 Y 104.036 I  -3.356 J   2.595
G3 X  70.237 Y 104.507 I  -0.389 J   0.183
G2 X  70.005 Y 104.793 I   2.471 J   2.237
G2 X  70.024 Y 104.907 I   0.066 J   0.048
G2 X  70.172 Y 104.920 I   0.085 J  -0.121
G2 X  70.548 Y 104.726 I  -2.258 J  -4.836
G3 X  71.051 Y 104.562 I   0.659 J   1.162
G3 X  71.695 Y 104.559 I   0.336 J   2.853
G3 X  72.375 Y 104.706 I  -0.354 J   3.272
G3 X  72.983 Y 104.990 I  -0.902 J   2.729
G3 X  73.657 Y 105.522 I  -1.958 J   3.168
G3 X  73.859 Y 106.023 I  -0.488 J   0.489
G3 X  73.670 Y 106.645 I  -1.185 J  -0.021
G3 X  72.936 Y 107.674 I -11.451 J  -7.396
G2 X  72.010 Y 108.859 I 206.232 J 162.131
G2 X  71.999 Y 108.998 I   0.100 J   0.078
G2 X  72.105 Y 109.020 I   0.063 J  -0.035
G2 X  73.206 Y 108.164 I-120.153 J-155.699
G3 X  74.525 Y 107.499 I   2.321 J   2.964
G3 X  75.868 Y 107.485 I   0.698 J   2.527
G3 X  76.570 Y 108.089 I  -0.256 J   1.008
G3 X  76.500 Y 109.000 I  -0.918 J   0.387
G2 X  76.387 Y 109.384 I   0.644 J   0.398
G2 X  76.468 Y 109.821 I   1.117 J   0.020
G2 X  76.731 Y 110.244 I   1.337 J  -0.538
G2 X  77.138 Y 110.585 I   1.383 J  -1.238
G2 X  77.608 Y 110.841 I   2.549 J  -4.125
G2 X  77.808 Y 110.810 I   0.077 J  -0.162
G2 X  77.845 Y 110.616 I  -0.115 J  -0.122
G2 X  77.595 Y 110.155 I  -4.109 J   1.923
G3 X  77.426 Y 109.689 I   1.039 J  -0.642
G3 X  77.524 Y 109.318 I   0.482 J  -0.071
G3 X  77.891 Y 109.078 I   0.538 J   0.422
G3 X  78.500 Y 109.000 I   0.609 J   2.341
G3 X  79.086 Y 109.057 I   0.000 J   3.051
G3 X  79.499 Y 109.233 I  -0.207 J   1.060
G3 X  79.676 Y 109.493 I  -0.256 J   0.365
G3 X  79.628 Y 109.792 I  -0.383 J   0.093
G2 X  79.618 Y 110.106 I   0.268 J   0.166
G2 X  79.897 Y 110.398 I   0.659 J  -0.349
G2 X  80.462 Y 110.625 I   1.014 J  -1.709
G2 X  81.229 Y 110.742 I   1.150 J  -4.963
G3 X  82.073 Y 110.863 I  -0.480 J   6.367
G3 X  82.879 Y 111.094 I  -1.242 J   5.862
G3 X  83.540 Y 111.392 I  -1.659 J   4.562
G3 X  83.910 Y 111.717 I  -0.531 J   0.975
G2 X  85.033 Y 112.303 I   1.146 J  -0.827
G2 X  90.952 Y 112.331 I   4.098 J-248.423
G2 X  97.247 Y 112.119 I  -0.879 J-119.918
G2 X 103.000 Y 111.577 I  -5.084 J -84.829
G3 X 104.881 Y 111.338 I 114.263 J 888.758
G3 X 106.811 Y 111.096 I 124.474 J 984.647
G3 X 108.529 Y 110.883 I 109.521 J 880.231
G3 X 109.655 Y 110.749 I  20.953 J 171.125
G2 X 110.448 Y 110.600 I  -0.656 J  -5.666
G2 X 111.040 Y 110.353 I  -0.591 J  -2.249
G2 X 111.345 Y 110.055 I  -0.456 J  -0.772
G2 X 111.345 Y 109.750 I  -0.246 J  -0.153
G3 X 111.309 Y 109.467 I   0.294 J  -0.182
G3 X 111.496 Y 109.220 I   0.431 J   0.133
G3 X 111.917 Y 109.054 I   0.631 J   0.978
G3 X 112.508 Y 109.000 I   0.591 J   3.235
G3 X 113.180 Y 109.113 I  -0.000 J   2.043
G3 X 113.598 Y 109.442 I  -0.268 J   0.771
G3 X 113.751 Y 109.989 I  -0.813 J   0.524
G3 X 113.636 Y 110.750 I  -3.039 J  -0.073
G2 X 113.298 Y 111.946 I 246.150 J  70.209
G1 X 112.218 Y 115.805
G1 X 110.935 Y 120.393
G1 X 109.510 Y 125.500
G3 X 108.084 Y 130.607 I-9320.532 J-2600.180
G3 X 106.799 Y 135.195 I-6069.494 J-1696.820
G3 X 105.716 Y 139.053 I-8105.812 J-2272.724
G3 X 105.374 Y 140.250 I-130.233 J -36.582
G3 X 105.068 Y 140.919 I  -2.421 J  -0.704
G3 X 104.577 Y 141.486 I  -2.285 J  -1.483
G3 X 103.982 Y 141.869 I  -1.592 J  -1.820
G3 X 103.374 Y 142.000 I  -0.608 J  -1.344
G3 X 102.829 Y 141.919 I   0.000 J  -1.867
G3 X 102.501 Y 141.676 I   0.178 J  -0.584
G3 X 102.421 Y 141.304 I   0.422 J  -0.284
G3 X 102.595 Y 140.845 I   1.276 J   0.222
G2 X 102.845 Y 140.385 I  -3.849 J  -2.379
G2 X 102.808 Y 140.190 I  -0.154 J  -0.072
G2 X 102.610 Y 140.158 I  -0.123 J   0.128
G2 X 102.143 Y 140.411 I   2.023 J   4.281
G3 X 101.484 Y 140.500 I  -0.429 J  -0.694
G3 X 100.458 Y 140.075 I   1.467 J  -4.989
G3 X  99.250 Y 139.271 I   3.991 J  -7.308
G3 X  97.989 Y 138.143 I   9.521 J -11.909
G2 X  96.842 Y 137.036 I -30.990 J  30.990
G2 X  95.878 Y 136.202 I -12.356 J  13.289
G2 X  95.149 Y 135.654 I  -8.278 J  10.263
G2 X  95.000 Y 135.732 I  -0.054 J   0.078
G3 X  94.861 Y 135.829 I  -0.103 J  -0.000
G3 X  94.419 Y 135.615 I   0.856 J  -2.333
G3 X  93.783 Y 135.167 I   3.243 J  -5.295
G3 X  93.024 Y 134.521 I  10.281 J -12.846
G3 X  92.314 Y 133.762 I   4.173 J  -4.611
G3 X  91.813 Y 132.958 I   3.367 J  -2.656
G3 X  91.579 Y 132.232 I   2.561 J  -1.227
G3 X  91.678 Y 131.712 I   0.730 J  -0.131
G2 X  91.857 Y 131.351 I  -1.836 J  -1.134
G2 X  91.800 Y 131.186 I  -0.127 J  -0.049
G2 X  91.586 Y 131.173 I  -0.119 J   0.196
G2 X  91.163 Y 131.399 I   1.588 J   3.480
G3 X  90.548 Y 131.499 I  -0.428 J  -0.692
G3 X  89.617 Y 131.165 I   1.010 J  -4.275
G3 X  88.554 Y 130.510 I   2.920 J  -5.929
G3 X  87.508 Y 129.599 I   6.039 J  -7.995
G2 X  86.545 Y 128.674 I -23.952 J  23.952
G2 X  85.737 Y 127.982 I  -9.361 J  10.130
G2 X  85.134 Y 127.545 I  -5.564 J   7.040
G2 X  85.000 Y 127.617 I  -0.048 J   0.072
G3 X  84.882 Y 127.700 I  -0.088 J  -0.000
G3 X  84.536 Y 127.524 I   0.562 J  -1.537
G3 X  84.027 Y 127.133 I   2.656 J  -3.980
G3 X  83.419 Y 126.562 I   8.793 J  -9.971
G2 X  82.744 Y 126.001 I  -3.383 J   3.383
G2 X  82.023 Y 125.619 I  -2.027 J   2.952
G2 X  81.366 Y 125.460 I  -0.910 J   2.323
G2 X  80.886 Y 125.570 I  -0.078 J   0.761
G3 X  80.308 Y 125.676 I  -0.424 J  -0.686
G3 X  79.195 Y 125.385 I   1.750 J  -8.973
G3 X  77.864 Y 124.853 I   3.654 J -11.083
G3 X  76.467 Y 124.113 I   7.372 J -15.603
G2 X  75.136 Y 123.395 I -10.054 J  17.041
G2 X  74.018 Y 122.946 I  -3.564 J   7.256
G2 X  73.241 Y 122.791 I  -1.083 J   3.410
G2 X  73.000 Y 123.012 I  -0.019 J   0.221
G3 X  72.829 Y 123.329 I  -0.379 J   0.000
G3 X  72.404 Y 123.456 I  -0.424 J  -0.646
G3 X  71.701 Y 123.352 I   0.003 J  -2.450
G3 X  70.750 Y 123.010 I   2.747 J  -9.121
G2 X  69.517 Y 122.542 I  -7.096 J  16.848
G2 X  67.468 Y 121.869 I -38.457 J 113.585
G2 X  65.108 Y 121.141 I -40.844 J 128.181
G2 X  62.737 Y 120.456 I -38.397 J 128.616
G3 X  60.567 Y 119.775 I   9.387 J -33.690
G3 X  58.833 Y 119.054 I   5.420 J -15.482
G3 X  57.640 Y 118.383 I   4.894 J -10.096
G3 X  57.539 Y 117.937 I   0.177 J  -0.274
G2 X  57.594 Y 117.654 I  -0.348 J  -0.215
G2 X  57.434 Y 117.485 I  -0.206 J   0.035
G2 X  57.012 Y 117.488 I  -0.204 J   0.918
G2 X  56.388 Y 117.681 I   1.146 J   4.808
G3 X  55.639 Y 117.927 I  -2.840 J  -7.402
G3 X  55.273 Y 117.891 I  -0.136 J  -0.497
G3 X  55.173 Y 117.656 I   0.088 J  -0.177
G3 X  55.388 Y 117.181 I   1.955 J   0.601
G2 X  55.609 Y 116.720 I  -2.038 J  -1.260
G2 X  55.544 Y 116.470 I  -0.218 J  -0.077
G2 X  55.260 Y 116.396 I  -0.216 J   0.244
G2 X  54.692 Y 116.565 I   0.817 J   3.777
G3 X  53.946 Y 116.605 I  -0.434 J  -1.132
G3 X  52.803 Y 116.197 I   1.889 J  -7.108
G3 X  51.511 Y 115.491 I   4.026 J  -8.899
G3 X  50.246 Y 114.553 I   6.936 J -10.684
G2 X  47.543 Y 112.564 I -16.607 J  19.737
G2 X  45.629 Y 111.973 I  -2.025 J   3.164
G2 X  44.781 Y 112.677 I  -0.025 J   0.833
G2 X  44.961 Y 114.397 I   3.334 J   0.521
G3 X  45.259 Y 115.371 I  -7.216 J   2.744
G3 X  45.403 Y 116.314 I  -5.807 J   1.368
G3 X  45.389 Y 117.102 I  -4.433 J   0.316
G3 X  45.186 Y 117.558 I  -0.805 J  -0.086
G2 X  45.000 Y 117.807 I   1.284 J   1.154
G2 X  45.040 Y 117.903 I   0.054 J   0.033
G2 X  45.237 Y 117.880 I   0.066 J  -0.294
G2 X  45.653 Y 117.662 I  -2.881 J  -5.984
G3 X  46.193 Y 117.604 I   0.335 J   0.587
G3 X  46.786 Y 117.952 I  -0.475 J   1.491
G3 X  47.374 Y 118.689 I  -2.212 J   2.368
G3 X  47.889 Y 119.751 I  -6.734 J   3.921
G2 X  48.447 Y 121.052 I  22.327 J  -8.806
G2 X  49.249 Y 122.721 I  62.679 J -29.099
G2 X  50.143 Y 124.459 I  66.033 J -32.835
G2 X  50.997 Y 126.000 I  43.048 J -22.848
G3 X  51.734 Y 127.435 I -14.175 J   8.193
G3 X  52.279 Y 128.854 I -11.735 J   5.318
G3 X  52.587 Y 130.078 I  -9.861 J   3.131
G3 X  52.521 Y 130.802 I  -1.314 J   0.247
G2 X  52.396 Y 131.263 I   2.246 J   0.860
G2 X  52.460 Y 131.542 I   0.370 J   0.062
G2 X  52.672 Y 131.627 I   0.172 J  -0.122
G2 X  53.011 Y 131.493 I  -0.201 J  -1.008
G3 X  53.389 Y 131.345 I   0.597 J   0.966
G3 X  53.710 Y 131.390 I   0.095 J   0.484
G3 X  53.924 Y 131.621 I  -0.210 J   0.409
G3 X  54.000 Y 132.000 I  -0.903 J   0.379
G2 X  54.077 Y 132.378 I   0.963 J   0.000
G2 X  54.294 Y 132.608 I   0.421 J  -0.180
G2 X  54.618 Y 132.651 I   0.225 J  -0.449
G2 X  55.000 Y 132.500 I  -0.232 J  -1.144
G3 X  55.596 Y 132.475 I   0.320 J   0.517
G3 X  56.037 Y 132.982 I  -0.407 J   0.800
G3 X  56.201 Y 134.069 I  -2.868 J   0.990
G3 X  56.035 Y 135.500 I  -8.629 J  -0.277
G2 X  56.005 Y 135.838 I   1.524 J   0.308
G2 X  56.099 Y 136.000 I   0.193 J  -0.004
G2 X  56.279 Y 135.999 I   0.089 J  -0.151
G2 X  56.536 Y 135.798 I  -0.711 J  -1.169
G3 X  57.333 Y 135.657 I   0.499 J   0.499
G3 X  58.563 Y 136.455 I  -2.228 J   4.780
G3 X  59.646 Y 137.667 I  -4.223 J   4.863
G3 X  60.000 Y 138.806 I  -1.655 J   1.139
G2 X  60.117 Y 139.264 I   0.954 J  -0.000
G2 X  60.514 Y 139.880 I   4.405 J  -2.406
G2 X  61.080 Y 140.532 I   5.045 J  -3.803
G2 X  61.750 Y 141.128 I   5.172 J  -5.146
G2 X  62.880 Y 142.008 I 140.172 J-178.733
G2 X  63.000 Y 142.000 I   0.056 J  -0.072
G2 X  63.008 Y 141.880 I  -0.065 J  -0.065
G2 X  62.128 Y 140.750 I-179.613 J 139.042
G3 X  61.628 Y 140.028 I   5.769 J  -4.524
G3 X  61.423 Y 139.478 I   1.344 J  -0.815
G3 X  61.514 Y 139.145 I   0.401 J  -0.069
G3 X  61.828 Y 139.000 I   0.314 J   0.267
G3 X  62.297 Y 139.097 I  -0.000 J   1.178
G3 X  62.820 Y 139.394 I  -1.132 J   2.606
G3 X  63.315 Y 139.829 I  -1.938 J   2.704
G3 X  63.700 Y 140.342 I  -2.204 J   2.056
G2 X  64.270 Y 140.975 I   1.890 J  -1.126
G2 X  65.514 Y 141.833 I  11.326 J -15.090
G2 X  67.064 Y 142.728 I  11.741 J -18.571
G2 X  68.750 Y 143.535 I  12.101 J -23.115
G3 X  70.378 Y 144.306 I -11.227 J  25.787
G3 X  71.752 Y 145.096 I  -7.698 J  14.979
G3 X  72.785 Y 145.818 I  -8.274 J  12.943
G3 X  73.000 Y 146.251 I  -0.330 J   0.433
G2 X  73.064 Y 146.542 I   0.692 J  -0.000
G2 X  73.240 Y 146.715 I   0.318 J  -0.147
G2 X  73.505 Y 146.741 I   0.171 J  -0.387
G2 X  73.817 Y 146.613 I  -0.227 J  -1.001
G3 X  74.364 Y 146.494 I   0.442 J   0.715
G3 X  75.696 Y 146.710 I  -2.427 J  19.220
G3 X  77.310 Y 147.097 I  -3.988 J  20.159
G3 X  79.067 Y 147.652 I  -8.511 J  30.042
G2 X  83.483 Y 148.560 I   5.626 J -16.156
G2 X  90.431 Y 148.783 I   6.360 J -89.724
G2 X  97.317 Y 148.481 I  -0.604 J -92.421
G2 X 101.301 Y 147.506 I  -1.050 J -12.914
G3 X 102.270 Y 147.192 I   2.321 J   5.506
G3 X 102.668 Y 147.376 I   0.081 J   0.348
G3 X 102.756 Y 147.980 I  -0.827 J   0.428
G3 X 102.397 Y 149.624 I -32.686 J  -6.276
G3 X 102.059 Y 150.770 I -12.422 J  -3.043
G3 X 101.625 Y 151.835 I -10.367 J  -3.594
G3 X 101.166 Y 152.692 I  -8.217 J  -3.854
G3 X 100.761 Y 153.112 I  -1.133 J  -0.688
G2 X 100.420 Y 153.396 I   1.068 J   1.626
G2 X 100.163 Y 153.744 I   1.265 J   1.204
G2 X 100.024 Y 154.099 I   1.189 J   0.669
G2 X 100.033 Y 154.405 I   0.576 J   0.136
G3 X  99.972 Y 156.158 I  -2.632 J   0.787
G3 X  97.831 Y 161.588 I-167.377 J -62.878
G3 X  95.528 Y 166.819 I-116.775 J -48.275
G3 X  93.999 Y 169.001 I  -6.970 J  -3.258
G2 X  93.332 Y 169.739 I   7.018 J   7.018
G2 X  92.848 Y 170.438 I   4.146 J   3.388
G2 X  92.583 Y 171.014 I   2.890 J   1.678
G2 X  92.653 Y 171.319 I   0.278 J   0.097
G3 X  92.805 Y 172.230 I  -0.563 J   0.563
G3 X  91.763 Y 173.961 I -10.170 J  -4.946
G3 X  90.371 Y 175.543 I  -9.508 J  -6.956
G3 X  89.228 Y 176.000 I  -1.143 J  -1.203
G3 X  88.692 Y 175.889 I  -0.000 J  -1.348
G3 X  88.148 Y 175.561 I   0.950 J  -2.191
G3 X  87.679 Y 175.077 I   1.676 J  -2.091
G3 X  87.364 Y 174.506 I   1.894 J  -1.419
G2 X  87.077 Y 173.976 I  -2.156 J   0.827
G2 X  86.691 Y 173.616 I  -1.120 J   0.813
G2 X  86.270 Y 173.479 I  -0.486 J   0.776
G2 X  85.877 Y 173.576 I  -0.047 J   0.656
G3 X  85.311 Y 173.635 I  -0.344 J  -0.557
G3 X  84.136 Y 173.136 I   3.833 J -10.660
G3 X  82.728 Y 172.338 I   6.223 J -12.627
G3 X  81.232 Y 171.286 I  12.422 J -19.255
G2 X  77.009 Y 168.189 I -79.414 J 103.861
G2 X  73.010 Y 165.530 I -53.186 J  75.657
G2 X  69.573 Y 163.498 I -39.518 J  62.921
G2 X  67.340 Y 162.561 I  -5.367 J   9.661
G3 X  66.428 Y 162.214 I   1.821 J  -6.155
G3 X  65.473 Y 161.698 I   4.167 J  -8.857
G3 X  64.618 Y 161.104 I   4.829 J  -7.864
G3 X  64.017 Y 160.521 I   2.410 J  -3.082
G2 X  63.453 Y 160.031 I  -1.776 J   1.474
G2 X  62.728 Y 159.710 I  -1.529 J   2.478
G2 X  61.958 Y 159.601 I  -0.774 J   2.693
G2 X  61.263 Y 159.729 I  -0.003 J   1.933
G3 X  60.687 Y 159.904 I  -1.496 J  -3.899
G3 X  60.306 Y 159.890 I  -0.164 J  -0.728
G3 X  60.166 Y 159.713 I   0.057 J  -0.189
G3 X  60.240 Y 159.420 I   0.501 J  -0.029
G2 X  60.177 Y 159.056 I  -0.237 J  -0.146
G2 X  59.568 Y 158.719 I  -1.315 J   1.660
G2 X  58.517 Y 158.459 I  -1.859 J   5.250
G2 X  57.155 Y 158.327 I  -2.021 J  13.793
G3 X  52.208 Y 158.038 I  10.677 J-225.580
G3 X  48.786 Y 157.693 I   3.777 J -54.460
G3 X  46.389 Y 157.308 I   5.923 J -44.526
G3 X  46.003 Y 156.844 I   0.088 J  -0.466
G2 X  45.863 Y 156.629 I  -0.237 J   0.001
G2 X  45.458 Y 156.522 I  -0.524 J   1.167
G2 X  44.861 Y 156.533 I  -0.251 J   2.686
G2 X  44.152 Y 156.671 I   0.729 J   5.637
G3 X  43.182 Y 156.743 I  -0.684 J  -2.617
G3 X  41.701 Y 156.506 I   1.490 J -14.018
G3 X  40.031 Y 156.055 I   3.535 J -16.397
G3 X  38.402 Y 155.431 I   5.397 J -16.537
G2 X  33.992 Y 153.690 I -24.037 J  54.438
G2 X  31.474 Y 153.396 I  -1.918 J   5.490
G2 X  31.036 Y 154.262 I   0.059 J   0.574
G2 X  32.546 Y 156.038 I   5.822 J  -3.420
G3 X  33.096 Y 156.632 I  -1.989 J   2.397
G3 X  33.480 Y 157.352 I  -2.612 J   1.853
G3 X  33.646 Y 158.084 I  -2.540 J   0.961
G3 X  33.557 Y 158.712 I  -1.414 J   0.119
G2 X  33.413 Y 159.210 I   2.831 J   1.087
G2 X  33.455 Y 159.525 I   0.482 J   0.095
G2 X  33.649 Y 159.631 I   0.173 J  -0.086
G2 X  33.961 Y 159.524 I  -0.078 J  -0.738
G3 X  34.824 Y 159.625 I   0.368 J   0.595
G3 X  36.090 Y 161.146 I  -7.694 J   7.685
G3 X  37.119 Y 162.977 I  -9.605 J   6.607
G3 X  37.212 Y 164.250 I  -1.703 J   0.765
G2 X  37.257 Y 164.535 I   0.333 J   0.094
G2 X  37.520 Y 164.780 I   0.633 J  -0.418
G2 X  37.977 Y 164.945 I   0.740 J  -1.329
G2 X  38.559 Y 165.000 I   0.582 J  -3.068
G3 X  39.110 Y 165.075 I  -0.000 J   2.070
G3 X  39.476 Y 165.299 I  -0.207 J   0.748
G3 X  39.602 Y 165.630 I  -0.356 J   0.326
G3 X  39.490 Y 166.016 I  -0.752 J  -0.009
G3 X  39.167 Y 166.353 I  -0.946 J  -0.585
G3 X  38.727 Y 166.537 I  -0.679 J  -1.004
G3 X  38.239 Y 166.541 I  -0.254 J  -1.257
G3 X  37.776 Y 166.362 I   0.248 J  -1.327
G2 X  37.360 Y 166.145 I  -1.678 J   2.715
G2 X  37.186 Y 166.198 I  -0.056 J   0.129
G2 X  37.173 Y 166.417 I   0.189 J   0.121
G2 X  37.435 Y 166.894 I   4.715 J  -2.275
G2 X  37.868 Y 167.413 I   2.022 J  -1.250
G2 X  38.319 Y 167.590 I   0.464 J  -0.516
G2 X  38.855 Y 167.447 I   0.019 J  -1.006
G2 X  39.579 Y 166.934 I  -2.994 J  -4.993
G3 X  40.414 Y 166.534 I   1.216 J   1.465
G3 X  41.249 Y 166.635 I   0.266 J   1.304
G3 X  42.249 Y 167.333 I  -1.549 J   3.281
G3 X  43.713 Y 168.886 I -20.906 J  21.182
G2 X  44.853 Y 170.078 I  14.521 J -12.742
G2 X  46.018 Y 171.085 I  10.181 J -10.601
G2 X  47.062 Y 171.812 I   7.447 J  -9.589
G2 X  47.723 Y 172.000 I   0.661 J  -1.065
G3 X  48.212 Y 172.056 I  -0.000 J   2.179
G3 X  48.628 Y 172.220 I  -0.336 J   1.457
G3 X  48.909 Y 172.464 I  -0.504 J   0.866
G3 X  49.011 Y 172.750 I  -0.370 J   0.293
G2 X  49.211 Y 173.137 I   0.489 J  -0.007
G2 X  50.265 Y 173.863 I  12.061 J -16.379
G2 X  51.637 Y 174.670 I  10.772 J -16.741
G2 X  53.261 Y 175.485 I  15.943 J -29.760
G3 X  54.921 Y 176.286 I -33.096 J  70.675
G3 X  56.402 Y 177.052 I -23.270 J  46.782
G3 X  57.619 Y 177.725 I -28.976 J  53.873
G3 X  58.000 Y 178.034 I  -0.739 J   1.302
G2 X  59.438 Y 178.933 I   2.248 J  -1.993
G2 X  63.584 Y 179.977 I  21.990 J -78.576
G2 X  68.463 Y 180.897 I  15.941 J -71.130
G2 X  73.462 Y 181.499 I  11.706 J -76.238
G3 X  76.215 Y 181.804 I  -5.143 J  58.926
G3 X  78.730 Y 182.220 I  -5.668 J  42.076
G3 X  80.791 Y 182.680 I  -7.901 J  40.225
G3 X  81.622 Y 183.102 I  -0.511 J   2.038
G2 X  82.199 Y 183.469 I   1.748 J  -2.106
G2 X  82.710 Y 183.556 I   0.409 J  -0.864
G2 X  83.162 Y 183.362 I  -0.089 J  -0.834
G2 X  83.565 Y 182.894 I  -1.271 J  -1.503
G2 X  83.852 Y 182.374 I  -5.032 J  -3.110
G2 X  83.803 Y 182.187 I  -0.134 J  -0.065
G2 X  83.579 Y 182.172 I  -0.124 J   0.179
G2 X  83.000 Y 182.500 I   4.015 J   7.761
G3 X  82.417 Y 182.831 I  -4.666 J  -7.550
G3 X  82.196 Y 182.812 I  -0.096 J  -0.186
G3 X  82.150 Y 182.621 I   0.092 J  -0.123
G3 X  82.447 Y 182.086 I   5.812 J   2.873
G3 X  82.841 Y 181.660 I   1.289 J   0.797
G3 X  83.391 Y 181.380 I   1.132 J   1.547
G3 X  84.010 Y 181.288 I   0.598 J   1.879
G3 X  84.601 Y 181.400 I  -0.018 J   1.700
G2 X  85.136 Y 181.521 I   0.680 J  -1.773
G2 X  85.589 Y 181.446 I   0.074 J  -0.961
G2 X  85.888 Y 181.191 I  -0.259 J  -0.606
G2 X  86.000 Y 180.802 I  -0.619 J  -0.389
G3 X  86.041 Y 180.406 I   1.931 J   0.000
G3 X  86.173 Y 180.173 I   0.434 J   0.091
G3 X  86.365 Y 180.125 I   0.139 J   0.149
G3 X  86.588 Y 180.255 I  -0.132 J   0.484
G3 X  86.711 Y 181.364 I  -0.631 J   0.631
G3 X  84.901 Y 183.885 I -22.535 J -14.266
G3 X  82.808 Y 186.182 I -20.784 J -16.835
G3 X  81.686 Y 186.306 I  -0.640 J  -0.655
G2 X  81.338 Y 186.128 I  -1.272 J   2.058
G2 X  81.162 Y 186.161 I  -0.063 J   0.152
G2 X  81.125 Y 186.332 I   0.107 J   0.113
G2 X  81.299 Y 186.675 I   2.119 J  -0.858
G3 X  81.174 Y 188.025 I  -0.957 J   0.592
G3 X  76.646 Y 192.828 I-147.598 J-134.589
G3 X  71.973 Y 197.471 I-145.034 J-141.305
G3 X  70.793 Y 197.459 I  -0.584 J  -0.608
G2 X  70.507 Y 197.331 I  -0.310 J   0.310
G2 X  70.153 Y 197.400 I  -0.042 J   0.738
G2 X  69.778 Y 197.664 I   0.546 J   1.170
G2 X  69.446 Y 198.088 I   1.722 J   1.693
G2 X  69.155 Y 198.624 I   4.647 J   2.872
G2 X  69.211 Y 198.822 I   0.141 J   0.067
G2 X  69.461 Y 198.838 I   0.140 J  -0.217
G2 X  70.095 Y 198.508 I  -4.038 J  -8.520
G3 X  70.858 Y 198.085 I  17.372 J  30.452
G3 X  70.974 Y 198.131 I   0.039 J   0.072
G3 X  70.940 Y 198.297 I  -0.159 J   0.054
G3 X  70.274 Y 199.030 I -41.898 J -37.486
G3 X  69.550 Y 199.623 I  -2.523 J  -2.339
G3 X  68.900 Y 199.755 I  -0.506 J  -0.825
G3 X  68.154 Y 199.447 I   0.251 J  -1.664
G3 X  67.047 Y 198.543 I   8.368 J -11.373
G3 X  66.322 Y 197.784 I   4.888 J  -5.402
G3 X  65.796 Y 197.003 I   3.660 J  -3.028
G3 X  65.527 Y 196.311 I   2.723 J  -1.461
G3 X  65.598 Y 195.842 I   0.587 J  -0.151
G2 X  65.700 Y 195.525 I  -0.591 J  -0.365
G2 X  65.598 Y 195.293 I  -0.272 J  -0.019
G2 X  65.294 Y 195.183 I  -0.316 J   0.396
G2 X  64.824 Y 195.225 I  -0.049 J   2.070
G3 X  64.344 Y 195.213 I  -0.214 J  -1.031
G3 X  63.985 Y 194.981 I   0.173 J  -0.663
G3 X  63.805 Y 194.555 I   0.647 J  -0.524
G3 X  63.833 Y 194.000 I   1.651 J  -0.194
G2 X  63.919 Y 193.463 I  -4.412 J  -0.980
G2 X  63.872 Y 193.137 I  -0.687 J  -0.068
G2 X  63.719 Y 193.053 I  -0.128 J   0.052
G2 X  63.498 Y 193.169 I   0.075 J   0.413
G3 X  62.416 Y 193.279 I  -0.608 J  -0.608
G3 X  60.380 Y 191.677 I   8.448 J -12.835
G3 X  58.585 Y 189.702 I  11.083 J -11.875
G3 X  58.397 Y 188.408 I   1.060 J  -0.815
G2 X  58.426 Y 187.948 I  -0.721 J  -0.277
G2 X  58.173 Y 187.653 I  -0.417 J   0.102
G2 X  57.592 Y 187.563 I  -0.478 J   1.161
G2 X  56.675 Y 187.700 I   0.575 J   6.991
G3 X  55.464 Y 187.947 I  -9.879 J -45.379
G3 X  55.201 Y 187.868 I  -0.056 J  -0.293
G3 X  55.209 Y 187.669 I   0.093 J  -0.096
G3 X  56.000 Y 187.045 I  14.122 J  17.095
G2 X  56.880 Y 186.367 I -28.187 J -37.468
G2 X  56.961 Y 186.161 I  -0.136 J  -0.172
G2 X  56.818 Y 186.056 I  -0.125 J   0.019
G2 X  55.871 Y 186.208 I   3.883 J  27.129
G3 X  55.112 Y 186.174 I  -0.303 J  -1.695
G3 X  54.171 Y 185.813 I   1.352 J  -4.935
G3 X  53.207 Y 185.214 I   2.798 J  -5.579
G3 X  52.371 Y 184.453 I   3.721 J  -4.927
G2 X  51.692 Y 183.730 I -27.705 J  25.321
G2 X  51.311 Y 183.395 I  -2.210 J   2.130
G2 X  51.248 Y 183.441 I  -0.024 J   0.033
G2 X  51.391 Y 183.726 I   1.173 J  -0.411
G3 X  51.761 Y 184.347 I  -5.175 J   3.495
G3 X  51.715 Y 184.608 I  -0.194 J   0.100
G3 X  51.421 Y 184.678 I  -0.208 J  -0.226
G3 X  50.641 Y 184.416 I   2.689 J  -9.301
G3 X  50.013 Y 184.109 I   1.419 J  -3.699
G3 X  49.482 Y 183.709 I   1.681 J  -2.784
G3 X  49.117 Y 183.281 I   1.635 J  -1.763
G3 X  49.000 Y 182.893 I   0.581 J  -0.388
G2 X  48.868 Y 182.550 I  -0.512 J   0.000
G2 X  48.486 Y 182.253 I  -1.032 J   0.935
G2 X  47.920 Y 182.046 I  -1.038 J   1.964
G2 X  47.250 Y 181.968 I  -0.732 J   3.371
G3 X  45.503 Y 181.602 I   0.087 J  -4.767
G3 X  43.783 Y 180.592 I   2.823 J  -6.774
G3 X  42.698 Y 179.385 I   2.948 J  -3.741
G3 X  42.766 Y 178.434 I   0.684 J  -0.430
G2 X  42.865 Y 178.244 I  -0.375 J  -0.317
G2 X  42.801 Y 178.189 I  -0.045 J  -0.012
G2 X  42.452 Y 178.382 I   0.730 J   1.732
G2 X  41.856 Y 178.817 I  10.862 J  15.487
G3 X  40.956 Y 179.395 I  -4.056 J  -5.328
G3 X  40.269 Y 179.560 I  -0.657 J  -1.229
G3 X  39.621 Y 179.361 I   0.027 J  -1.245
G3 X  38.856 Y 178.753 I   2.683 J  -4.161
G2 X  38.135 Y 178.233 I  -2.142 J   2.208
G2 X  37.064 Y 177.761 I  -4.146 J   7.957
G2 X  35.847 Y 177.402 I  -3.461 J   9.485
G2 X  34.661 Y 177.222 I  -1.796 J   7.882
G3 X  33.489 Y 177.087 I   1.117 J -14.769
G3 X  32.314 Y 176.857 I   2.419 J -15.460
G3 X  31.296 Y 176.574 I   3.119 J -13.220
G3 X  30.661 Y 176.279 I   0.852 J  -2.664
G2 X  30.083 Y 176.021 I  -1.196 J   1.905
G2 X  29.295 Y 175.854 I  -1.588 J   5.554
G2 X  28.438 Y 175.793 I  -0.882 J   6.306
G2 X  27.641 Y 175.856 I  -0.019 J   4.786
G3 X  26.838 Y 175.931 I  -0.927 J  -5.626
G3 X  26.425 Y 175.784 I  -0.013 J  -0.617
G3 X  26.320 Y 175.456 I   0.210 J  -0.248
G3 X  26.545 Y 174.927 I   1.844 J   0.471
G2 X  26.828 Y 174.418 I  -5.289 J  -3.269
G2 X  26.813 Y 174.198 I  -0.197 J  -0.098
G2 X  26.634 Y 174.147 I  -0.120 J   0.080
G2 X  26.183 Y 174.387 I   1.654 J   3.647
G3 X  25.575 Y 174.540 I  -0.546 J  -0.884
G3 X  24.645 Y 174.392 I   0.282 J  -4.763
G3 X  23.579 Y 174.009 I   1.641 J  -6.243
G3 X  22.528 Y 173.427 I   3.421 J  -7.408
G2 X  20.956 Y 172.431 I -32.399 J  49.448
G2 X  20.381 Y 172.270 I  -0.573 J   0.938
G2 X  20.082 Y 172.520 I   0.000 J   0.305
G2 X  20.000 Y 173.430 I   5.007 J   0.910
G2 X  20.163 Y 174.233 I   2.058 J  -0.000
G2 X  20.706 Y 175.309 I   8.321 J  -3.523
G2 X  21.484 Y 176.452 I   9.399 J  -5.558
G2 X  22.403 Y 177.494 I   8.811 J  -6.849
G3 X  23.369 Y 178.560 I -10.336 J  10.336
G3 X  23.885 Y 179.410 I  -2.724 J   2.235
G3 X  23.958 Y 180.024 I  -1.011 J   0.432
G3 X  23.653 Y 180.420 I  -0.524 J  -0.088
G2 X  23.301 Y 180.609 I   1.222 J   2.699
G2 X  23.297 Y 180.724 I   0.037 J   0.059
G2 X  23.502 Y 180.783 I   0.181 J  -0.244
G2 X  24.059 Y 180.721 I  -0.728 J  -9.125
G3 X  25.705 Y 181.217 I   0.287 J   2.026
G3 X  30.100 Y 185.285 I -97.414 J 109.638
G3 X  34.298 Y 189.515 I -94.800 J  98.303
G3 X  35.000 Y 191.272 I  -1.850 J   1.758
G2 X  35.083 Y 191.542 I   0.481 J  -0.000
G2 X  35.296 Y 191.687 I   0.289 J  -0.196
G2 X  35.622 Y 191.672 I   0.136 J  -0.614
G2 X  36.008 Y 191.495 I  -0.519 J  -1.641
G3 X  36.508 Y 191.372 I   0.442 J   0.715
G3 X  37.179 Y 191.515 I  -0.170 J   2.441
G3 X  37.906 Y 191.884 I  -1.181 J   3.227
G3 X  38.579 Y 192.436 I  -2.463 J   3.688
G2 X  39.291 Y 193.035 I   3.818 J  -3.818
G2 X  40.135 Y 193.541 I   3.888 J  -5.528
G2 X  40.978 Y 193.889 I   2.708 J  -5.368
G2 X  41.678 Y 194.000 I   0.701 J  -2.147
G3 X  42.240 Y 194.100 I   0.000 J   1.636
G3 X  42.627 Y 194.385 I  -0.293 J   0.801
G3 X  42.784 Y 194.820 I  -0.618 J   0.469
G3 X  42.698 Y 195.344 I  -1.302 J   0.057
G2 X  42.617 Y 195.924 I   1.215 J   0.466
G2 X  42.859 Y 196.270 I   0.421 J  -0.037
G2 X  43.476 Y 196.380 I   0.515 J  -1.104
G2 X  44.591 Y 196.227 I  -0.895 J -10.669
G3 X  45.514 Y 196.114 I   1.309 J   6.848
G3 X  46.292 Y 196.158 I   0.192 J   3.469
G3 X  46.821 Y 196.340 I  -0.293 J   1.713
G3 X  47.000 Y 196.639 I  -0.161 J   0.299
G2 X  47.534 Y 197.556 I   1.054 J   0.000
G2 X  49.876 Y 198.719 I  11.729 J -20.677
G2 X  53.172 Y 199.931 I  12.971 J -30.178
G2 X  57.363 Y 201.094 I  22.513 J -73.042
G3 X  59.893 Y 201.765 I -17.992 J  72.867
G3 X  60.918 Y 202.245 I  -0.969 J   3.407
G3 X  61.037 Y 202.718 I  -0.207 J   0.303
G3 X  60.525 Y 203.246 I  -1.142 J  -0.595
G3 X  59.637 Y 203.585 I  -1.604 J  -2.866
G3 X  58.329 Y 203.803 I  -2.611 J -11.676
G3 X  56.860 Y 203.884 I  -1.498 J -13.675
G3 X  55.440 Y 203.803 I  -0.026 J -12.025
G2 X  53.987 Y 203.719 I  -1.452 J  12.434
G2 X  52.824 Y 203.848 I   0.001 J   5.296
G2 X  52.001 Y 204.171 I   0.642 J   2.852
G2 X  51.571 Y 204.674 I   0.498 J   0.859
G3 X  51.208 Y 205.205 I  -1.295 J  -0.497
G3 X  50.481 Y 205.756 I  -3.507 J  -3.871
