(Generated with: DXF2GCODE, Version: PyQt5 Beta, Date: $Date: Sun Oct 4 21:49:52 2015 +0200 $)
(Created from file: C:/MakeMIT/Result/Out_1.dxf)
(Time: Sat Feb 20 12:03:25 2016)
G20 (Units in inches)  G90 (Absolute programming) G64 (Default cutting) G17 (XY plane) G40 (Cancel radius comp.) G49 (Cancel length comp.)
G0 Z   0.591 

(*** LAYER: 0 ***)
T1 M6
S6000

(* SHAPE Nr: 0 *)
G0 X  40.370 Y  72.000
M3 M8
G0 Z   0.118 
F5
G1 Z  -0.059
F15
G2 X  39.063 Y  72.755 I   0.000 J   1.509
G2 X  37.983 Y  75.252 I  10.279 J   5.930
G2 X  37.242 Y  78.849 I  19.459 J   5.879
G2 X  37.000 Y  83.154 I  38.097 J   4.305
G3 X  36.952 Y  86.678 I-130.200 J  -0.000
G3 X  36.708 Y  88.081 I  -4.917 J  -0.133
G3 X  36.162 Y  88.568 I  -0.693 J  -0.228
G3 X  35.250 Y  88.478 I  -0.312 J  -1.517
G2 X  34.419 Y  88.161 I  -5.135 J  12.217
G2 X  33.353 Y  87.816 I -10.725 J  31.231
G2 X  32.239 Y  87.495 I -10.072 J  32.926
G2 X  31.250 Y  87.255 I  -5.338 J  19.814
G3 X  30.389 Y  87.003 I   1.347 J  -6.213
G3 X  29.661 Y  86.651 I   1.461 J  -3.944
G3 X  29.156 Y  86.257 I   1.448 J  -2.376
G3 X  29.000 Y  85.883 I   0.368 J  -0.374
G2 X  28.565 Y  85.178 I  -0.789 J   0.000
G2 X  27.547 Y  85.037 I  -0.718 J   1.428
G2 X  26.356 Y  85.564 I   0.543 J   2.835
G2 X  25.627 Y  86.530 I   1.315 J   1.750
G2 X  25.518 Y  88.071 I   2.472 J   0.949
G2 X  26.375 Y  91.201 I  38.262 J  -8.787
G2 X  27.719 Y  94.841 I  40.685 J -12.961
G2 X  29.449 Y  98.528 I  47.715 J -20.135
G2 X  31.932 Y 102.574 I  29.105 J -15.078
G2 X  36.088 Y 108.068 I 112.940 J -81.126
G2 X  40.409 Y 113.292 I 142.736 J-113.655
G2 X  42.613 Y 115.061 I   5.831 J  -5.008
G3 X  43.527 Y 115.602 I  -5.822 J  10.878
G3 X  44.299 Y 116.171 I  -4.487 J   6.885
G3 X  44.860 Y 116.697 I  -4.207 J   5.053
G3 X  45.000 Y 117.048 I  -0.370 J   0.351
G2 X  45.165 Y 117.393 I   0.444 J   0.000
G2 X  45.881 Y 117.914 I   5.385 J  -6.652
G2 X  46.851 Y 118.472 I   5.615 J  -8.629
G2 X  48.000 Y 119.000 I   7.561 J -14.952
G3 X  49.149 Y 119.532 I  -5.980 J  14.436
G3 X  50.119 Y 120.101 I  -4.451 J   8.682
G3 X  50.830 Y 120.637 I  -4.358 J   6.522
G3 X  51.000 Y 121.005 I  -0.311 J   0.367
G2 X  51.137 Y 121.334 I   0.465 J  -0.000
G2 X  51.587 Y 121.697 I   1.924 J  -1.929
G2 X  52.234 Y 122.034 I   2.178 J  -3.389
G2 X  53.000 Y 122.290 I   2.291 J  -5.576
G3 X  54.075 Y 122.943 I  -0.556 J   2.125
G3 X  54.676 Y 124.109 I  -1.906 J   1.720
G3 X  54.943 Y 126.327 I -11.206 J   2.476
G3 X  55.000 Y 131.341 I-222.167 J   5.015
G3 X  54.915 Y 134.813 I -71.240 J  -0.000
G3 X  54.662 Y 138.191 I -64.486 J  -3.146
G3 X  54.295 Y 141.072 I -56.754 J  -5.765
G3 X  53.848 Y 142.685 I  -7.014 J  -1.075
G2 X  51.474 Y 154.981 I  29.482 J  12.068
G2 X  53.093 Y 171.223 I  88.652 J  -0.635
G2 X  57.707 Y 187.060 I  88.172 J -17.098
G2 X  64.608 Y 198.173 I  33.944 J -13.379
G2 X  68.468 Y 201.774 I  23.267 J -21.071
G2 X  72.300 Y 203.996 I   9.740 J -12.384
G2 X  77.295 Y 205.416 I   9.080 J -22.443
G2 X  85.250 Y 206.524 I  21.797 J-127.343
G3 X  87.454 Y 206.821 I  -4.522 J  41.962
G3 X  89.311 Y 207.202 I  -3.566 J  22.087
G3 X  90.745 Y 207.611 I  -5.462 J  21.866
G3 X  91.000 Y 207.961 I  -0.112 J   0.350
G2 X  91.200 Y 208.315 I   0.415 J   0.000
G2 X  91.990 Y 208.723 I   3.298 J  -5.424
G2 X  93.080 Y 209.108 I   3.444 J  -8.012
G2 X  94.371 Y 209.410 I   4.074 J -14.527
G3 X  95.829 Y 209.796 I  -1.889 J  10.070
G3 X  97.423 Y 210.438 I  -5.616 J  16.249
G3 X  98.908 Y 211.217 I  -6.968 J  15.084
G3 X 100.024 Y 212.021 I  -3.879 J   6.564
G2 X 100.972 Y 212.779 I   9.893 J -11.407
G2 X 101.933 Y 213.419 I   7.342 J  -9.984
G2 X 102.786 Y 213.879 I   5.380 J  -8.957
G2 X 103.319 Y 214.000 I   0.533 J  -1.108
G3 X 104.321 Y 214.300 I   0.000 J   1.823
G3 X 105.843 Y 215.433 I  -9.027 J  13.715
G3 X 108.035 Y 217.415 I -25.395 J  30.287
G3 X 111.549 Y 220.900 I-196.822 J 201.948
G3 X 113.857 Y 223.685 I -14.506 J  14.370
G3 X 116.265 Y 227.543 I -41.372 J  28.506
G3 X 118.992 Y 232.793 I -76.386 J  43.005
G3 X 122.334 Y 240.057 I-257.587 J 122.927
G2 X 123.125 Y 241.519 I   9.687 J  -4.294
G2 X 124.195 Y 242.969 I  12.298 J  -7.956
G2 X 125.367 Y 244.200 I  10.296 J  -8.626
G2 X 126.455 Y 244.976 I   3.565 J  -3.852
G3 X 127.430 Y 245.558 I  -5.670 J  10.594
G3 X 128.253 Y 246.182 I  -4.556 J   6.865
G3 X 128.845 Y 246.764 I  -4.185 J   4.857
G3 X 129.000 Y 247.169 I  -0.453 J   0.405
G2 X 129.220 Y 247.492 I   0.346 J  -0.000
G2 X 130.084 Y 247.756 I   2.182 J  -5.592
G2 X 131.277 Y 247.940 I   1.942 J  -8.627
G2 X 132.692 Y 248.000 I   1.415 J -16.634
G2 X 134.774 Y 247.799 I  -0.000 J -10.890
G2 X 136.437 Y 247.193 I  -1.082 J  -5.553
G2 X 138.117 Y 245.977 I  -4.196 J  -7.564
G2 X 140.354 Y 243.750 I -29.532 J -31.906
G2 X 142.003 Y 241.830 I -22.212 J -20.750
G2 X 143.675 Y 239.573 I -36.153 J -28.531
G2 X 145.130 Y 237.335 I -35.456 J -24.628
G2 X 146.085 Y 235.500 I -13.544 J  -8.216
G2 X 147.806 Y 230.519 I -29.501 J -12.983
G2 X 149.056 Y 224.398 I -61.199 J -15.684
G2 X 149.692 Y 218.207 I -62.128 J  -9.514
G2 X 149.528 Y 213.017 I -30.677 J  -1.624
G2 X 148.574 Y 208.064 I -33.939 J   3.966
G2 X 146.582 Y 201.489 I-110.227 J  29.806
G2 X 144.310 Y 195.115 I-176.601 J  59.360
G2 X 142.959 Y 193.475 I  -3.084 J   1.163
G3 X 142.513 Y 192.659 I   0.495 J  -0.800
G3 X 142.770 Y 191.223 I   4.543 J   0.073
G3 X 143.690 Y 189.268 I  10.031 J   3.530
G3 X 145.284 Y 186.866 I  28.113 J  16.927
G2 X 147.104 Y 183.453 I -11.193 J  -8.158
G2 X 149.031 Y 177.505 I -81.011 J -29.538
G2 X 150.542 Y 171.307 I -80.764 J -22.972
G2 X 151.000 Y 166.772 I -22.245 J  -4.535
G3 X 151.083 Y 164.464 I  31.982 J  -0.000
G3 X 151.466 Y 163.540 I   1.586 J   0.115
G3 X 152.294 Y 163.105 I   0.965 J   0.833
G3 X 154.257 Y 163.000 I   1.962 J  18.243
G2 X 157.559 Y 162.752 I  -0.000 J -22.121
G2 X 160.778 Y 162.014 I  -3.264 J -21.620
G2 X 163.667 Y 160.858 I  -5.799 J -18.678
G2 X 165.982 Y 159.360 I  -5.383 J -10.856
G2 X 170.987 Y 154.505 I -27.083 J -32.926
G2 X 174.395 Y 149.476 I -18.634 J -16.301
G2 X 177.184 Y 142.600 I -37.843 J -19.353
G2 X 180.427 Y 131.113 I-250.435 J -76.905
G3 X 182.324 Y 124.123 I 279.080 J  71.968
G3 X 183.708 Y 120.142 I  35.496 J  10.111
G3 X 185.157 Y 117.400 I  15.227 J   6.291
G3 X 187.090 Y 114.986 I  13.621 J   8.929
G3 X 190.255 Y 112.158 I  21.419 J  20.787
G3 X 193.309 Y 110.334 I   9.105 J  11.780
G3 X 196.618 Y 109.333 I   5.649 J  12.699
G3 X 200.547 Y 109.000 I   3.929 J  23.002
G2 X 202.254 Y 108.944 I   0.000 J -25.970
G2 X 203.692 Y 108.771 I  -0.887 J -13.469
G2 X 204.769 Y 108.526 I  -1.881 J -10.759
G2 X 205.000 Y 108.221 I  -0.086 J  -0.305
G3 X 205.258 Y 107.871 I   0.367 J   0.000
G3 X 207.074 Y 107.345 I  13.810 J  44.266
G3 X 209.353 Y 106.813 I   9.303 J  34.743
G3 X 212.060 Y 106.331 I  13.303 J  66.812
G2 X 217.096 Y 105.252 I  -7.307 J -46.402
G2 X 219.944 Y 103.792 I  -2.039 J  -7.487
G2 X 221.437 Y 101.606 I  -2.910 J  -3.589
G2 X 221.968 Y  98.297 I -10.734 J  -3.421
G2 X 221.599 Y  94.643 I -16.624 J  -0.165
G2 X 220.400 Y  91.919 I  -7.217 J   1.549
G2 X 218.209 Y  89.866 I  -6.150 J   4.367
G2 X 214.831 Y  88.246 I  -9.323 J  15.118
G3 X 212.979 Y  87.541 I  14.480 J -40.769
G3 X 211.419 Y  86.839 I   9.109 J -22.346
G3 X 210.196 Y  86.198 I  12.389 J -25.132
G3 X 210.000 Y  85.865 I   0.185 J  -0.333
G2 X 209.795 Y  85.552 I  -0.341 J   0.000
G2 X 208.531 Y  85.043 I -10.295 J  23.703
G2 X 206.916 Y  84.508 I  -7.992 J  21.427
G2 X 205.000 Y  84.000 I -11.721 J  40.364
G3 X 203.084 Y  83.485 I   8.552 J -35.649
G3 X 201.469 Y  82.929 I   5.771 J -19.368
G3 X 200.225 Y  82.392 I   7.456 J -18.991
G3 X 200.000 Y  82.037 I   0.167 J  -0.355
G2 X 199.757 Y  81.683 I  -0.379 J  -0.000
G2 X 198.164 Y  81.114 I -12.943 J  33.719
G2 X 196.146 Y  80.523 I  -9.456 J  28.567
G2 X 193.750 Y  79.968 I -13.852 J  54.303
G3 X 191.319 Y  79.415 I  14.347 J -68.699
G3 X 189.189 Y  78.833 I  10.351 J -42.041
G3 X 187.450 Y  78.277 I  15.347 J -50.980
G3 X 187.000 Y  77.936 I   0.287 J  -0.848
G2 X 186.525 Y  77.601 I  -0.691 J   0.475
G2 X 184.297 Y  77.037 I -23.829 J  89.449
G2 X 181.602 Y  76.452 I -14.771 J  61.554
G2 X 178.500 Y  75.896 I -20.535 J 105.666
G3 X 173.912 Y  75.037 I  16.891 J-102.914
G3 X 171.295 Y  74.210 I   2.863 J -13.605
G3 X 169.324 Y  73.022 I   3.318 J  -7.736
G3 X 167.212 Y  71.054 I  12.849 J -15.909
G1 X 163.923 Y  67.526
G1 X 166.212 Y  66.723
G2 X 171.065 Y  62.949 I  -3.196 J  -9.117
G2 X 174.772 Y  55.335 I -26.616 J -17.669
G2 X 175.917 Y  48.138 I -21.390 J  -7.093
G2 X 173.351 Y  45.194 I  -2.988 J   0.014
G3 X 172.318 Y  44.849 I   0.428 J  -3.006
G3 X 171.544 Y  44.176 I   1.164 J  -2.122
G3 X 170.976 Y  43.084 I   3.053 J  -2.282
G3 X 170.558 Y  41.456 I  12.117 J  -3.980
G2 X 169.802 Y  39.168 I  -8.880 J   1.666
G2 X 168.524 Y  37.479 I  -4.924 J   2.396
G2 X 166.929 Y  36.635 I  -2.508 J   2.810
G2 X 165.250 Y  36.718 I  -0.702 J   2.809
G2 X 164.772 Y  37.012 I   0.461 J   1.287
G2 X 164.367 Y  37.517 I   1.629 J   1.723
G2 X 164.093 Y  38.146 I   2.285 J   1.368
G2 X 164.000 Y  38.806 I   2.285 J   0.660
G3 X 163.482 Y  39.181 I  -0.395 J   0.000
G3 X 162.591 Y  38.497 I   0.529 J  -1.611
G3 X 161.454 Y  36.290 I  10.106 J  -6.602
G3 X 160.849 Y  33.982 I   9.603 J  -3.754
G2 X 159.410 Y  31.702 I  -3.258 J   0.461
G2 X 156.696 Y  31.184 I  -1.975 J   2.977
G2 X 153.348 Y  32.838 I   1.560 J   7.371
G2 X 150.566 Y  36.158 I   8.646 J  10.071
G2 X 149.824 Y  37.774 I   7.410 J   4.377
G2 X 149.059 Y  40.308 I  37.866 J  12.825
G2 X 148.387 Y  43.206 I  44.016 J  11.725
G2 X 147.925 Y  46.072 I  40.631 J   8.027
G3 X 146.949 Y  51.418 I -48.440 J  -6.082
G3 X 145.421 Y  56.317 I -37.768 J  -9.094
G3 X 143.414 Y  60.576 I -30.619 J -11.822
G3 X 141.003 Y  64.000 I -18.010 J -10.122
G3 X 139.370 Y  65.422 I  -5.894 J  -5.118
G3 X 137.579 Y  66.143 I  -2.725 J  -4.183
G3 X 134.706 Y  66.440 I  -3.170 J -16.643
G3 X 127.879 Y  66.500 I  -6.827 J-388.727
G3 X 123.220 Y  66.431 I  -0.000 J-156.376
G3 X 119.639 Y  66.209 I   1.665 J -55.850
G3 X 116.964 Y  65.883 I   4.674 J -49.570
G3 X 116.214 Y  65.400 I   0.160 J  -1.074
G2 X 115.832 Y  64.943 I  -2.075 J   1.346
G2 X 115.270 Y  64.481 I  -3.747 J   3.987
G2 X 114.628 Y  64.083 I  -3.366 J   4.703
G2 X 114.003 Y  63.817 I  -1.792 J   3.355
G3 X 113.440 Y  63.514 I   0.536 J  -1.664
G3 X 113.367 Y  63.154 I   0.181 J  -0.224
G3 X 113.791 Y  62.699 I   1.063 J   0.564
G3 X 114.955 Y  62.024 I  10.526 J  16.819
G2 X 119.853 Y  58.219 I  -8.696 J -16.250
G2 X 124.481 Y  52.126 I -30.804 J -28.198
G2 X 128.032 Y  45.092 I -37.069 J -23.126
G2 X 129.690 Y  38.406 I -23.954 J  -9.490
G2 X 129.878 Y  35.353 I -31.966 J  -3.499
G2 X 129.604 Y  33.313 I  -6.999 J  -0.097
G2 X 128.727 Y  31.302 I  -8.152 J   2.354
G2 X 126.750 Y  28.227 I -50.530 J  30.324
G3 X 125.363 Y  26.089 I  38.648 J -26.585
G3 X 124.087 Y  23.867 I  40.834 J -24.934
G3 X 123.075 Y  21.864 I  36.939 J -19.924
G3 X 122.596 Y  20.525 I   6.597 J  -3.115
G2 X 122.054 Y  19.054 I  -7.122 J   1.787
G2 X 121.318 Y  18.354 I  -1.323 J   0.655
G2 X 120.055 Y  18.099 I  -1.229 J   2.836
G2 X 117.241 Y  18.203 I   0.576 J  53.769
G3 X 114.346 Y  18.304 I  -3.243 J -51.318
G3 X 113.070 Y  18.013 I  -0.019 J  -2.858
G3 X 112.269 Y  17.219 I   0.774 J  -1.581
G3 X 111.520 Y  15.402 I  12.185 J  -6.088
G2 X 110.310 Y  12.483 I -20.245 J   6.685
G2 X 108.886 Y  10.519 I  -6.807 J   3.435
G2 X 107.171 Y   9.394 I  -3.577 J   3.587
G2 X 105.100 Y   9.000 I  -2.071 J   5.240
G2 X 102.726 Y   9.386 I   0.000 J   7.490
G2 X 100.361 Y  10.521 I   3.336 J   9.981
G2 X  98.582 Y  12.046 I   4.684 J   7.268
G2 X  98.000 Y  13.576 I   1.722 J   1.530
G3 X  97.834 Y  14.218 I  -1.329 J   0.000
G3 X  97.395 Y  14.568 I  -0.641 J  -0.354
G3 X  96.590 Y  14.624 I  -0.532 J  -1.856
G3 X  95.250 Y  14.364 I   1.966 J -13.753
G3 X  94.173 Y  14.044 I   2.762 J -11.272
G3 X  93.210 Y  13.640 I   2.865 J  -8.175
G3 X  92.467 Y  13.215 I   3.043 J  -6.176
G3 X  92.167 Y  12.845 I   0.434 J  -0.659
G2 X  91.108 Y  12.060 I  -1.160 J   0.458
G2 X  88.167 Y  12.037 I  -1.620 J  19.766
G2 X  85.134 Y  12.484 I   1.283 J  19.226
G2 X  83.429 Y  13.429 I   0.791 J   3.440
G2 X  82.880 Y  14.190 I   2.063 J   2.063
G2 X  82.420 Y  15.321 I   7.254 J   3.615
G2 X  82.105 Y  16.607 I   8.750 J   2.819
G2 X  82.000 Y  17.863 I   7.431 J   1.256
G2 X  82.354 Y  21.955 I  23.799 J  -0.000
G2 X  83.598 Y  28.150 I 123.004 J -21.468
G2 X  85.243 Y  34.599 I 122.877 J -27.917
G2 X  86.989 Y  39.820 I  57.176 J -16.208
G3 X  87.821 Y  42.278 I -28.617 J  11.063
G3 X  88.620 Y  45.284 I -60.494 J  17.678
G3 X  89.272 Y  48.340 I -61.621 J  14.750
G3 X  89.653 Y  50.950 I -31.817 J   5.975
G3 X  89.666 Y  55.589 I -22.835 J   2.387
G3 X  88.705 Y  59.769 I -16.768 J  -1.653
G3 X  86.120 Y  65.785 I -58.614 J -21.631
G3 X  78.667 Y  80.717 I-1647.508 J-812.943
G3 X  72.080 Y  93.728 I-5640.692 J-2847.334
G3 X  70.814 Y  95.785 I -13.111 J  -6.656
G3 X  70.199 Y  95.624 I  -0.276 J  -0.203
G3 X  69.999 Y  92.500 I  26.947 J  -3.287
G2 X  69.824 Y  88.689 I -47.664 J   0.286
G2 X  69.230 Y  86.616 I  -5.603 J   0.483
G2 X  68.032 Y  85.363 I  -2.692 J   1.374
G2 X  65.924 Y  84.517 I  -4.153 J   7.300
G3 X  64.654 Y  83.975 I   1.072 J  -4.271
G3 X  63.605 Y  83.064 I   2.403 J  -3.826
G3 X  62.697 Y  81.679 I   5.237 J  -4.422
G3 X  61.846 Y  79.688 I  17.562 J  -8.682
G2 X  60.100 Y  76.099 I -17.987 J   6.535
G2 X  58.223 Y  75.108 I  -1.789 J   1.115
G2 X  56.255 Y  76.216 I   0.103 J   2.485
G2 X  54.189 Y  80.006 I  20.587 J  13.681
G3 X  52.725 Y  82.865 I -23.877 J -10.426
G3 X  51.345 Y  84.274 I  -3.577 J  -2.120
G3 X  50.423 Y  84.065 I  -0.356 J  -0.571
G3 X  50.000 Y  82.614 I   2.278 J  -1.450
G2 X  49.387 Y  80.925 I  -2.635 J  -0.000
G2 X  45.722 Y  76.715 I-104.922 J  87.658
G2 X  41.873 Y  72.632 I-109.381 J  99.239
G2 X  40.370 Y  72.000 I  -1.503 J   1.472
F5
G1 Z  -0.118
F15
G2 X  39.063 Y  72.755 I   0.000 J   1.509
G2 X  37.983 Y  75.252 I  10.279 J   5.930
G2 X  37.242 Y  78.849 I  19.459 J   5.879
G2 X  37.000 Y  83.154 I  38.097 J   4.305
G3 X  36.952 Y  86.678 I-130.200 J  -0.000
G3 X  36.708 Y  88.081 I  -4.917 J  -0.133
G3 X  36.162 Y  88.568 I  -0.693 J  -0.228
G3 X  35.250 Y  88.478 I  -0.312 J  -1.517
G2 X  34.419 Y  88.161 I  -5.135 J  12.217
G2 X  33.353 Y  87.816 I -10.725 J  31.231
G2 X  32.239 Y  87.495 I -10.072 J  32.926
G2 X  31.250 Y  87.255 I  -5.338 J  19.814
G3 X  30.389 Y  87.003 I   1.347 J  -6.213
G3 X  29.661 Y  86.651 I   1.461 J  -3.944
G3 X  29.156 Y  86.257 I   1.448 J  -2.376
G3 X  29.000 Y  85.883 I   0.368 J  -0.374
G2 X  28.565 Y  85.178 I  -0.789 J   0.000
G2 X  27.547 Y  85.037 I  -0.718 J   1.428
G2 X  26.356 Y  85.564 I   0.543 J   2.835
G2 X  25.627 Y  86.530 I   1.315 J   1.750
G2 X  25.518 Y  88.071 I   2.472 J   0.949
G2 X  26.375 Y  91.201 I  38.262 J  -8.787
G2 X  27.719 Y  94.841 I  40.685 J -12.961
G2 X  29.449 Y  98.528 I  47.715 J -20.135
G2 X  31.932 Y 102.574 I  29.105 J -15.078
G2 X  36.088 Y 108.068 I 112.940 J -81.126
G2 X  40.409 Y 113.292 I 142.736 J-113.655
G2 X  42.613 Y 115.061 I   5.831 J  -5.008
G3 X  43.527 Y 115.602 I  -5.822 J  10.878
G3 X  44.299 Y 116.171 I  -4.487 J   6.885
G3 X  44.860 Y 116.697 I  -4.207 J   5.053
G3 X  45.000 Y 117.048 I  -0.370 J   0.351
G2 X  45.165 Y 117.393 I   0.444 J   0.000
G2 X  45.881 Y 117.914 I   5.385 J  -6.652
G2 X  46.851 Y 118.472 I   5.615 J  -8.629
G2 X  48.000 Y 119.000 I   7.561 J -14.952
G3 X  49.149 Y 119.532 I  -5.980 J  14.436
G3 X  50.119 Y 120.101 I  -4.451 J   8.682
G3 X  50.830 Y 120.637 I  -4.358 J   6.522
G3 X  51.000 Y 121.005 I  -0.311 J   0.367
G2 X  51.137 Y 121.334 I   0.465 J  -0.000
G2 X  51.587 Y 121.697 I   1.924 J  -1.929
G2 X  52.234 Y 122.034 I   2.178 J  -3.389
G2 X  53.000 Y 122.290 I   2.291 J  -5.576
G3 X  54.075 Y 122.943 I  -0.556 J   2.125
G3 X  54.676 Y 124.109 I  -1.906 J   1.720
G3 X  54.943 Y 126.327 I -11.206 J   2.476
G3 X  55.000 Y 131.341 I-222.167 J   5.015
G3 X  54.915 Y 134.813 I -71.240 J  -0.000
G3 X  54.662 Y 138.191 I -64.486 J  -3.146
G3 X  54.295 Y 141.072 I -56.754 J  -5.765
G3 X  53.848 Y 142.685 I  -7.014 J  -1.075
G2 X  51.474 Y 154.981 I  29.482 J  12.068
G2 X  53.093 Y 171.223 I  88.652 J  -0.635
G2 X  57.707 Y 187.060 I  88.172 J -17.098
G2 X  64.608 Y 198.173 I  33.944 J -13.379
G2 X  68.468 Y 201.774 I  23.267 J -21.071
G2 X  72.300 Y 203.996 I   9.740 J -12.384
G2 X  77.295 Y 205.416 I   9.080 J -22.443
G2 X  85.250 Y 206.524 I  21.797 J-127.343
G3 X  87.454 Y 206.821 I  -4.522 J  41.962
G3 X  89.311 Y 207.202 I  -3.566 J  22.087
G3 X  90.745 Y 207.611 I  -5.462 J  21.866
G3 X  91.000 Y 207.961 I  -0.112 J   0.350
G2 X  91.200 Y 208.315 I   0.415 J   0.000
G2 X  91.990 Y 208.723 I   3.298 J  -5.424
G2 X  93.080 Y 209.108 I   3.444 J  -8.012
G2 X  94.371 Y 209.410 I   4.074 J -14.527
G3 X  95.829 Y 209.796 I  -1.889 J  10.070
G3 X  97.423 Y 210.438 I  -5.616 J  16.249
G3 X  98.908 Y 211.217 I  -6.968 J  15.084
G3 X 100.024 Y 212.021 I  -3.879 J   6.564
G2 X 100.972 Y 212.779 I   9.893 J -11.407
G2 X 101.933 Y 213.419 I   7.342 J  -9.984
G2 X 102.786 Y 213.879 I   5.380 J  -8.957
G2 X 103.319 Y 214.000 I   0.533 J  -1.108
G3 X 104.321 Y 214.300 I   0.000 J   1.823
G3 X 105.843 Y 215.433 I  -9.027 J  13.715
G3 X 108.035 Y 217.415 I -25.395 J  30.287
G3 X 111.549 Y 220.900 I-196.822 J 201.948
G3 X 113.857 Y 223.685 I -14.506 J  14.370
G3 X 116.265 Y 227.543 I -41.372 J  28.506
G3 X 118.992 Y 232.793 I -76.386 J  43.005
G3 X 122.334 Y 240.057 I-257.587 J 122.927
G2 X 123.125 Y 241.519 I   9.687 J  -4.294
G2 X 124.195 Y 242.969 I  12.298 J  -7.956
G2 X 125.367 Y 244.200 I  10.296 J  -8.626
G2 X 126.455 Y 244.976 I   3.565 J  -3.852
G3 X 127.430 Y 245.558 I  -5.670 J  10.594
G3 X 128.253 Y 246.182 I  -4.556 J   6.865
G3 X 128.845 Y 246.764 I  -4.185 J   4.857
G3 X 129.000 Y 247.169 I  -0.453 J   0.405
G2 X 129.220 Y 247.492 I   0.346 J  -0.000
G2 X 130.084 Y 247.756 I   2.182 J  -5.592
G2 X 131.277 Y 247.940 I   1.942 J  -8.627
G2 X 132.692 Y 248.000 I   1.415 J -16.634
G2 X 134.774 Y 247.799 I  -0.000 J -10.890
G2 X 136.437 Y 247.193 I  -1.082 J  -5.553
G2 X 138.117 Y 245.977 I  -4.196 J  -7.564
G2 X 140.354 Y 243.750 I -29.532 J -31.906
G2 X 142.003 Y 241.830 I -22.212 J -20.750
G2 X 143.675 Y 239.573 I -36.153 J -28.531
G2 X 145.130 Y 237.335 I -35.456 J -24.628
G2 X 146.085 Y 235.500 I -13.544 J  -8.216
G2 X 147.806 Y 230.519 I -29.501 J -12.983
G2 X 149.056 Y 224.398 I -61.199 J -15.684
G2 X 149.692 Y 218.207 I -62.128 J  -9.514
G2 X 149.528 Y 213.017 I -30.677 J  -1.624
G2 X 148.574 Y 208.064 I -33.939 J   3.966
G2 X 146.582 Y 201.489 I-110.227 J  29.806
G2 X 144.310 Y 195.115 I-176.601 J  59.360
G2 X 142.959 Y 193.475 I  -3.084 J   1.163
G3 X 142.513 Y 192.659 I   0.495 J  -0.800
G3 X 142.770 Y 191.223 I   4.543 J   0.073
G3 X 143.690 Y 189.268 I  10.031 J   3.530
G3 X 145.284 Y 186.866 I  28.113 J  16.927
G2 X 147.104 Y 183.453 I -11.193 J  -8.158
G2 X 149.031 Y 177.505 I -81.011 J -29.538
G2 X 150.542 Y 171.307 I -80.764 J -22.972
G2 X 151.000 Y 166.772 I -22.245 J  -4.535
G3 X 151.083 Y 164.464 I  31.982 J  -0.000
G3 X 151.466 Y 163.540 I   1.586 J   0.115
G3 X 152.294 Y 163.105 I   0.965 J   0.833
G3 X 154.257 Y 163.000 I   1.962 J  18.243
G2 X 157.559 Y 162.752 I  -0.000 J -22.121
G2 X 160.778 Y 162.014 I  -3.264 J -21.620
G2 X 163.667 Y 160.858 I  -5.799 J -18.678
G2 X 165.982 Y 159.360 I  -5.383 J -10.856
G2 X 170.987 Y 154.505 I -27.083 J -32.926
G2 X 174.395 Y 149.476 I -18.634 J -16.301
G2 X 177.184 Y 142.600 I -37.843 J -19.353
G2 X 180.427 Y 131.113 I-250.435 J -76.905
G3 X 182.324 Y 124.123 I 279.080 J  71.968
G3 X 183.708 Y 120.142 I  35.496 J  10.111
G3 X 185.157 Y 117.400 I  15.227 J   6.291
G3 X 187.090 Y 114.986 I  13.621 J   8.929
G3 X 190.255 Y 112.158 I  21.419 J  20.787
G3 X 193.309 Y 110.334 I   9.105 J  11.780
G3 X 196.618 Y 109.333 I   5.649 J  12.699
G3 X 200.547 Y 109.000 I   3.929 J  23.002
G2 X 202.254 Y 108.944 I   0.000 J -25.970
G2 X 203.692 Y 108.771 I  -0.887 J -13.469
G2 X 204.769 Y 108.526 I  -1.881 J -10.759
G2 X 205.000 Y 108.221 I  -0.086 J  -0.305
G3 X 205.258 Y 107.871 I   0.367 J   0.000
G3 X 207.074 Y 107.345 I  13.810 J  44.266
G3 X 209.353 Y 106.813 I   9.303 J  34.743
G3 X 212.060 Y 106.331 I  13.303 J  66.812
G2 X 217.096 Y 105.252 I  -7.307 J -46.402
G2 X 219.944 Y 103.792 I  -2.039 J  -7.487
G2 X 221.437 Y 101.606 I  -2.910 J  -3.589
G2 X 221.968 Y  98.297 I -10.734 J  -3.421
G2 X 221.599 Y  94.643 I -16.624 J  -0.165
G2 X 220.400 Y  91.919 I  -7.217 J   1.549
G2 X 218.209 Y  89.866 I  -6.150 J   4.367
G2 X 214.831 Y  88.246 I  -9.323 J  15.118
G3 X 212.979 Y  87.541 I  14.480 J -40.769
G3 X 211.419 Y  86.839 I   9.109 J -22.346
G3 X 210.196 Y  86.198 I  12.389 J -25.132
G3 X 210.000 Y  85.865 I   0.185 J  -0.333
G2 X 209.795 Y  85.552 I  -0.341 J   0.000
G2 X 208.531 Y  85.043 I -10.295 J  23.703
G2 X 206.916 Y  84.508 I  -7.992 J  21.427
G2 X 205.000 Y  84.000 I -11.721 J  40.364
G3 X 203.084 Y  83.485 I   8.552 J -35.649
G3 X 201.469 Y  82.929 I   5.771 J -19.368
G3 X 200.225 Y  82.392 I   7.456 J -18.991
G3 X 200.000 Y  82.037 I   0.167 J  -0.355
G2 X 199.757 Y  81.683 I  -0.379 J  -0.000
G2 X 198.164 Y  81.114 I -12.943 J  33.719
G2 X 196.146 Y  80.523 I  -9.456 J  28.567
G2 X 193.750 Y  79.968 I -13.852 J  54.303
G3 X 191.319 Y  79.415 I  14.347 J -68.699
G3 X 189.189 Y  78.833 I  10.351 J -42.041
G3 X 187.450 Y  78.277 I  15.347 J -50.980
G3 X 187.000 Y  77.936 I   0.287 J  -0.848
G2 X 186.525 Y  77.601 I  -0.691 J   0.475
G2 X 184.297 Y  77.037 I -23.829 J  89.449
G2 X 181.602 Y  76.452 I -14.771 J  61.554
G2 X 178.500 Y  75.896 I -20.535 J 105.666
G3 X 173.912 Y  75.037 I  16.891 J-102.914
G3 X 171.295 Y  74.210 I   2.863 J -13.605
G3 X 169.324 Y  73.022 I   3.318 J  -7.736
G3 X 167.212 Y  71.054 I  12.849 J -15.909
G1 X 163.923 Y  67.526
G1 X 166.212 Y  66.723
G2 X 171.065 Y  62.949 I  -3.196 J  -9.117
G2 X 174.772 Y  55.335 I -26.616 J -17.669
G2 X 175.917 Y  48.138 I -21.390 J  -7.093
G2 X 173.351 Y  45.194 I  -2.988 J   0.014
G3 X 172.318 Y  44.849 I   0.428 J  -3.006
G3 X 171.544 Y  44.176 I   1.164 J  -2.122
G3 X 170.976 Y  43.084 I   3.053 J  -2.282
G3 X 170.558 Y  41.456 I  12.117 J  -3.980
G2 X 169.802 Y  39.168 I  -8.880 J   1.666
G2 X 168.524 Y  37.479 I  -4.924 J   2.396
G2 X 166.929 Y  36.635 I  -2.508 J   2.810
G2 X 165.250 Y  36.718 I  -0.702 J   2.809
G2 X 164.772 Y  37.012 I   0.461 J   1.287
G2 X 164.367 Y  37.517 I   1.629 J   1.723
G2 X 164.093 Y  38.146 I   2.285 J   1.368
G2 X 164.000 Y  38.806 I   2.285 J   0.660
G3 X 163.482 Y  39.181 I  -0.395 J   0.000
G3 X 162.591 Y  38.497 I   0.529 J  -1.611
G3 X 161.454 Y  36.290 I  10.106 J  -6.602
G3 X 160.849 Y  33.982 I   9.603 J  -3.754
G2 X 159.410 Y  31.702 I  -3.258 J   0.461
G2 X 156.696 Y  31.184 I  -1.975 J   2.977
G2 X 153.348 Y  32.838 I   1.560 J   7.371
G2 X 150.566 Y  36.158 I   8.646 J  10.071
G2 X 149.824 Y  37.774 I   7.410 J   4.377
G2 X 149.059 Y  40.308 I  37.866 J  12.825
G2 X 148.387 Y  43.206 I  44.016 J  11.725
G2 X 147.925 Y  46.072 I  40.631 J   8.027
G3 X 146.949 Y  51.418 I -48.440 J  -6.082
G3 X 145.421 Y  56.317 I -37.768 J  -9.094
G3 X 143.414 Y  60.576 I -30.619 J -11.822
G3 X 141.003 Y  64.000 I -18.010 J -10.122
G3 X 139.370 Y  65.422 I  -5.894 J  -5.118
G3 X 137.579 Y  66.143 I  -2.725 J  -4.183
G3 X 134.706 Y  66.440 I  -3.170 J -16.643
G3 X 127.879 Y  66.500 I  -6.827 J-388.727
G3 X 123.220 Y  66.431 I  -0.000 J-156.376
G3 X 119.639 Y  66.209 I   1.665 J -55.850
G3 X 116.964 Y  65.883 I   4.674 J -49.570
G3 X 116.214 Y  65.400 I   0.160 J  -1.074
G2 X 115.832 Y  64.943 I  -2.075 J   1.346
G2 X 115.270 Y  64.481 I  -3.747 J   3.987
G2 X 114.628 Y  64.083 I  -3.366 J   4.703
G2 X 114.003 Y  63.817 I  -1.792 J   3.355
G3 X 113.440 Y  63.514 I   0.536 J  -1.664
G3 X 113.367 Y  63.154 I   0.181 J  -0.224
G3 X 113.791 Y  62.699 I   1.063 J   0.564
G3 X 114.955 Y  62.024 I  10.526 J  16.819
G2 X 119.853 Y  58.219 I  -8.696 J -16.250
G2 X 124.481 Y  52.126 I -30.804 J -28.198
G2 X 128.032 Y  45.092 I -37.069 J -23.126
G2 X 129.690 Y  38.406 I -23.954 J  -9.490
G2 X 129.878 Y  35.353 I -31.966 J  -3.499
G2 X 129.604 Y  33.313 I  -6.999 J  -0.097
G2 X 128.727 Y  31.302 I  -8.152 J   2.354
G2 X 126.750 Y  28.227 I -50.530 J  30.324
G3 X 125.363 Y  26.089 I  38.648 J -26.585
G3 X 124.087 Y  23.867 I  40.834 J -24.934
G3 X 123.075 Y  21.864 I  36.939 J -19.924
G3 X 122.596 Y  20.525 I   6.597 J  -3.115
G2 X 122.054 Y  19.054 I  -7.122 J   1.787
G2 X 121.318 Y  18.354 I  -1.323 J   0.655
G2 X 120.055 Y  18.099 I  -1.229 J   2.836
G2 X 117.241 Y  18.203 I   0.576 J  53.769
G3 X 114.346 Y  18.304 I  -3.243 J -51.318
G3 X 113.070 Y  18.013 I  -0.019 J  -2.858
G3 X 112.269 Y  17.219 I   0.774 J  -1.581
G3 X 111.520 Y  15.402 I  12.185 J  -6.088
G2 X 110.310 Y  12.483 I -20.245 J   6.685
G2 X 108.886 Y  10.519 I  -6.807 J   3.435
G2 X 107.171 Y   9.394 I  -3.577 J   3.587
G2 X 105.100 Y   9.000 I  -2.071 J   5.240
G2 X 102.726 Y   9.386 I   0.000 J   7.490
G2 X 100.361 Y  10.521 I   3.336 J   9.981
G2 X  98.582 Y  12.046 I   4.684 J   7.268
G2 X  98.000 Y  13.576 I   1.722 J   1.530
G3 X  97.834 Y  14.218 I  -1.329 J   0.000
G3 X  97.395 Y  14.568 I  -0.641 J  -0.354
G3 X  96.590 Y  14.624 I  -0.532 J  -1.856
G3 X  95.250 Y  14.364 I   1.966 J -13.753
G3 X  94.173 Y  14.044 I   2.762 J -11.272
G3 X  93.210 Y  13.640 I   2.865 J  -8.175
G3 X  92.467 Y  13.215 I   3.043 J  -6.176
G3 X  92.167 Y  12.845 I   0.434 J  -0.659
G2 X  91.108 Y  12.060 I  -1.160 J   0.458
G2 X  88.167 Y  12.037 I  -1.620 J  19.766
G2 X  85.134 Y  12.484 I   1.283 J  19.226
G2 X  83.429 Y  13.429 I   0.791 J   3.440
G2 X  82.880 Y  14.190 I   2.063 J   2.063
G2 X  82.420 Y  15.321 I   7.254 J   3.615
G2 X  82.105 Y  16.607 I   8.750 J   2.819
G2 X  82.000 Y  17.863 I   7.431 J   1.256
G2 X  82.354 Y  21.955 I  23.799 J  -0.000
G2 X  83.598 Y  28.150 I 123.004 J -21.468
G2 X  85.243 Y  34.599 I 122.877 J -27.917
G2 X  86.989 Y  39.820 I  57.176 J -16.208
G3 X  87.821 Y  42.278 I -28.617 J  11.063
G3 X  88.620 Y  45.284 I -60.494 J  17.678
G3 X  89.272 Y  48.340 I -61.621 J  14.750
G3 X  89.653 Y  50.950 I -31.817 J   5.975
G3 X  89.666 Y  55.589 I -22.835 J   2.387
G3 X  88.705 Y  59.769 I -16.768 J  -1.653
G3 X  86.120 Y  65.785 I -58.614 J -21.631
G3 X  78.667 Y  80.717 I-1647.508 J-812.943
G3 X  72.080 Y  93.728 I-5640.692 J-2847.334
G3 X  70.814 Y  95.785 I -13.111 J  -6.656
G3 X  70.199 Y  95.624 I  -0.276 J  -0.203
G3 X  69.999 Y  92.500 I  26.947 J  -3.287
G2 X  69.824 Y  88.689 I -47.664 J   0.286
G2 X  69.230 Y  86.616 I  -5.603 J   0.483
G2 X  68.032 Y  85.363 I  -2.692 J   1.374
G2 X  65.924 Y  84.517 I  -4.153 J   7.300
G3 X  64.654 Y  83.975 I   1.072 J  -4.271
G3 X  63.605 Y  83.064 I   2.403 J  -3.826
G3 X  62.697 Y  81.679 I   5.237 J  -4.422
G3 X  61.846 Y  79.688 I  17.562 J  -8.682
G2 X  60.100 Y  76.099 I -17.987 J   6.535
G2 X  58.223 Y  75.108 I  -1.789 J   1.115
G2 X  56.255 Y  76.216 I   0.103 J   2.485
G2 X  54.189 Y  80.006 I  20.587 J  13.681
G3 X  52.725 Y  82.865 I -23.877 J -10.426
G3 X  51.345 Y  84.274 I  -3.577 J  -2.120
G3 X  50.423 Y  84.065 I  -0.356 J  -0.571
G3 X  50.000 Y  82.614 I   2.278 J  -1.450
G2 X  49.387 Y  80.925 I  -2.635 J  -0.000
G2 X  45.722 Y  76.715 I-104.922 J  87.658
G2 X  41.873 Y  72.632 I-109.381 J  99.239
G2 X  40.370 Y  72.000 I  -1.503 J   1.472
F5
G1 Z   0.118
G0 Z   0.591 
M9 M5

(* SHAPE Nr: 5 *)
G0 X 138.673 Y  89.191
M3 M8
G0 Z   0.118 
G1 Z  -0.059
F15
G2 X 138.021 Y  90.934 I   1.913 J   1.709
G2 X 138.157 Y  91.896 I   3.846 J  -0.052
G2 X 138.790 Y  94.096 I  83.714 J -22.886
G2 X 139.624 Y  96.705 I  80.857 J -24.414
G2 X 140.608 Y  99.500 I 109.603 J -37.012
G3 X 141.751 Y 102.831 I -79.835 J  29.258
G3 X 143.079 Y 107.128 I-212.374 J  67.995
G3 X 144.371 Y 111.629 I-224.417 J  66.892
G3 X 145.418 Y 115.638 I-138.714 J  38.344
G2 X 147.223 Y 121.781 I  69.186 J -16.997
G2 X 149.288 Y 126.395 I  26.582 J  -9.129
G2 X 151.685 Y 129.702 I  15.352 J  -8.605
G2 X 154.500 Y 131.842 I   7.378 J  -6.785
G2 X 157.000 Y 132.642 I   3.682 J  -7.200
G2 X 160.447 Y 132.894 I   3.436 J -23.269
G2 X 163.878 Y 132.640 I  -0.010 J -23.428
G2 X 166.316 Y 131.837 I  -1.108 J  -7.461
G2 X 168.382 Y 130.458 I  -5.908 J -11.092
G2 X 169.711 Y 128.907 I  -3.722 J  -4.534
G2 X 170.255 Y 127.245 I  -3.497 J  -2.065
G2 X 170.037 Y 125.535 I  -3.822 J  -0.381
G3 X 169.656 Y 123.703 I   5.951 J  -2.193
G3 X 169.882 Y 121.994 I   4.603 J  -0.262
G3 X 170.825 Y 120.028 I   8.103 J   2.677
G3 X 172.774 Y 117.250 I  38.925 J  25.245
G3 X 174.974 Y 114.601 I  30.843 J  23.375
G3 X 176.228 Y 114.140 I   1.068 J   0.970
G3 X 176.936 Y 114.939 I  -0.105 J   0.805
G3 X 176.758 Y 117.769 I -20.095 J   0.158
G1 X 176.252 Y 121.537
G1 X 182.192 Y 115.815
G3 X 184.608 Y 113.579 I  57.046 J  59.211
G3 X 186.955 Y 111.594 I  41.582 J  46.771
G3 X 188.991 Y 110.026 I  37.356 J  46.422
G3 X 190.066 Y 109.479 I   2.195 J   2.983
G2 X 190.806 Y 109.183 I  -1.644 J  -5.178
G2 X 191.432 Y 108.800 I  -1.709 J  -3.500
G2 X 191.866 Y 108.394 I  -1.625 J  -2.169
G2 X 192.000 Y 108.030 I  -0.425 J  -0.364
G3 X 192.719 Y 106.967 I   1.146 J   0.000
G3 X 195.739 Y 105.973 I   9.321 J  23.227
G3 X 199.586 Y 105.244 I   7.331 J  28.180
G3 X 203.649 Y 105.000 I   4.063 J  33.717
G2 X 205.700 Y 104.928 I   0.000 J -29.185
G2 X 207.428 Y 104.706 I  -1.071 J -15.195
G2 X 208.711 Y 104.391 I  -2.152 J -11.515
G2 X 209.000 Y 104.000 I  -0.120 J  -0.391
G3 X 209.179 Y 103.617 I   0.499 J  -0.000
G3 X 209.715 Y 103.294 I   1.316 J   1.576
G3 X 210.503 Y 103.073 I   1.336 J   3.253
G3 X 211.435 Y 103.000 I   0.932 J   5.903
G2 X 214.279 Y 102.707 I   0.000 J -13.931
G2 X 216.667 Y 101.833 I  -1.796 J  -8.613
G2 X 218.352 Y 100.491 I  -2.913 J  -5.388
G2 X 219.158 Y  98.824 I  -2.591 J  -2.280
G2 X 219.390 Y  96.287 I -14.383 J  -2.595
G2 X 219.015 Y  94.425 I  -4.717 J  -0.019
G2 X 218.024 Y  93.156 I  -2.867 J   1.217
G2 X 216.427 Y  92.392 I  -2.680 J   3.554
G3 X 215.497 Y  92.105 I   2.219 J  -8.842
G3 X 214.713 Y  91.747 I   1.955 J  -5.311
G3 X 214.155 Y  91.372 I   1.904 J  -3.443
G3 X 214.000 Y  91.050 I   0.259 J  -0.322
G2 X 213.773 Y  90.690 I  -0.399 J   0.000
G2 X 212.238 Y  89.998 I -16.975 J  35.640
G2 X 210.300 Y  89.249 I -12.328 J  29.008
G2 X 208.000 Y  88.500 I -19.017 J  54.464
G3 X 205.700 Y  87.754 I  17.968 J -59.343
G3 X 203.762 Y  87.017 I  11.005 J -31.817
G3 X 202.215 Y  86.338 I  17.281 J -41.498
G3 X 202.000 Y  86.001 I   0.155 J  -0.337
G2 X 201.786 Y  85.679 I  -0.349 J  -0.000
G2 X 200.384 Y  85.132 I -12.426 J  29.749
G2 X 198.608 Y  84.555 I  -9.176 J  25.218
G2 X 196.500 Y  84.000 I -13.683 J  47.695
G3 X 194.392 Y  83.446 I  11.826 J -49.295
G3 X 192.616 Y  82.872 I   7.523 J -26.317
G3 X 191.211 Y  82.329 I  11.385 J -31.515
G3 X 191.000 Y  82.013 I   0.130 J  -0.316
G2 X 190.490 Y  81.384 I  -0.643 J  -0.000
G2 X 184.788 Y  80.218 I -75.918 J 356.891
G2 X 179.307 Y  79.272 I -23.508 J 119.876
G2 X 175.635 Y  79.000 I  -3.673 J  24.616
G3 X 174.626 Y  78.927 I  -0.000 J  -7.010
G3 X 173.774 Y  78.706 I   0.581 J  -3.996
G3 X 173.190 Y  78.383 I   0.831 J  -2.190
G3 X 173.000 Y  78.000 I   0.290 J  -0.383
G2 X 172.849 Y  77.618 I  -0.557 J   0.000
G2 X 172.412 Y  77.294 I  -1.130 J   1.064
G2 X 171.765 Y  77.074 I  -1.129 J   2.257
G2 X 171.000 Y  77.000 I  -0.765 J   3.938
G2 X 170.235 Y  77.074 I   0.000 J   4.012
G2 X 169.588 Y  77.294 I   0.481 J   2.477
G2 X 169.151 Y  77.618 I   0.694 J   1.388
G2 X 169.000 Y  78.000 I   0.406 J   0.382
G3 X 168.695 Y  78.396 I  -0.409 J   0.000
G3 X 167.236 Y  78.709 I  -4.013 J -15.154
G3 X 165.284 Y  78.929 I  -3.115 J -18.868
G3 X 162.943 Y  79.000 I  -2.342 J -38.411
G2 X 157.958 Y  79.260 I   0.000 J  47.838
G2 X 152.978 Y  80.039 I   5.184 J  49.478
G2 X 148.783 Y  81.078 I  11.896 J  56.996
G2 X 148.000 Y  82.119 I   0.299 J   1.041
G3 X 147.892 Y  82.455 I  -0.577 J  -0.000
G3 X 147.588 Y  82.741 I  -0.880 J  -0.630
G3 X 147.133 Y  82.934 I  -0.831 J  -1.324
G3 X 146.596 Y  83.000 I  -0.537 J  -2.162
G2 X 144.681 Y  83.643 I  -0.000 J   3.174
G2 X 141.540 Y  86.273 I  24.998 J  33.044
G2 X 138.673 Y  89.191 I  29.220 J  31.581
F5
G1 Z  -0.118
F15
G2 X 138.021 Y  90.934 I   1.913 J   1.709
G2 X 138.157 Y  91.896 I   3.846 J  -0.052
G2 X 138.790 Y  94.096 I  83.714 J -22.886
G2 X 139.624 Y  96.705 I  80.857 J -24.414
G2 X 140.608 Y  99.500 I 109.603 J -37.012
G3 X 141.751 Y 102.831 I -79.835 J  29.258
G3 X 143.079 Y 107.128 I-212.374 J  67.995
G3 X 144.371 Y 111.629 I-224.417 J  66.892
G3 X 145.418 Y 115.638 I-138.714 J  38.344
G2 X 147.223 Y 121.781 I  69.186 J -16.997
G2 X 149.288 Y 126.395 I  26.582 J  -9.129
G2 X 151.685 Y 129.702 I  15.352 J  -8.605
G2 X 154.500 Y 131.842 I   7.378 J  -6.785
G2 X 157.000 Y 132.642 I   3.682 J  -7.200
G2 X 160.447 Y 132.894 I   3.436 J -23.269
G2 X 163.878 Y 132.640 I  -0.010 J -23.428
G2 X 166.316 Y 131.837 I  -1.108 J  -7.461
G2 X 168.382 Y 130.458 I  -5.908 J -11.092
G2 X 169.711 Y 128.907 I  -3.722 J  -4.534
G2 X 170.255 Y 127.245 I  -3.497 J  -2.065
G2 X 170.037 Y 125.535 I  -3.822 J  -0.381
G3 X 169.656 Y 123.703 I   5.951 J  -2.193
G3 X 169.882 Y 121.994 I   4.603 J  -0.262
G3 X 170.825 Y 120.028 I   8.103 J   2.677
G3 X 172.774 Y 117.250 I  38.925 J  25.245
G3 X 174.974 Y 114.601 I  30.843 J  23.375
G3 X 176.228 Y 114.140 I   1.068 J   0.970
G3 X 176.936 Y 114.939 I  -0.105 J   0.805
G3 X 176.758 Y 117.769 I -20.095 J   0.158
G1 X 176.252 Y 121.537
G1 X 182.192 Y 115.815
G3 X 184.608 Y 113.579 I  57.046 J  59.211
G3 X 186.955 Y 111.594 I  41.582 J  46.771
G3 X 188.991 Y 110.026 I  37.356 J  46.422
G3 X 190.066 Y 109.479 I   2.195 J   2.983
G2 X 190.806 Y 109.183 I  -1.644 J  -5.178
G2 X 191.432 Y 108.800 I  -1.709 J  -3.500
G2 X 191.866 Y 108.394 I  -1.625 J  -2.169
G2 X 192.000 Y 108.030 I  -0.425 J  -0.364
G3 X 192.719 Y 106.967 I   1.146 J   0.000
G3 X 195.739 Y 105.973 I   9.321 J  23.227
G3 X 199.586 Y 105.244 I   7.331 J  28.180
G3 X 203.649 Y 105.000 I   4.063 J  33.717
G2 X 205.700 Y 104.928 I   0.000 J -29.185
G2 X 207.428 Y 104.706 I  -1.071 J -15.195
G2 X 208.711 Y 104.391 I  -2.152 J -11.515
G2 X 209.000 Y 104.000 I  -0.120 J  -0.391
G3 X 209.179 Y 103.617 I   0.499 J  -0.000
G3 X 209.715 Y 103.294 I   1.316 J   1.576
G3 X 210.503 Y 103.073 I   1.336 J   3.253
G3 X 211.435 Y 103.000 I   0.932 J   5.903
G2 X 214.279 Y 102.707 I   0.000 J -13.931
G2 X 216.667 Y 101.833 I  -1.796 J  -8.613
G2 X 218.352 Y 100.491 I  -2.913 J  -5.388
G2 X 219.158 Y  98.824 I  -2.591 J  -2.280
G2 X 219.390 Y  96.287 I -14.383 J  -2.595
G2 X 219.015 Y  94.425 I  -4.717 J  -0.019
G2 X 218.024 Y  93.156 I  -2.867 J   1.217
G2 X 216.427 Y  92.392 I  -2.680 J   3.554
G3 X 215.497 Y  92.105 I   2.219 J  -8.842
G3 X 214.713 Y  91.747 I   1.955 J  -5.311
G3 X 214.155 Y  91.372 I   1.904 J  -3.443
G3 X 214.000 Y  91.050 I   0.259 J  -0.322
G2 X 213.773 Y  90.690 I  -0.399 J   0.000
G2 X 212.238 Y  89.998 I -16.975 J  35.640
G2 X 210.300 Y  89.249 I -12.328 J  29.008
G2 X 208.000 Y  88.500 I -19.017 J  54.464
G3 X 205.700 Y  87.754 I  17.968 J -59.343
G3 X 203.762 Y  87.017 I  11.005 J -31.817
G3 X 202.215 Y  86.338 I  17.281 J -41.498
G3 X 202.000 Y  86.001 I   0.155 J  -0.337
G2 X 201.786 Y  85.679 I  -0.349 J  -0.000
G2 X 200.384 Y  85.132 I -12.426 J  29.749
G2 X 198.608 Y  84.555 I  -9.176 J  25.218
G2 X 196.500 Y  84.000 I -13.683 J  47.695
G3 X 194.392 Y  83.446 I  11.826 J -49.295
G3 X 192.616 Y  82.872 I   7.523 J -26.317
G3 X 191.211 Y  82.329 I  11.385 J -31.515
G3 X 191.000 Y  82.013 I   0.130 J  -0.316
G2 X 190.490 Y  81.384 I  -0.643 J  -0.000
G2 X 184.788 Y  80.218 I -75.918 J 356.891
G2 X 179.307 Y  79.272 I -23.508 J 119.876
G2 X 175.635 Y  79.000 I  -3.673 J  24.616
G3 X 174.626 Y  78.927 I  -0.000 J  -7.010
G3 X 173.774 Y  78.706 I   0.581 J  -3.996
G3 X 173.190 Y  78.383 I   0.831 J  -2.190
G3 X 173.000 Y  78.000 I   0.290 J  -0.383
G2 X 172.849 Y  77.618 I  -0.557 J   0.000
G2 X 172.412 Y  77.294 I  -1.130 J   1.064
G2 X 171.765 Y  77.074 I  -1.129 J   2.257
G2 X 171.000 Y  77.000 I  -0.765 J   3.938
G2 X 170.235 Y  77.074 I   0.000 J   4.012
G2 X 169.588 Y  77.294 I   0.481 J   2.477
G2 X 169.151 Y  77.618 I   0.694 J   1.388
G2 X 169.000 Y  78.000 I   0.406 J   0.382
G3 X 168.695 Y  78.396 I  -0.409 J   0.000
G3 X 167.236 Y  78.709 I  -4.013 J -15.154
G3 X 165.284 Y  78.929 I  -3.115 J -18.868
G3 X 162.943 Y  79.000 I  -2.342 J -38.411
G2 X 157.958 Y  79.260 I   0.000 J  47.838
G2 X 152.978 Y  80.039 I   5.184 J  49.478
G2 X 148.783 Y  81.078 I  11.896 J  56.996
G2 X 148.000 Y  82.119 I   0.299 J   1.041
G3 X 147.892 Y  82.455 I  -0.577 J  -0.000
G3 X 147.588 Y  82.741 I  -0.880 J  -0.630
G3 X 147.133 Y  82.934 I  -0.831 J  -1.324
G3 X 146.596 Y  83.000 I  -0.537 J  -2.162
G2 X 144.681 Y  83.643 I  -0.000 J   3.174
G2 X 141.540 Y  86.273 I  24.998 J  33.044
G2 X 138.673 Y  89.191 I  29.220 J  31.581
F5
G1 Z   0.118
G0 Z   0.591 
M9 M5

(* SHAPE Nr: 12 *)
G0 X 158.948 Y 153.520
M3 M8
G0 Z   0.118 
G1 Z  -0.059
F15
G2 X 158.778 Y 154.044 I   0.249 J   0.370
G2 X 159.305 Y 155.117 I   5.513 J  -2.042
G2 X 160.368 Y 156.485 I   7.205 J  -4.500
G2 X 161.317 Y 156.885 I   0.935 J  -0.893
G2 X 162.431 Y 156.508 I  -0.022 J  -1.900
G2 X 164.165 Y 155.061 I -12.359 J -16.574
G1 X 166.246 Y 153.122
G1 X 162.188 Y 153.178
G2 X 159.743 Y 153.255 I   0.944 J  68.401
G2 X 158.948 Y 153.520 I   0.077 J   1.561
F5
G1 Z  -0.118
F15
G2 X 158.778 Y 154.044 I   0.249 J   0.370
G2 X 159.305 Y 155.117 I   5.513 J  -2.042
G2 X 160.368 Y 156.485 I   7.205 J  -4.500
G2 X 161.317 Y 156.885 I   0.935 J  -0.893
G2 X 162.431 Y 156.508 I  -0.022 J  -1.900
G2 X 164.165 Y 155.061 I -12.359 J -16.574
G1 X 166.246 Y 153.122
G1 X 162.188 Y 153.178
G2 X 159.743 Y 153.255 I   0.944 J  68.401
G2 X 158.948 Y 153.520 I   0.077 J   1.561
F5
G1 Z   0.118
G0 Z   0.591 
M9 M5

(* SHAPE Nr: 13 *)
G0 X 133.066 Y 145.246
M3 M8
G0 Z   0.118 
G1 Z  -0.059
F15
G2 X 133.022 Y 146.561 I  28.852 J   1.627
G2 X 133.159 Y 147.508 I   3.120 J   0.034
G2 X 133.605 Y 148.660 I   8.094 J  -2.477
G2 X 134.260 Y 149.822 I   8.589 J  -4.076
G2 X 135.039 Y 150.811 I   6.316 J  -4.169
G2 X 136.565 Y 152.173 I   8.133 J  -7.577
G2 X 137.987 Y 152.842 I   2.390 J  -3.233
G2 X 139.529 Y 152.905 I   0.922 J  -3.720
G2 X 141.418 Y 152.393 I  -1.554 J  -9.485
G2 X 142.708 Y 151.657 I  -1.755 J  -4.573
G2 X 142.847 Y 150.898 I  -0.364 J  -0.458
G2 X 141.944 Y 150.178 I  -1.412 J   0.845
G2 X 139.750 Y 149.605 I  -5.898 J  18.097
G3 X 138.379 Y 149.195 I   1.468 J  -7.400
G3 X 136.947 Y 148.495 I   4.351 J -10.713
G3 X 135.669 Y 147.632 I   5.498 J  -9.518
G3 X 134.772 Y 146.730 I   3.175 J  -4.056
G2 X 133.605 Y 145.250 I -84.597 J  65.536
G2 X 133.271 Y 145.070 I  -0.381 J   0.306
G2 X 133.066 Y 145.246 I  -0.018 J   0.186
F5
G1 Z  -0.118
F15
G2 X 133.022 Y 146.561 I  28.852 J   1.627
G2 X 133.159 Y 147.508 I   3.120 J   0.034
G2 X 133.605 Y 148.660 I   8.094 J  -2.477
G2 X 134.260 Y 149.822 I   8.589 J  -4.076
G2 X 135.039 Y 150.811 I   6.316 J  -4.169
G2 X 136.565 Y 152.173 I   8.133 J  -7.577
G2 X 137.987 Y 152.842 I   2.390 J  -3.233
G2 X 139.529 Y 152.905 I   0.922 J  -3.720
G2 X 141.418 Y 152.393 I  -1.554 J  -9.485
G2 X 142.708 Y 151.657 I  -1.755 J  -4.573
G2 X 142.847 Y 150.898 I  -0.364 J  -0.458
G2 X 141.944 Y 150.178 I  -1.412 J   0.845
G2 X 139.750 Y 149.605 I  -5.898 J  18.097
G3 X 138.379 Y 149.195 I   1.468 J  -7.400
G3 X 136.947 Y 148.495 I   4.351 J -10.713
G3 X 135.669 Y 147.632 I   5.498 J  -9.518
G3 X 134.772 Y 146.730 I   3.175 J  -4.056
G2 X 133.605 Y 145.250 I -84.597 J  65.536
G2 X 133.271 Y 145.070 I  -0.381 J   0.306
G2 X 133.066 Y 145.246 I  -0.018 J   0.186
F5
G1 Z   0.118
G0 Z   0.591 
M9 M5

(* SHAPE Nr: 14 *)
G0 X 165.047 Y 137.035
M3 M8
G0 Z   0.118 
G1 Z  -0.059
F15
G2 X 164.249 Y 139.055 I   6.228 J   3.630
G2 X 164.020 Y 141.549 I   9.169 J   2.102
G2 X 164.497 Y 143.834 I   7.139 J  -0.298
G2 X 164.914 Y 144.736 I   7.279 J  -2.823
G2 X 165.269 Y 144.917 I   0.309 J  -0.168
G2 X 165.703 Y 144.676 I  -0.089 J  -0.670
G2 X 166.571 Y 143.559 I -20.513 J -16.853
G2 X 167.718 Y 141.246 I  -6.004 J  -4.418
G2 X 168.037 Y 138.637 I  -7.678 J  -2.261
G2 X 167.478 Y 136.743 I  -4.091 J   0.178
G2 X 166.250 Y 136.185 I  -1.010 J   0.592
G2 X 165.047 Y 137.035 I   0.331 J   1.744
F5
G1 Z  -0.118
F15
G2 X 164.249 Y 139.055 I   6.228 J   3.630
G2 X 164.020 Y 141.549 I   9.169 J   2.102
G2 X 164.497 Y 143.834 I   7.139 J  -0.298
G2 X 164.914 Y 144.736 I   7.279 J  -2.823
G2 X 165.269 Y 144.917 I   0.309 J  -0.168
G2 X 165.703 Y 144.676 I  -0.089 J  -0.670
G2 X 166.571 Y 143.559 I -20.513 J -16.853
G2 X 167.718 Y 141.246 I  -6.004 J  -4.418
G2 X 168.037 Y 138.637 I  -7.678 J  -2.261
G2 X 167.478 Y 136.743 I  -4.091 J   0.178
G2 X 166.250 Y 136.185 I  -1.010 J   0.592
G2 X 165.047 Y 137.035 I   0.331 J   1.744
F5
G1 Z   0.118
G0 Z   0.591 
M9 M5

(* SHAPE Nr: 15 *)
G0 X 140.125 Y 129.152
M3 M8
G0 Z   0.118 
G1 Z  -0.059
F15
G2 X 139.238 Y 130.934 I   3.632 J   2.920
G2 X 138.982 Y 133.573 I   8.602 J   2.166
G2 X 139.441 Y 136.621 I  16.002 J  -0.853
G2 X 140.315 Y 138.476 I   5.151 J  -1.293
G2 X 141.550 Y 138.922 I   0.950 J  -0.699
G2 X 142.776 Y 137.930 I  -0.450 J  -1.810
G2 X 143.547 Y 135.600 I  -8.238 J  -4.020
G2 X 143.956 Y 132.405 I -27.280 J  -5.118
G2 X 143.724 Y 130.235 I  -6.219 J  -0.432
G2 X 142.879 Y 128.982 I  -2.373 J   0.689
G2 X 141.486 Y 128.500 I  -1.393 J   1.771
G2 X 140.125 Y 129.152 I   0.000 J   1.747
F5
G1 Z  -0.118
F15
G2 X 139.238 Y 130.934 I   3.632 J   2.920
G2 X 138.982 Y 133.573 I   8.602 J   2.166
G2 X 139.441 Y 136.621 I  16.002 J  -0.853
G2 X 140.315 Y 138.476 I   5.151 J  -1.293
G2 X 141.550 Y 138.922 I   0.950 J  -0.699
G2 X 142.776 Y 137.930 I  -0.450 J  -1.810
G2 X 143.547 Y 135.600 I  -8.238 J  -4.020
G2 X 143.956 Y 132.405 I -27.280 J  -5.118
G2 X 143.724 Y 130.235 I  -6.219 J  -0.432
G2 X 142.879 Y 128.982 I  -2.373 J   0.689
G2 X 141.486 Y 128.500 I  -1.393 J   1.771
G2 X 140.125 Y 129.152 I   0.000 J   1.747
F5
G1 Z   0.118
G0 Z   0.591 
M9 M5
G0 X   0.000 Y   0.000
M2 (Program end)